INTO-CPS-Association/DTaaS-examples/data/flex-cell/input/physical_twin/kukalbriiwa7_actual.csv
timestamp,actual_q_0,actual_q_1,actual_q_2,actual_q_3,actual_q_4,actual_q_5,actual_q_6,target_q_0,target_q_1,target_q_2,target_q_3,target_q_4,target_q_5,target_q_6,measured_tq_0,measured_tq_1,measured_tq_2,measured_tq_3,measured_tq_4,measured_tq_5,measured_tq_6,external_tq_0,external_tq_1,external_tq_2,external_tq_3,external_tq_4,external_tq_5,external_tq_6,force_X,force_Y,force_Z
1688473019.919,0.2748903159202816,0.3853981719972602,0.19113316732167918,-1.7158277388267837,-0.08257035090900174,1.0482959852878144,0.4934666391927578,0.2748869835413242,0.38543854691701274,0.191043024338306,-1.715785034001563,-0.082479425887224,1.048197642311283,0.49345549079307766,0.3333739318847656,46.25966579818726,-2.038948287963867,-23.962924633026123,0.8284327888488769,-0.09411797332763672,-0.12348812103271484,0.3338356935959128,8.903054594298618,-0.7560478469525913,-5.391493580874553,0.2860837731708629,-0.10643602499666165,-0.12308928232877316,-2.434822924667176,1.2344744652568427,17.448043115058837
1688473020.020,0.27489019603797865,0.3853981719972602,0.19113316732167918,-1.7158277987133939,-0.08257025491589289,1.0482959254012045,0.4934666990793678,0.2748869835413242,0.38543854691701274,0.191043024338306,-1.715785034001563,-0.082479425887224,1.048197642311283,0.49345549079307766,0.34009518051147464,46.24487905120849,-2.0398286628723143,-23.981412506103517,0.8337150382995605,-0.09211546325683594,-0.12248686599731445,0.33259487649933095,8.90212117608764,-0.756773109513493,-5.388536835441535,0.285684281382942,-0.10727989114434364,-0.12291984820925785,-2.4417433803046245,1.2399512734112148,17.45084355022751
1688473020.109,0.2748903159202816,0.3853981719972602,0.19113316732167918,-1.7158277987133939,-0.08257025491589289,1.0482959852878144,0.4934666990793678,0.2748869835413242,0.38543854691701274,0.191043024338306,-1.715785034001563,-0.082479425887224,1.048197642311283,0.49345549079307766,0.3347181816101074,46.25697729873657,-2.0371875381469726,-23.95059938430786,0.8328346633911132,-0.09745549011230469,-0.12282061767578124,0.33324609327867843,8.903578330662967,-0.7550750477735988,-5.390857936928441,0.2860057534216644,-0.10728215323231771,-0.12283448250121903,-2.4386367591719633,1.2371179224706146,17.44924824277257
1688473020.221,0.2748903159202816,0.3853981719972602,0.19113316732167918,-1.7158277987133939,-0.08257044672757767,1.0482959852878144,0.4934666990793678,0.2748869835413242,0.38543854691701274,0.191043024338306,-1.715785034001563,-0.082479425887224,1.048197642311283,0.49345549079307766,0.33068543243408205,46.235469303131104,-2.0407090377807617,-23.962044258117675,0.8275524139404297,-0.09445172500610352,-0.12248686599731445,0.33156005770561847,8.90239480546105,-0.7554139878786847,-5.388608800533903,0.2858750902844793,-0.10715042268994668,-0.12248524548465346,-2.44523910433993,1.233306805383771,17.451606993571907
1688473020.321,0.2748903159202816,0.3853981719972602,0.19113316732167918,-1.7158277987133939,-0.08257035090900174,1.0482961051701172,0.4934666990793678,0.2748869835413242,0.38543854691701274,0.191043024338306,-1.715785034001563,-0.082479425887224,1.048197642311283,0.49345549079307766,0.3239641838073731,46.23950205230713,-2.042469787597656,-23.953240509033204,0.8310739135742188,-0.0954529800415039,-0.12215311431884765,0.33266689978834474,8.90009119193765,-0.7556260272269519,-5.388358183404928,0.2858907393694574,-0.10730434523295447,-0.12279337324310197,-2.4379580759249184,1.2345158438699764,17.443052517621922
1688473020.454,0.27489025603367173,0.38539829187956326,0.19113316732167918,-1.7158277987133939,-0.08257044672757767,1.0482959852878144,0.4934666391927578,0.2748869835413242,0.38543854691701274,0.191043024338306,-1.715785034001563,-0.082479425887224,1.048197642311283,0.49345549079307766,0.3253084335327148,46.230092304229736,-2.041589412689209,-23.96380500793457,0.8354757881164551,-0.09244921493530274,-0.12215311431884765,0.33454774275007976,8.905782097303124,-0.7534652582782182,-5.392219662838617,0.28737152773444724,-0.10607239122127561,-0.12307061897204709,-2.437564228799305,1.2338186530227144,17.448663810098488
1688473020.522,0.2748903159202816,0.3853981719972602,0.19113316732167918,-1.7158277388267837,-0.08257044672757767,1.0482959852878144,0.4934666391927578,0.2748869835413242,0.38543854691701274,0.191043024338306,-1.715785034001563,-0.082479425887224,1.048197642311283,0.49345549079307766,0.33068543243408205,46.23681355285645,-2.032785663604736,-23.968206882476807,0.8328346633911132,-0.09178171157836915,-0.12282061767578124,0.330284609011184,8.906592844933662,-0.7558935668635565,-5.391547386638006,0.28698961183546656,-0.10585989967039888,-0.12274949225538147,-2.4393068516751484,1.2382308842863423,17.45030727654747
1688473020.622,0.27489019603797865,0.3853981719972602,0.19113316732167918,-1.7158277987133939,-0.08257035090900174,1.0482961051701172,0.4934666990793678,0.2748869835413242,0.38543854691701274,0.191043024338306,-1.715785034001563,-0.082479425887224,1.048197642311283,0.49345549079307766,0.337406681060791,46.24891180038452,-2.0266230392456053,-23.946197509765625,0.8337150382995605,-0.09745549011230469,-0.12415562438964843,0.32831635843157125,8.899707922433203,-0.7599216979738534,-5.390706612423868,0.28579645814741783,-0.10630262697832879,-0.12235271487442353,-2.4293134624499624,1.2229827984788353,17.43607457109455
1688473020.722,0.2748903159202816,0.3853981719972602,0.19113316732167918,-1.7158277987133939,-0.08257035090900174,1.0482961051701172,0.4934666391927578,0.2748869835413242,0.38543854691701274,0.191043024338306,-1.715785034001563,-0.082479425887224,1.048197642311283,0.49345549079307766,0.3239641838073731,46.246223300933835,-2.053914661407471,-23.95412088394165,0.8231505393981934,-0.0961204833984375,-0.12282061767578124,0.33125376755712377,8.902642229998644,-0.7551876129155535,-5.392569589517775,0.28755899712929267,-0.10615493937700185,-0.12295749051245194,-2.4321652893878642,1.226206143279627,17.445761767075876
1688473020.822,0.2748903159202816,0.3853981719972602,0.19113316732167918,-1.7158277987133939,-0.08257044672757767,1.0482959852878144,0.4934666990793678,0.2748869835413242,0.38543854691701274,0.191043024338306,-1.715785034001563,-0.082479425887224,1.048197642311283,0.49345549079307766,0.337406681060791,46.23412505340576,-2.0398286628723143,-23.98317325592041,0.8328346633911132,-0.08877794647216797,-0.12081810760498046,0.33499492499446626,8.905688430116763,-0.7536100713589491,-5.39451068781399,0.28828520211784286,-0.10605365524373034,-0.12247795635244377,-2.4320878439338864,1.2359039958490174,17.457653769319787
1688473020.922,0.27489025603367173,0.3853981719972602,0.19113316732167918,-1.7158277987133939,-0.08257025491589289,1.0482959852878144,0.4934666990793678,0.2748869835413242,0.38543854691701274,0.191043024338306,-1.715785034001563,-0.082479425887224,1.048197642311283,0.49345549079307766,0.337406681060791,46.235469303131104,-2.034546413421631,-23.971728382110594,0.831954288482666,-0.09111420822143555,-0.12148561096191406,0.3331408199300999,8.90002135016955,-0.7563670612734162,-5.392249301684888,0.2865242205317845,-0.10570665227315271,-0.12258086097325288,-2.429764071262705,1.230559929506665,17.447125362644666
1688473021.022,0.2748903159202816,0.3853981719972602,0.19113316732167918,-1.7158277987133939,-0.08257044672757767,1.0482959852878144,0.4934666391927578,0.2748869835413242,0.38543854691701274,0.191043024338306,-1.715785034001563,-0.082479425887224,1.048197642311283,0.49345549079307766,0.3360624313354492,46.251600299835204,-2.0354267883300783,-23.96380500793457,0.8337150382995605,-0.09478547668457031,-0.12115185928344727,0.33240701320952304,8.899925966549674,-0.7556590376691296,-5.390852412569057,0.28610846069196344,-0.10593325100455475,-0.12243156123560867,-2.429730234407627,1.2317798101881505,17.44341296583013
1688473021.122,0.2748903159202816,0.3853981719972602,0.19113316732167918,-1.7158277388267837,-0.08257025491589289,1.0482961051701172,0.4934666990793678,0.2748869835413242,0.38543854691701274,0.191043024338306,-1.715785034001563,-0.082479425887224,1.048197642311283,0.49345549079307766,0.33068543243408205,46.25697729873657,-2.0301445388793944,-23.975249881744386,0.8328346633911132,-0.09178171157836915,-0.12315436935424805,0.3353947796062868,8.906149283569622,-0.7559168855893073,-5.389857560460904,0.2854757467422054,-0.10617532883487443,-0.12267488837561281,-2.444763700005715,1.2433860367896257,17.450067153792098
1688473021.257,0.2748903159202816,0.38539829187956326,0.19113316732167918,-1.7158277987133939,-0.08257035090900174,1.0482959852878144,0.4934666391927578,0.2748869835413242,0.38543854691701274,0.191043024338306,-1.715785034001563,-0.082479425887224,1.048197642311283,0.49345549079307766,0.32799693298339844,46.22202680587768,-2.04775203704834,-23.978771381378174,0.8284327888488769,-0.08911169815063477,-0.12282061767578124,0.3329413999997289,8.902667895552376,-0.7561118589481586,-5.387450292854076,0.28547059031963035,-0.10661526291488066,-0.12247479317484328,-2.4365360546251154,1.2347693863448999,17.438167811222595
1688473021.327,0.2748901361513687,0.38539829187956326,0.19113316732167918,-1.7158277987133939,-0.08257035090900174,1.0482959852878144,0.4934666990793678,0.2748869835413242,0.38543854691701274,0.191043024338306,-1.715785034001563,-0.082479425887224,1.048197642311283,0.49345549079307766,0.33202968215942386,46.24487905120849,-2.0433501625061035,-23.969087257385254,0.8257916641235351,-0.09345046997070312,-0.12181936264038086,0.3331112007192877,8.902909736883144,-0.7566988217170724,-5.390496779654942,0.2853831514861324,-0.1061312966296365,-0.12254862133526952,-2.4365291753061284,1.2377039331736917,17.446675751198228
1688473021.395,0.27489019603797865,0.3853981719972602,0.19113316732167918,-1.7158277987133939,-0.08257044672757767,1.0482959852878144,0.4934666990793678,0.2748869835413242,0.38543854691701274,0.191043024338306,-1.715785034001563,-0.082479425887224,1.048197642311283,0.49345549079307766,0.33202968215942386,46.242190551757815,-2.045991287231445,-23.968206882476807,0.8284327888488769,-0.09345046997070312,-0.12248686599731445,0.3314028220522304,8.901705574936114,-0.7564664542611517,-5.3915266529105175,0.285896083268772,-0.10630018897922555,-0.12231564622268871,-2.4251532162959086,1.2347942444717013,17.440806081787045
1688473021.496,0.27489025603367173,0.38539829187956326,0.19113316732167918,-1.7158277987133939,-0.08257035090900174,1.0482959852878144,0.4934666990793678,0.2748869835413242,0.38543854691701274,0.191043024338306,-1.715785034001563,-0.082479425887224,1.048197642311283,0.49345549079307766,0.32934118270874024,46.24756755065918,-2.031024913787842,-23.969967632293702,0.8345954132080078,-0.09211546325683594,-0.12181936264038086,0.330817953156486,8.899814312243715,-0.7572093815417613,-5.389827676441501,0.28558905581376204,-0.1066731389499811,-0.12197492079273702,-2.4352600609252004,1.2343359514771648,17.44702985524481
1688473021.596,0.2748903159202816,0.3853981719972602,0.19113316732167918,-1.7158277987133939,-0.08257025491589289,1.0482959852878144,0.4934666990793678,0.2748869835413242,0.38543854691701274,0.191043024338306,-1.715785034001563,-0.082479425887224,1.048197642311283,0.49345549079307766,0.33202968215942386,46.23412505340576,-2.0407090377807617,-23.981412506103517,0.831954288482666,-0.09311671829223633,-0.12282061767578124,0.3337500523207914,8.903454573109435,-0.75642354525863,-5.38964403350634,0.2858700629501064,-0.10676951237008686,-0.12257044061768725,-2.4444030855835477,1.23561250648812,17.45142401328842
1688473021.702,0.2748903159202816,0.3853981719972602,0.19113316732167918,-1.7158277987133939,-0.08257044672757767,1.0482959254012045,0.4934666990793678,0.2748869835413242,0.38543854691701274,0.191043024338306,-1.715785034001563,-0.082479425887224,1.048197642311283,0.49345549079307766,0.3347181816101074,46.25025605010986,-2.0336660385131835,-23.970848007202147,0.8328346633911132,-0.09111420822143555,-0.12282061767578124,0.33043201711657677,8.901483638562873,-0.7578026260255488,-5.392365378890199,0.2856696680109079,-0.10654150427495448,-0.12301641028854518,-2.42583389044311,1.2240848223512941,17.441458295500624
1688473021.802,0.27489019603797865,0.38539829187956326,0.19113316732167918,-1.7158277987133939,-0.08257044672757767,1.0482959254012045,0.4934666990793678,0.2748869835413242,0.38543854691701274,0.191043024338306,-1.715785034001563,-0.082479425887224,1.048197642311283,0.49345549079307766,0.32665268325805663,46.24353480148316,-2.0468716621398926,-23.961163883209228,0.8354757881164551,-0.09311671829223633,-0.12315436935424805,0.33077407904502004,8.901860648851,-0.7588570882111083,-5.387414627710681,0.2858834547887054,-0.10704867163555784,-0.12274401006454522,-2.447095338854179,1.238116444940041,17.447905683791863
1688473021.902,0.2748903159202816,0.38539829187956326,0.19113316732167918,-1.7158277388267837,-0.08257025491589289,1.0482959852878144,0.4934666990793678,0.2748869835413242,0.38543854691701274,0.191043024338306,-1.715785034001563,-0.082479425887224,1.048197642311283,0.49345549079307766,0.33202968215942386,46.23681355285645,-2.0503931617736817,-23.97613025665283,0.8293131637573242,-0.08811044311523437,-0.12215311431884765,0.329740760893504,8.897682249824976,-0.7587625821159838,-5.387195553242403,0.2864977105173625,-0.10696389578161847,-0.12253000291217662,-2.437576930989862,1.2268964250131615,17.4368277301148
1688473022.002,0.2748903159202816,0.38539829187956326,0.19113316732167918,-1.7158277388267837,-0.08257044672757767,1.0482959852878144,0.4934666990793678,0.2748869835413242,0.38543854691701274,0.191043024338306,-1.715785034001563,-0.082479425887224,1.048197642311283,0.49345549079307766,0.3253084335327148,46.23278080368042,-2.0407090377807617,-23.969087257385254,0.8275524139404297,-0.09078045654296875,-0.12181936264038086,0.3318359297284297,8.898072484926148,-0.756617181145789,-5.388407588523184,0.2863763813741674,-0.10617064512616553,-0.12241410215352169,-2.430789059125213,1.230461828997789,17.439297447883856
1688473022.136,0.2748903159202816,0.38539829187956326,0.19113316732167918,-1.7158277987133939,-0.08257044672757767,1.0482959852878144,0.4934666990793678,0.2748869835413242,0.38543854691701274,0.191043024338306,-1.715785034001563,-0.082479425887224,1.048197642311283,0.49345549079307766,0.3427836799621582,46.25025605010986,-2.032785663604736,-23.961163883209228,0.8301935386657715,-0.0961204833984375,-0.12248686599731445,0.32817817370489266,8.901040162447552,-0.7566233377676563,-5.38899351629177,0.2867565562817945,-0.10647629044991465,-0.12204598254270782,-2.4360318618235937,1.2327078051044897,17.43415609570473
1688473022.204,0.2748903159202816,0.3853981719972602,0.19113316732167918,-1.7158277987133939,-0.08257025491589289,1.0482961051701172,0.4934666391927578,0.2748869835413242,0.38543854691701274,0.191043024338306,-1.715785034001563,-0.082479425887224,1.048197642311283,0.49345549079307766,0.32261993408203127,46.230092304229736,-2.04775203704834,-23.952360134124756,0.831954288482666,-0.09311671829223633,-0.12382187271118164,0.33222464490827364,8.902318732146883,-0.75486230570304,-5.387797907389933,0.28580883441346605,-0.10640335722534114,-0.12248209234283676,-2.442618025869161,1.2370833936034713,17.440756859495522
1688473022.304,0.2748903159202816,0.3853981719972602,0.19113316732167918,-1.7158277388267837,-0.08257025491589289,1.0482959852878144,0.4934665193104548,0.2748869835413242,0.38543854691701274,0.191043024338306,-1.715785034001563,-0.082479425887224,1.048197642311283,0.49345549079307766,0.337406681060791,46.25428879928589,-2.03806791305542,-23.96732650756836,0.8249112892150878,-0.09111420822143555,-0.12115185928344727,0.33173417006059963,8.904791268251419,-0.7529861865601117,-5.390039274861547,0.2848882794794984,-0.10635158765429664,-0.12248382733668517,-2.4413110972613943,1.2377193014827734,17.44856982986568
1688473022.403,0.2748903159202816,0.38539829187956326,0.19113316732167918,-1.7158277987133939,-0.08257044672757767,1.0482961051701172,0.4934666391927578,0.2748869835413242,0.38543854691701274,0.191043024338306,-1.715785034001563,-0.082479425887224,1.048197642311283,0.49345549079307766,0.33068543243408205,46.22740380477905,-2.0398286628723143,-23.95764238357544,0.8249112892150878,-0.09144795989990234,-0.12215311431884765,0.3332431749323657,8.902481339018397,-0.7542407757196653,-5.392818551562384,0.2862538795077668,-0.1056461858936973,-0.12299954568925738,-2.430584336796321,1.2288894313155185,17.44390951271792
1688473022.503,0.2748903159202816,0.3853981719972602,0.19113316732167918,-1.7158277987133939,-0.08257044672757767,1.0482959852878144,0.4934666391927578,0.2748869835413242,0.38543854691701274,0.191043024338306,-1.715785034001563,-0.082479425887224,1.048197642311283,0.49345549079307766,0.3441279296875,46.25025605010986,-2.031905288696289,-23.962044258117675,0.8284327888488769,-0.09278296661376953,-0.12348812103271484,0.3332404433624312,8.902454541984513,-0.7546993636341202,-5.393111707651587,0.284685451786727,-0.10528425481640769,-0.12257323376278284,-2.4262944681112675,1.2282143475321405,17.440465979779148
1688473022.603,0.27489019603797865,0.3853981719972602,0.19113316732167918,-1.7158277388267837,-0.08257035090900174,1.0482961051701172,0.4934666990793678,0.2748869835413242,0.38543854691701274,0.191043024338306,-1.715785034001563,-0.082479425887224,1.048197642311283,0.49345549079307766,0.32799693298339844,46.24756755065918,-2.038948287963867,-23.958522758483888,0.8345954132080078,-0.09411797332763672,-0.12282061767578124,0.33220015031464806,8.901962503992944,-0.7561374322185193,-5.389353038354188,0.28652437518101803,-0.10553685737470465,-0.12199942717281363,-2.4390669912168743,1.2371055113337428,17.44387643081608
1688473022.702,0.2748903159202816,0.3853981719972602,0.19113316732167918,-1.7158277388267837,-0.08257035090900174,1.0482959852878144,0.4934666990793678,0.2748869835413242,0.38543854691701274,0.191043024338306,-1.715785034001563,-0.082479425887224,1.048197642311283,0.49345549079307766,0.3360624313354492,46.23815780258179,-2.0354267883300783,-23.9866947555542,0.8284327888488769,-0.08877794647216797,-0.12215311431884765,0.33112348060427227,8.902350091324802,-0.7571029046382796,-5.391328231192339,0.2870298930917385,-0.10583685288674566,-0.12260839642766422,-2.431527215330687,1.2293533507795749,17.446270984650592
1688473022.803,0.2748903159202816,0.3853981719972602,0.19113316732167918,-1.7158277987133939,-0.08257035090900174,1.0482959852878144,0.4934666391927578,0.2748869835413242,0.38543854691701274,0.191043024338306,-1.715785034001563,-0.082479425887224,1.048197642311283,0.49345549079307766,0.3333739318847656,46.23412505340576,-2.0468716621398926,-23.97965175628662,0.8284327888488769,-0.08977920150756837,-0.12215311431884765,0.3333577689713357,8.901425780837235,-0.7559861318380122,-5.392219852045345,0.28756025903835813,-0.10529111904737248,-0.12255911020767749,-2.4277633451909244,1.233441041890585,17.444079800104536
1688473022.903,0.2748903159202816,0.3853981719972602,0.19113316732167918,-1.7158277388267837,-0.08257044672757767,1.0482961051701172,0.4934666990793678,0.2748869835413242,0.38543854691701274,0.191043024338306,-1.715785034001563,-0.082479425887224,1.048197642311283,0.49345549079307766,0.3427836799621582,46.251600299835204,-2.0398286628723143,-23.96380500793457,0.8284327888488769,-0.09311671829223633,-0.12382187271118164,0.3294032389311836,8.901121976085403,-0.7574075118379769,-5.392036546311737,0.2854747391058131,-0.10548552400357993,-0.12266112838298279,-2.4335525704001735,1.2217321647802404,17.441716019145627
1688473023.003,0.27489019603797865,0.38539829187956326,0.19113316732167918,-1.7158277987133939,-0.08257035090900174,1.0482961051701172,0.4934666990793678,0.2748869835413242,0.38543854691701274,0.191043024338306,-1.715785034001563,-0.082479425887224,1.048197642311283,0.49345549079307766,0.31993143463134766,46.242190551757815,-2.048632411956787,-23.969967632293702,0.8328346633911132,-0.09111420822143555,-0.12315436935424805,0.32967462135594305,8.902454161192484,-0.7581110842098294,-5.389498979489515,0.28586327187952465,-0.10621758027019859,-0.12233934288106703,-2.4434572697414447,1.2342134771120863,17.447617222862526
1688473023.106,0.2748903159202816,0.38539829187956326,0.19113316732167918,-1.7158277388267837,-0.08257025491589289,1.0482959852878144,0.4934666990793678,0.2748869835413242,0.38543854691701274,0.191043024338306,-1.715785034001563,-0.082479425887224,1.048197642311283,0.49345549079307766,0.3333739318847656,46.24353480148316,-2.034546413421631,-23.987575130462645,0.8301935386657715,-0.08710918807983399,-0.12282061767578124,0.33186161976480905,8.904809513741863,-0.7578463178859544,-5.390272142257466,0.28647752343330496,-0.10596538352148885,-0.12276227832118349,-2.4348376199760713,1.2313202277134316,17.443420053899366
1688473023.207,0.2748903159202816,0.3853981719972602,0.19113316732167918,-1.7158277987133939,-0.08257035090900174,1.0482959852878144,0.4934666990793678,0.2748869835413242,0.38543854691701274,0.191043024338306,-1.715785034001563,-0.082479425887224,1.048197642311283,0.49345549079307766,0.32665268325805663,46.23278080368042,-2.04775203704834,-23.968206882476807,0.8275524139404297,-0.09244921493530274,-0.12248686599731445,0.3312307168120137,8.90337949844112,-0.7587579304880487,-5.391399818172749,0.2852743261206735,-0.10542554288224021,-0.12286405112042144,-2.4327279270256725,1.2283307049346728,17.440349094798407
1688473023.306,0.2748903159202816,0.3853981719972602,0.19113316732167918,-1.7158277987133939,-0.08257044672757767,1.0482961051701172,0.4934665193104548,0.2748869835413242,0.38543854691701274,0.191043024338306,-1.715785034001563,-0.082479425887224,1.048197642311283,0.49345549079307766,0.337406681060791,46.265042797088626,-2.0433501625061035,-23.955001258850096,0.8266720390319824,-0.0964542350769043,-0.12315436935424805,0.3312287901204982,8.89944575856887,-0.7566210459776637,-5.388696995006154,0.28559782727540306,-0.10606700508928578,-0.12296934099247307,-2.438349211378515,1.2281158742202694,17.440891680972964
1688473023.407,0.27489025603367173,0.38539829187956326,0.19113304743937615,-1.7158277987133939,-0.08257035090900174,1.0482959852878144,0.4934666990793678,0.2748869835413242,0.38543854691701274,0.191043024338306,-1.715785034001563,-0.082479425887224,1.048197642311283,0.49345549079307766,0.31858718490600585,46.23815780258179,-2.0433501625061035,-23.961163883209228,0.8328346633911132,-0.09211546325683594,-0.12348812103271484,0.3331994281688736,8.907404867100496,-0.7573810969476592,-5.3909074472722,0.28600787619705353,-0.1062500515459128,-0.12292219897977116,-2.4405074818781904,1.235850740754205,17.444058436140423
1688473023.507,0.2748903159202816,0.3853981719972602,0.19113316732167918,-1.7158277987133939,-0.08257025491589289,1.0482959852878144,0.4934666391927578,0.2748869835413242,0.38543854691701274,0.191043024338306,-1.715785034001563,-0.082479425887224,1.048197642311283,0.49345549079307766,0.3253084335327148,46.22874805450439,-2.0433501625061035,-23.96644613265991,0.831954288482666,-0.09111420822143555,-0.12248686599731445,0.3304611056373144,8.897935226651486,-0.7591161860778073,-5.38958574980172,0.28633436911259513,-0.10599333649330187,-0.12260696851869138,-2.425234295410871,1.223714219982623,17.433327871475253
1688473023.606,0.2748903159202816,0.38539829187956326,0.19113316732167918,-1.7158277987133939,-0.08257044672757767,1.0482961051701172,0.4934666391927578,0.2748869835413242,0.38543854691701274,0.191043024338306,-1.715785034001563,-0.082479425887224,1.048197642311283,0.49345549079307766,0.33875093078613283,46.24353480148316,-2.034546413421631,-23.958522758483888,0.8284327888488769,-0.09378422164916993,-0.12415562438964843,0.3335351812147789,8.906719947777358,-0.7569558324929764,-5.394919209531092,0.28704463090241356,-0.105712686049866,-0.12343575293200035,-2.431365222661838,1.2310659953336964,17.45323500541653
1688473023.707,0.2748903159202816,0.3853981719972602,0.19113316732167918,-1.7158277388267837,-0.08257025491589289,1.0482961051701172,0.4934666990793678,0.2748869835413242,0.38543854691701274,0.191043024338306,-1.715785034001563,-0.082479425887224,1.048197642311283,0.49345549079307766,0.33068543243408205,46.246223300933835,-2.038948287963867,-23.955001258850096,0.8310739135742188,-0.0961204833984375,-0.12282061767578124,0.32872675401135687,8.900162051569161,-0.7591317539313964,-5.389505986541521,0.28607348860577525,-0.10618373402028584,-0.12266133285331735,-2.4369673331601565,1.2242081121787476,17.441301827824706
1688473023.841,0.27489019603797865,0.3853981719972602,0.19113316732167918,-1.7158277388267837,-0.08257025491589289,1.0482959852878144,0.4934666990793678,0.2748869835413242,0.38543854691701274,0.191043024338306,-1.715785034001563,-0.082479425887224,1.048197642311283,0.49345549079307766,0.3333739318847656,46.23681355285645,-2.041589412689209,-23.965565757751463,0.8284327888488769,-0.09144795989990234,-0.12348812103271484,0.33067686439557237,8.89967680297573,-0.7576461199195423,-5.391020198636947,0.28634209736369576,-0.1063400058878354,-0.12298723865358419,-2.4319285300545594,1.2261539300885191,17.443264533688204
1688473023.909,0.27489025603367173,0.3853981719972602,0.19113316732167918,-1.7158277987133939,-0.08257044672757767,1.0482959254012045,0.4934666391927578,0.2748869835413242,0.38543854691701274,0.191043024338306,-1.715785034001563,-0.082479425887224,1.048197642311283,0.49345549079307766,0.32934118270874024,46.24084630203247,-2.045110912322998,-23.97965175628662,0.8293131637573242,-0.09278296661376953,-0.12215311431884765,0.33245112839278684,8.901138372085208,-0.7581140403861528,-5.393822508295332,0.2872794285862228,-0.10562422317216094,-0.1232640143144873,-2.4239880040018154,1.2256414631509052,17.445084191097727
1688473024.010,0.27489019603797865,0.38539829187956326,0.19113316732167918,-1.7158277987133939,-0.08257035090900174,1.0482961051701172,0.4934666391927578,0.2748869835413242,0.38543854691701274,0.191043024338306,-1.715785034001563,-0.082479425887224,1.048197642311283,0.49345549079307766,0.32934118270874024,46.23815780258179,-2.0398286628723143,-23.948838634490965,0.8284327888488769,-0.0954529800415039,-0.12248686599731445,0.33248220217874264,8.901372709600032,-0.7578283974045189,-5.393110135698471,0.2867307585407378,-0.10582722336316785,-0.12345450869702765,-2.428327163117372,1.228176776546997,17.446844080577044
1688473024.110,0.2748903159202816,0.3853981719972602,0.19113316732167918,-1.7158277388267837,-0.08257025491589289,1.0482959852878144,0.4934666391927578,0.2748869835413242,0.38543854691701274,0.191043024338306,-1.715785034001563,-0.082479425887224,1.048197642311283,0.49345549079307766,0.3333739318847656,46.24756755065918,-2.0336660385131835,-23.96468538284302,0.8337150382995605,-0.09211546325683594,-0.12148561096191406,0.3298809032489035,8.900536725416309,-0.7575228498844709,-5.390911358611511,0.2870389199417308,-0.10616028479454676,-0.1229897457124037,-2.4329411564740453,1.2259588031037743,17.443671429300434
1688473024.214,0.2748903159202816,0.3853981719972602,0.19113316732167918,-1.7158277987133939,-0.08257044672757767,1.0482959852878144,0.4934666391927578,0.2748869835413242,0.38543854691701274,0.191043024338306,-1.715785034001563,-0.082479425887224,1.048197642311283,0.49345549079307766,0.3333739318847656,46.23950205230713,-2.0363071632385252,-23.97613025665283,0.8293131637573242,-0.08777669143676758,-0.12248686599731445,0.33062129703860593,8.903415050646096,-0.7559640895639927,-5.392536689356673,0.28654511549738204,-0.10568026533521034,-0.1224027706046186,-2.4276918131351293,1.2273585957093647,17.441329215000362
1688473024.315,0.2748903159202816,0.38539829187956326,0.19113316732167918,-1.7158277987133939,-0.08257025491589289,1.0482959852878144,0.4934666990793678,0.2748869835413242,0.38543854691701274,0.191043024338306,-1.715785034001563,-0.082479425887224,1.048197642311283,0.49345549079307766,0.33875093078613283,46.24353480148316,-2.0371875381469726,-23.968206882476807,0.8301935386657715,-0.09411797332763672,-0.12315436935424805,0.3314491734080502,8.902650318261134,-0.7577065247836606,-5.394249750934076,0.28613664650852777,-0.10532775182585943,-0.12237284313486321,-2.4262148153649603,1.2275177765278293,17.44649844554653
1688473024.415,0.2748903159202816,0.3853981719972602,0.19113316732167918,-1.7158277388267837,-0.08257025491589289,1.0482959852878144,0.4934666391927578,0.2748869835413242,0.38543854691701274,0.191043024338306,-1.715785034001563,-0.082479425887224,1.048197642311283,0.49345549079307766,0.32665268325805663,46.24487905120849,-2.044230537414551,-23.96644613265991,0.8328346633911132,-0.09211546325683594,-0.12181936264038086,0.3324132902035457,8.901784997771134,-0.7560070210913159,-5.390646608040266,0.28661158028508926,-0.10641130267147261,-0.12248544998247946,-2.4346618398803934,1.2333525147843676,17.444648582031437
1688473024.514,0.2748903159202816,0.3853981719972602,0.19113316732167918,-1.7158277987133939,-0.08257025491589289,1.0482959852878144,0.4934666990793678,0.2748869835413242,0.38543854691701274,0.191043024338306,-1.715785034001563,-0.082479425887224,1.048197642311283,0.49345549079307766,0.33068543243408205,46.23815780258179,-2.0371875381469726,-23.974369506835938,0.8328346633911132,-0.09144795989990234,-0.12148561096191406,0.33021122491467136,8.897528242864084,-0.7564526272782959,-5.389302041213243,0.28526376509702955,-0.10632492803584659,-0.12192906711014954,-2.429718651861664,1.2283330316658236,17.44012472390478
1688473024.615,0.27489025603367173,0.3853981719972602,0.19113316732167918,-1.7158277987133939,-0.08257035090900174,1.0482961051701172,0.4934666391927578,0.2748869835413242,0.38543854691701274,0.191043024338306,-1.715785034001563,-0.082479425887224,1.048197642311283,0.49345549079307766,0.33068543243408205,46.242190551757815,-2.0468716621398926,-23.985814380645753,0.831954288482666,-0.08877794647216797,-0.12248686599731445,0.3317548622974261,8.901908508354513,-0.755328907337963,-5.391612922386984,0.2864205777797233,-0.10593662971284165,-0.12221529927579801,-2.4312372287925688,1.2319566986657131,17.444792539439412
1688473024.715,0.2748903159202816,0.3853981719972602,0.19113316732167918,-1.7158277388267837,-0.08257035090900174,1.0482959852878144,0.4934666990793678,0.2748869835413242,0.38543854691701274,0.191043024338306,-1.715785034001563,-0.082479425887224,1.048197642311283,0.49345549079307766,0.33068543243408205,46.24353480148316,-2.0398286628723143,-23.958522758483888,0.831954288482666,-0.09411797332763672,-0.12515687942504883,0.3315882457008933,8.898524005577,-0.7568152025868122,-5.388949669618072,0.28665690255919407,-0.10590799543322164,-0.12304674870954677,-2.4331970480610075,1.2294844570560222,17.4385848490749
1688473024.815,0.2748903159202816,0.3853981719972602,0.19113316732167918,-1.7158277388267837,-0.08257025491589289,1.0482961051701172,0.4934666990793678,0.2748869835413242,0.38543854691701274,0.191043024338306,-1.715785034001563,-0.082479425887224,1.048197642311283,0.49345549079307766,0.33202968215942386,46.24891180038452,-2.045991287231445,-23.958522758483888,0.8310739135742188,-0.09278296661376953,-0.12248686599731445,0.33187574043775414,8.90104802519966,-0.7545815367822809,-5.389619353632268,0.2870763947740097,-0.10632705761422023,-0.12333803754957826,-2.4377246650531403,1.228078733269333,17.441869279843853
1688473024.915,0.2748903159202816,0.3853981719972602,0.19113316732167918,-1.7158277987133939,-0.08257035090900174,1.0482959852878144,0.4934666990793678,0.2748869835413242,0.38543854691701274,0.191043024338306,-1.715785034001563,-0.082479425887224,1.048197642311283,0.49345549079307766,0.3347181816101074,46.23815780258179,-2.0336660385131835,-23.972608757019042,0.8293131637573242,-0.09011295318603516,-0.12315436935424805,0.3282732246349761,8.900448997197325,-0.7553085403109293,-5.387113832596222,0.28747235978686214,-0.10669901096857788,-0.12289216245608175,-2.445153044942476,1.2318897360014216,17.44405142062235
1688473025.014,0.27489019603797865,0.3853981719972602,0.19113316732167918,-1.7158277987133939,-0.08257025491589289,1.0482959852878144,0.4934666990793678,0.2748869835413242,0.38543854691701274,0.191043024338306,-1.715785034001563,-0.082479425887224,1.048197642311283,0.49345549079307766,0.3333739318847656,46.230092304229736,-2.03806791305542,-23.96732650756836,0.8284327888488769,-0.09044670486450196,-0.12248686599731445,0.33105216080775085,8.903023059754911,-0.7552660059450393,-5.390671442048062,0.28785407972228827,-0.10574168821666878,-0.1231603579590668,-2.4410625599987643,1.2325577034357562,17.44864924795522
1688473025.114,0.2748903159202816,0.38539829187956326,0.19113316732167918,-1.7158277987133939,-0.08257035090900174,1.0482959852878144,0.4934666391927578,0.2748869835413242,0.38543854691701274,0.191043024338306,-1.715785034001563,-0.082479425887224,1.048197642311283,0.49345549079307766,0.33875093078613283,46.25025605010986,-2.032785663604736,-23.952360134124756,0.8337150382995605,-0.09445172500610352,-0.12115185928344727,0.3309695213569003,8.901186071260886,-0.7546417606035289,-5.390100624421923,0.286158919733548,-0.10581636576766124,-0.12282065198617576,-2.4362332638373694,1.231547323393238,17.43936563135749
1688473025.215,0.2748903159202816,0.3853981719972602,0.19113316732167918,-1.7158277987133939,-0.08257025491589289,1.0482959852878144,0.4934666990793678,0.2748869835413242,0.38543854691701274,0.191043024338306,-1.715785034001563,-0.082479425887224,1.048197642311283,0.49345549079307766,0.32934118270874024,46.24353480148316,-2.0354267883300783,-23.945317134857177,0.8293131637573242,-0.0964542350769043,-0.12081810760498046,0.33141418271533607,8.902722016376881,-0.7551923245827064,-5.389197888945429,0.2864193057325166,-0.1057898385498362,-0.12284095609174012,-2.4476934892926634,1.233627979362066,17.445926273334553
1688473025.315,0.27489019603797865,0.38539829187956326,0.19113316732167918,-1.7158277987133939,-0.08257044672757767,1.0482959852878144,0.4934666990793678,0.2748869835413242,0.38543854691701274,0.191043024338306,-1.715785034001563,-0.082479425887224,1.048197642311283,0.49345549079307766,0.33202968215942386,46.24084630203247,-2.038948287963867,-23.972608757019042,0.8301935386657715,-0.09111420822143555,-0.12248686599731445,0.3316982378853357,8.903036023642127,-0.7550553489903289,-5.388810549319399,0.28515244943241097,-0.1062429262992497,-0.1228000404332821,-2.4353374176360614,1.2326968478306295,17.438887024340794
1688473025.415,0.27489019603797865,0.38539829187956326,0.19113316732167918,-1.7158277987133939,-0.08257035090900174,1.0482959852878144,0.4934666990793678,0.2748869835413242,0.38543854691701274,0.191043024338306,-1.715785034001563,-0.082479425887224,1.048197642311283,0.49345549079307766,0.3333739318847656,46.235469303131104,-2.0301445388793944,-23.96380500793457,0.8328346633911132,-0.09211546325683594,-0.12248686599731445,0.332785654046317,8.900084414528953,-0.7560756924192316,-5.39196026893561,0.2861070057338745,-0.10584412501177955,-0.1230263248506379,-2.4262994106640092,1.2293840569082375,17.44352639039386
1688473025.548,0.27489019603797865,0.3853981719972602,0.19113316732167918,-1.7158277388267837,-0.08257025491589289,1.0482959254012045,0.4934666990793678,0.2748869835413242,0.38543854691701274,0.191043024338306,-1.715785034001563,-0.082479425887224,1.048197642311283,0.49345549079307766,0.32799693298339844,46.23950205230713,-2.0398286628723143,-23.968206882476807,0.831954288482666,-0.09311671829223633,-0.12248686599731445,0.33487073676939005,8.90423677494645,-0.7569543028102856,-5.392899560410633,0.28658367016185105,-0.10594032377602972,-0.12285092212306141,-2.437485761917226,1.2362899462004673,17.450091239938068
1688473025.616,0.27489019603797865,0.3853981719972602,0.19113316732167918,-1.7158277987133939,-0.08257035090900174,1.0482961051701172,0.4934666990793678,0.2748869835413242,0.38543854691701274,0.191043024338306,-1.715785034001563,-0.082479425887224,1.048197642311283,0.49345549079307766,0.33202968215942386,46.242190551757815,-2.03806791305542,-23.962924633026123,0.8354757881164551,-0.09345046997070312,-0.12382187271118164,0.3324880057859875,8.902410391903457,-0.7562359814686612,-5.390522758354899,0.2871203874715723,-0.10632948471557498,-0.12227770345509352,-2.4362110980748164,1.234477393297524,17.443787451912364
1688473025.717,0.2748903159202816,0.3853981719972602,0.19113316732167918,-1.7158277987133939,-0.08257025491589289,1.0482959852878144,0.4934666990793678,0.2748869835413242,0.38543854691701274,0.191043024338306,-1.715785034001563,-0.082479425887224,1.048197642311283,0.49345549079307766,0.32934118270874024,46.23950205230713,-2.045110912322998,-23.985814380645753,0.8337150382995605,-0.08744293975830078,-0.12315436935424805,0.32968114670918336,8.899791504867697,-0.7575326792930073,-5.390588657877961,0.28835363897372907,-0.1062914550431584,-0.12286130962946934,-2.4293008917021033,1.223961044881269,17.440876488427598
1688473025.816,0.2748901361513687,0.3853981719972602,0.19113316732167918,-1.7158277388267837,-0.08257025491589289,1.0482959852878144,0.4934666391927578,0.2748869835413242,0.38543854691701274,0.191043024338306,-1.715785034001563,-0.082479425887224,1.048197642311283,0.49345549079307766,0.3347181816101074,46.242190551757815,-2.03806791305542,-23.972608757019042,0.8301935386657715,-0.09078045654296875,-0.12348812103271484,0.3328880601034959,8.899938712257356,-0.7554490236435195,-5.391121310321968,0.2871599565391062,-0.1057312041136379,-0.12309746550174064,-2.4281220387281324,1.2307578293865624,17.442997712162423
1688473025.915,0.2748901361513687,0.3853981719972602,0.19113316732167918,-1.7158277388267837,-0.08257035090900174,1.0482959852878144,0.4934666990793678,0.2748869835413242,0.38543854691701274,0.191043024338306,-1.715785034001563,-0.082479425887224,1.048197642311283,0.49345549079307766,0.32934118270874024,46.246223300933835,-2.03806791305542,-23.965565757751463,0.8310739135742188,-0.09411797332763672,-0.12415562438964843,0.33301517981750856,8.903306605082955,-0.7561048909133352,-5.39011776556267,0.2880168262842785,-0.10615979823974951,-0.12300611268538122,-2.441689311593426,1.2367280415302058,17.45197415293191
1688473026.016,0.27489025603367173,0.3853981719972602,0.19113316732167918,-1.7158277987133939,-0.08257044672757767,1.0482959852878144,0.4934666990793678,0.2748869835413242,0.38543854691701274,0.191043024338306,-1.715785034001563,-0.082479425887224,1.048197642311283,0.49345549079307766,0.32799693298339844,46.24891180038452,-2.0398286628723143,-23.96468538284302,0.8328346633911132,-0.09111420822143555,-0.12148561096191406,0.3315283900923927,8.902594602220745,-0.7573271544044334,-5.387369334787657,0.2878984773524014,-0.1068510176245149,-0.12294480680899701,-2.4401300627750966,1.2348415344286712,17.43723650671163
1688473026.114,0.2748903159202816,0.3853981719972602,0.19113316732167918,-1.7158277987133939,-0.08257025491589289,1.0482961051701172,0.4934666391927578,0.2748869835413242,0.38543854691701274,0.191043024338306,-1.715785034001563,-0.082479425887224,1.048197642311283,0.49345549079307766,0.33068543243408205,46.24084630203247,-2.0363071632385252,-23.97613025665283,0.831954288482666,-0.09044670486450196,-0.12348812103271484,0.3315810975330173,8.902997987306222,-0.7564034073212533,-5.388768708752194,0.28860565909016145,-0.10674206217668927,-0.12298145780789213,-2.439154715558732,1.2346090430923657,17.445519353903503
1688473026.215,0.27489025603367173,0.3853981719972602,0.19113316732167918,-1.7158277388267837,-0.08257025491589289,1.0482959852878144,0.4934666391927578,0.2748869835413242,0.38543854691701274,0.191043024338306,-1.715785034001563,-0.082479425887224,1.048197642311283,0.49345549079307766,0.33202968215942386,46.23681355285645,-2.0371875381469726,-23.96468538284302,0.8284327888488769,-0.09078045654296875,-0.12148561096191406,0.33549994764974583,8.899550728587077,-0.7536912531518332,-5.390295333376956,0.2874032057090052,-0.1058558729098821,-0.12278553061013531,-2.4312431222770217,1.233408849755329,17.439480559794582
1688473026.315,0.2748903159202816,0.3853981719972602,0.19113316732167918,-1.7158277388267837,-0.08257025491589289,1.0482959852878144,0.4934666990793678,0.2748869835413242,0.38543854691701274,0.191043024338306,-1.715785034001563,-0.082479425887224,1.048197642311283,0.49345549079307766,0.337406681060791,46.23412505340576,-2.0371875381469726,-23.94355638504028,0.8301935386657715,-0.09445172500610352,-0.12215311431884765,0.3315511154747609,8.902224130901068,-0.7555846403713642,-5.391090914285052,0.2870731309767717,-0.10652457208180452,-0.12281119756064432,-2.4312988883524227,1.2284583546471848,17.4379131900528
1688473026.448,0.2748903159202816,0.3853981719972602,0.19113304743937615,-1.7158277987133939,-0.08257025491589289,1.0482961051701172,0.4934666990793678,0.2748869835413242,0.38543854691701274,0.191043024338306,-1.715785034001563,-0.082479425887224,1.048197642311283,0.49345549079307766,0.32665268325805663,46.23278080368042,-2.0398286628723143,-23.96732650756836,0.8293131637573242,-0.09378422164916993,-0.12448937606811523,0.332781342900986,8.90116156423938,-0.7541399151569957,-5.393183704339379,0.2873403455229674,-0.10606305146456335,-0.12284420968416135,-2.4234716807522747,1.2291389212821948,17.445411781816244
1688473026.516,0.27489019603797865,0.3853981719972602,0.19113316732167918,-1.7158277987133939,-0.08257025491589289,1.0482959254012045,0.4934666391927578,0.2748869835413242,0.38543854691701274,0.191043024338306,-1.715785034001563,-0.082479425887224,1.048197642311283,0.49345549079307766,0.33202968215942386,46.22740380477905,-2.0363071632385252,-23.965565757751463,0.8328346633911132,-0.09178171157836915,-0.12315436935424805,0.331639998103745,8.9021900203904,-0.7552736416423798,-5.392221232066785,0.2864863535805444,-0.10629112589668313,-0.12290019047811065,-2.433233153815144,1.2322675029050079,17.450308302158206
1688473026.616,0.27489025603367173,0.3853981719972602,0.19113316732167918,-1.7158277388267837,-0.08257035090900174,1.0482959852878144,0.4934666391927578,0.2748869835413242,0.38543854691701274,0.191043024338306,-1.715785034001563,-0.082479425887224,1.048197642311283,0.49345549079307766,0.32934118270874024,46.24487905120849,-2.038948287963867,-23.959403133392335,0.8293131637573242,-0.0954529800415039,-0.12315436935424805,0.3317822844951206,8.898984036729079,-0.7565436275022601,-5.395730071255419,0.28660777654436476,-0.1056587025314964,-0.12268462912992575,-2.41842582802799,1.2201635141508496,17.44287858417385
1688473026.715,0.27489019603797865,0.3853981719972602,0.19113316732167918,-1.7158277388267837,-0.08257044672757767,1.0482959852878144,0.4934666990793678,0.2748869835413242,0.38543854691701274,0.191043024338306,-1.715785034001563,-0.082479425887224,1.048197642311283,0.49345549079307766,0.3347181816101074,46.25025605010986,-2.032785663604736,-23.95764238357544,0.8284327888488769,-0.0961204833984375,-0.12348812103271484,0.3331797170675628,8.904075585881083,-0.7547036721123052,-5.394903547352536,0.28518732006940706,-0.10629345419040882,-0.12258062298303343,-2.426330239717435,1.2319620992339568,17.451196650307544
1688473026.816,0.2748903159202816,0.38539829187956326,0.19113316732167918,-1.7158277987133939,-0.08257035090900174,1.0482959852878144,0.4934666990793678,0.2748869835413242,0.38543854691701274,0.191043024338306,-1.715785034001563,-0.082479425887224,1.048197642311283,0.49345549079307766,0.3253084335327148,46.23681355285645,-2.0363071632385252,-23.96732650756836,0.8301935386657715,-0.09211546325683594,-0.12348812103271484,0.3300414185199664,8.901595175853803,-0.7567397462768185,-5.394292467815298,0.285008857584807,-0.10620552983856496,-0.12263376396823006,-2.4244860746311483,1.2243457301259875,17.448223423309337
1688473026.916,0.2748903159202816,0.3853981719972602,0.19113316732167918,-1.7158277388267837,-0.08257044672757767,1.0482961051701172,0.4934666391927578,0.2748869835413242,0.38543854691701274,0.191043024338306,-1.715785034001563,-0.082479425887224,1.048197642311283,0.49345549079307766,0.32799693298339844,46.230092304229736,-2.042469787597656,-23.9866947555542,0.831954288482666,-0.09011295318603516,-0.12282061767578124,0.32877783782310555,8.903556350760809,-0.7555394141925478,-5.3935897973691445,0.2863237905766707,-0.10649944956567964,-0.12268906872016017,-2.4221751380872627,1.2229639380355743,17.445139674199293
1688473027.015,0.2748903159202816,0.3853981719972602,0.19113316732167918,-1.7158277987133939,-0.08257044672757767,1.0482959852878144,0.4934666990793678,0.2748869835413242,0.38543854691701274,0.191043024338306,-1.715785034001563,-0.082479425887224,1.048197642311283,0.49345549079307766,0.32934118270874024,46.23412505340576,-2.042469787597656,-23.96644613265991,0.8337150382995605,-0.09511922836303711,-0.12248686599731445,0.32920388422332303,8.897058852191908,-0.7568715147306221,-5.39447129819614,0.2867511461801702,-0.10626256691689845,-0.12239599455180988,-2.4184530459966145,1.2211542529846466,17.446746915742068
1688473027.115,0.2748903159202816,0.3853981719972602,0.19113316732167918,-1.7158277987133939,-0.08257025491589289,1.0482959852878144,0.4934666990793678,0.2748869835413242,0.38543854691701274,0.191043024338306,-1.715785034001563,-0.082479425887224,1.048197642311283,0.49345549079307766,0.33068543243408205,46.25025605010986,-2.0398286628723143,-23.972608757019042,0.8310739135742188,-0.09111420822143555,-0.12215311431884765,0.3342245060618822,8.899710499791796,-0.7551966230636893,-5.392081281807946,0.28662526549440703,-0.10674780938584841,-0.12244635750490789,-2.4264727128301837,1.2289223128840319,17.44530983093627
1688473027.249,0.2748903159202816,0.3853981719972602,0.19113316732167918,-1.7158277987133939,-0.08257044672757767,1.0482959852878144,0.4934666990793678,0.2748869835413242,0.38543854691701274,0.191043024338306,-1.715785034001563,-0.082479425887224,1.048197642311283,0.49345549079307766,0.337406681060791,46.22874805450439,-2.034546413421631,-23.96732650756836,0.8354757881164551,-0.09178171157836915,-0.12282061767578124,0.33124260404328937,8.898939173150895,-0.7588544600832924,-5.389401761410796,0.28729997814448804,-0.10743746592180883,-0.12291769413087908,-2.4168024920269646,1.2246832780126002,17.43796398819297
1688473027.318,0.27489019603797865,0.3853981719972602,0.19113316732167918,-1.7158277987133939,-0.08257035090900174,1.0482959852878144,0.4934666990793678,0.2748869835413242,0.38543854691701274,0.191043024338306,-1.715785034001563,-0.082479425887224,1.048197642311283,0.49345549079307766,0.32665268325805663,46.23143655395508,-2.04775203704834,-23.987575130462645,0.8249112892150878,-0.08844419479370118,-0.12315436935424805,0.3316468382789748,8.89934461303616,-0.7574915680076426,-5.3909548523387105,0.2863095170934473,-0.10653165557828859,-0.12241516886975712,-2.4251911644098794,1.2313144084988887,17.442663139247852
1688473027.420,0.2748903159202816,0.3853981719972602,0.19113316732167918,-1.7158277388267837,-0.08257035090900174,1.0482961051701172,0.4934665193104548,0.2748869835413242,0.38543854691701274,0.191043024338306,-1.715785034001563,-0.082479425887224,1.048197642311283,0.49345549079307766,0.3333739318847656,46.242190551757815,-2.042469787597656,-23.962044258117675,0.8301935386657715,-0.0954529800415039,-0.12181936264038086,0.3318774293493464,8.900248174329441,-0.757423896596729,-5.389678816811971,0.2861864905869179,-0.10650084938500481,-0.12228979190577324,-2.4354624013607586,1.229145341394327,17.442548936579406
1688473027.521,0.2748903159202816,0.3853981719972602,0.19113316732167918,-1.7158277987133939,-0.08257035090900174,1.0482959852878144,0.4934666990793678,0.2748869835413242,0.38543854691701274,0.191043024338306,-1.715785034001563,-0.082479425887224,1.048197642311283,0.49345549079307766,0.32261993408203127,46.23278080368042,-2.0433501625061035,-23.98229288101196,0.831954288482666,-0.09211546325683594,-0.12382187271118164,0.32762545238101926,8.898219776930597,-0.7591925789340068,-5.388983556588002,0.2856838490717797,-0.10709975065623878,-0.1226228836222254,-2.4315177219130373,1.2254981714488564,17.440706564499717
1688473027.621,0.27489019603797865,0.38539829187956326,0.19113316732167918,-1.7158277987133939,-0.08257044672757767,1.0482959852878144,0.4934666990793678,0.2748869835413242,0.38543854691701274,0.191043024338306,-1.715785034001563,-0.082479425887224,1.048197642311283,0.49345549079307766,0.33875093078613283,46.22874805450439,-2.045991287231445,-23.97613025665283,0.8169879150390625,-0.09011295318603516,-0.12382187271118164,0.3347281970540606,8.899957841216333,-0.7567137035341245,-5.390117529650984,0.28572174318013144,-0.10688937611676258,-0.12291288864803566,-2.4307115383870164,1.2348338907685388,17.44353602593176
1688473027.720,0.2748903159202816,0.3853981719972602,0.19113316732167918,-1.7158277987133939,-0.08257025491589289,1.0482960451744243,0.4934666990793678,0.2748869835413242,0.38543854691701274,0.191043024338306,-1.715785034001563,-0.082479425887224,1.048197642311283,0.49345549079307766,0.3253084335327148,46.230092304229736,-2.0407090377807617,-23.952360134124756,0.8293131637573242,-0.09378422164916993,-0.12181936264038086,0.3316952304680417,8.896802835138065,-0.7569334333273663,-5.390303439397446,0.28541012132078625,-0.10623510414058782,-0.12259307708299388,-2.4309164115220243,1.2292456579089703,17.441142995192084
1688473027.820,0.2748903159202816,0.3853981719972602,0.19113316732167918,-1.7158277388267837,-0.08257035090900174,1.0482961051701172,0.4934666990793678,0.2748869835413242,0.38543854691701274,0.191043024338306,-1.715785034001563,-0.082479425887224,1.048197642311283,0.49345549079307766,0.32799693298339844,46.25025605010986,-2.041589412689209,-23.955881633758544,0.8266720390319824,-0.09345046997070312,-0.12248686599731445,0.3329945700105592,8.899545392190515,-0.755231140324959,-5.389221065404007,0.28589740599203456,-0.10648224530101816,-0.12243914715103903,-2.435920850726586,1.2333448059623102,17.44001163660824
1688473027.920,0.2748903159202816,0.3853981719972602,0.19113316732167918,-1.7158277987133939,-0.08257025491589289,1.0482961051701172,0.4934666990793678,0.2748869835413242,0.38543854691701274,0.191043024338306,-1.715785034001563,-0.082479425887224,1.048197642311283,0.49345549079307766,0.33068543243408205,46.23681355285645,-2.042469787597656,-23.959403133392335,0.8310739135742188,-0.09345046997070312,-0.12282061767578124,0.3310302165503175,8.899458634740249,-0.7551600568409458,-5.38854343392027,0.28569774089086164,-0.10679888011637537,-0.12253519540934193,-2.4370396793043247,1.2283789584430875,17.44018948985124
1688473028.019,0.2748903159202816,0.3853981719972602,0.19113316732167918,-1.7158277987133939,-0.08257035090900174,1.0482961051701172,0.4934666391927578,0.2748869835413242,0.38543854691701274,0.191043024338306,-1.715785034001563,-0.082479425887224,1.048197642311283,0.49345549079307766,0.337406681060791,46.22874805450439,-2.0363071632385252,-23.971728382110594,0.831954288482666,-0.09044670486450196,-0.12382187271118164,0.3318348254043678,8.897004712501476,-0.755429499259302,-5.39180945097522,0.2879739519901402,-0.10659893737882603,-0.12261767958532141,-2.420962290235148,1.2257830738670101,17.438918180695925
1688473028.124,0.27489025603367173,0.38539829187956326,0.19113316732167918,-1.7158277388267837,-0.08257025491589289,1.0482959852878144,0.4934666990793678,0.2748869835413242,0.38543854691701274,0.191043024338306,-1.715785034001563,-0.082479425887224,1.048197642311283,0.49345549079307766,0.3253084335327148,46.246223300933835,-2.0363071632385252,-23.94443675994873,0.831954288482666,-0.0961204833984375,-0.12215311431884765,0.33187426082047483,8.898006855408365,-0.7560802543175704,-5.391893319192353,0.2882285263306069,-0.1065670419959362,-0.12275058960950797,-2.4247262776212697,1.226897185151525,17.440881837253322
1688473028.224,0.27489025603367173,0.3853981719972602,0.19113316732167918,-1.7158277388267837,-0.08257044672757767,1.0482959852878144,0.4934666391927578,0.2748869835413242,0.38543854691701274,0.191043024338306,-1.715785034001563,-0.082479425887224,1.048197642311283,0.49345549079307766,0.33202968215942386,46.23143655395508,-2.042469787597656,-23.955881633758544,0.8293131637573242,-0.0954529800415039,-0.12215311431884765,0.3317446633240371,8.903023934750735,-0.7563442573577921,-5.3923481987820825,0.2866797525769645,-0.10658959485961013,-0.12233066547194865,-2.4264877359023154,1.2309888780874405,17.442352263036103
1688473028.325,0.2748903159202816,0.38539829187956326,0.19113316732167918,-1.7158277388267837,-0.08257025491589289,1.0482959852878144,0.4934666990793678,0.2748869835413242,0.38543854691701274,0.191043024338306,-1.715785034001563,-0.082479425887224,1.048197642311283,0.49345549079307766,0.32665268325805663,46.242190551757815,-2.0371875381469726,-23.970848007202147,0.8284327888488769,-0.09044670486450196,-0.12215311431884765,0.3300636843666246,8.899238520438606,-0.756708041324808,-5.39282454361174,0.2871993067313622,-0.1068943897463453,-0.12254982878775592,-2.4208541680329363,1.2218134693728941,17.444708208694305
1688473028.423,0.2748903159202816,0.3853981719972602,0.19113316732167918,-1.7158277987133939,-0.08257035090900174,1.0482961051701172,0.4934666990793678,0.2748869835413242,0.38543854691701274,0.191043024338306,-1.715785034001563,-0.082479425887224,1.048197642311283,0.49345549079307766,0.34009518051147464,46.235469303131104,-2.0398286628723143,-23.962924633026123,0.8284327888488769,-0.09244921493530274,-0.12415562438964843,0.32943962427125056,8.899863330208373,-0.7582944193100891,-5.394989311775816,0.286848623606466,-0.1060945572488268,-0.12275901973265557,-2.4126189957853064,1.2209772901370248,17.4416154034683
1688473028.523,0.27489025603367173,0.3853981719972602,0.19113316732167918,-1.7158277987133939,-0.08257044672757767,1.0482959852878144,0.4934666391927578,0.2748869835413242,0.38543854691701274,0.191043024338306,-1.715785034001563,-0.082479425887224,1.048197642311283,0.49345549079307766,0.32799693298339844,46.24891180038452,-2.041589412689209,-23.959403133392335,0.8337150382995605,-0.0954529800415039,-0.12115185928344727,0.3326445970467617,8.902107710915459,-0.7573910788658796,-5.393871709369043,0.28729489450896784,-0.10606533233387697,-0.12307264633184503,-2.423078373042999,1.2245953284330677,17.44172756819875
1688473028.623,0.2748903159202816,0.3853981719972602,0.19113316732167918,-1.7158277987133939,-0.08257025491589289,1.0482959852878144,0.4934665193104548,0.2748869835413242,0.38543854691701274,0.191043024338306,-1.715785034001563,-0.082479425887224,1.048197642311283,0.49345549079307766,0.32799693298339844,46.23278080368042,-2.0371875381469726,-23.970848007202147,0.8310739135742188,-0.09011295318603516,-0.12315436935424805,0.3320763791784267,8.899092173707164,-0.7566484876922499,-5.391006977373156,0.2862539759759237,-0.10619276688451171,-0.12364622406349171,-2.4300733737189404,1.2220318057391482,17.44133299227803
1688473028.722,0.2748903159202816,0.3853981719972602,0.19113316732167918,-1.7158277987133939,-0.08257025491589289,1.0482961051701172,0.4934666391927578,0.2748869835413242,0.38543854691701274,0.191043024338306,-1.715785034001563,-0.082479425887224,1.048197642311283,0.49345549079307766,0.32934118270874024,46.22605955505371,-2.044230537414551,-23.988455505371093,0.8310739135742188,-0.09011295318603516,-0.12248686599731445,0.3306836959204062,8.898811758651282,-0.7564914772845415,-5.3920307739476145,0.28588259561156204,-0.10603957042611448,-0.12297019533310591,-2.41732601755504,1.2252847923214893,17.436349234015807
1688473028.822,0.2748903159202816,0.3853981719972602,0.19113316732167918,-1.7158277987133939,-0.08257025491589289,1.0482961051701172,0.4934666990793678,0.2748869835413242,0.38543854691701274,0.191043024338306,-1.715785034001563,-0.082479425887224,1.048197642311283,0.49345549079307766,0.33202968215942386,46.24891180038452,-2.0398286628723143,-23.96732650756836,0.8284327888488769,-0.09345046997070312,-0.12215311431884765,0.33163235434471433,8.903530700051078,-0.7566553557183405,-5.392554217193612,0.28678234284068926,-0.10610079931947142,-0.12331935277071379,-2.429238987260765,1.2273794697081266,17.44288275551288
1688473028.956,0.27489025603367173,0.3853981719972602,0.19113316732167918,-1.7158277388267837,-0.08257035090900174,1.0482961051701172,0.4934666990793678,0.2748869835413242,0.38543854691701274,0.191043024338306,-1.715785034001563,-0.082479425887224,1.048197642311283,0.49345549079307766,0.33202968215942386,46.23950205230713,-2.041589412689209,-23.956762008666992,0.831954288482666,-0.09411797332763672,-0.12348812103271484,0.32897090259760475,8.896809967609,-0.7566802843379505,-5.391076089935989,0.2863269001117666,-0.1065848235373035,-0.12296116545603711,-2.4266788074076353,1.221794422451375,17.43965067834958
1688473029.022,0.2748903159202816,0.38539829187956326,0.19113316732167918,-1.7158277987133939,-0.08257025491589289,1.0482959852878144,0.4934666990793678,0.2748869835413242,0.38543854691701274,0.191043024338306,-1.715785034001563,-0.082479425887224,1.048197642311283,0.49345549079307766,0.3360624313354492,46.242190551757815,-2.042469787597656,-23.972608757019042,0.8293131637573242,-0.09178171157836915,-0.12482312774658202,0.33210472165698046,8.897360761168859,-0.7541030364863786,-5.389660106128438,0.28746289929841307,-0.10706515049964391,-0.12328284571776675,-2.428783582450062,1.2263801713481084,17.438234782613403
1688473029.123,0.2748903159202816,0.3853981719972602,0.19113316732167918,-1.7158277987133939,-0.08257035090900174,1.0482959852878144,0.4934666990793678,0.2748869835413242,0.38543854691701274,0.191043024338306,-1.715785034001563,-0.082479425887224,1.048197642311283,0.49345549079307766,0.32665268325805663,46.230092304229736,-2.0398286628723143,-23.97613025665283,0.8293131637573242,-0.09144795989990234,-0.12282061767578124,0.3294969137324053,8.895416774442026,-0.7558301317460202,-5.392082884552449,0.2866543676050541,-0.10686476119468802,-0.12275138653709222,-2.416049351835184,1.2228361813808437,17.439497275785136
1688473029.224,0.2748903159202816,0.3853981719972602,0.19113316732167918,-1.7158277987133939,-0.08257025491589289,1.0482959852878144,0.4934666990793678,0.2748869835413242,0.38543854691701274,0.191043024338306,-1.715785034001563,-0.082479425887224,1.048197642311283,0.49345549079307766,0.3333739318847656,46.242190551757815,-2.044230537414551,-23.96380500793457,0.8284327888488769,-0.09478547668457031,-0.12315436935424805,0.3289090441906541,8.896562084448009,-0.7551322150620092,-5.391538565153832,0.2855636086132439,-0.10674321981693796,-0.12301746998369086,-2.4218806179268726,1.225199287828916,17.44045727518045
1688473029.322,0.2748903159202816,0.3853981719972602,0.19113316732167918,-1.7158277987133939,-0.08257025491589289,1.0482961051701172,0.4934666990793678,0.2748869835413242,0.38543854691701274,0.191043024338306,-1.715785034001563,-0.082479425887224,1.048197642311283,0.49345549079307766,0.3333739318847656,46.24353480148316,-2.0336660385131835,-23.946197509765625,0.8266720390319824,-0.0961204833984375,-0.12315436935424805,0.3312446208932979,8.896795079365749,-0.7541822389407083,-5.390685597651594,0.28694590208314386,-0.10715189173601339,-0.12312640869475784,-2.4273910906837393,1.221088006063178,17.43967071731686
1688473029.422,0.2748903159202816,0.3853981719972602,0.19113316732167918,-1.7158277987133939,-0.08257035090900174,1.0482959852878144,0.4934666990793678,0.2748869835413242,0.38543854691701274,0.191043024338306,-1.715785034001563,-0.082479425887224,1.048197642311283,0.49345549079307766,0.32934118270874024,46.23278080368042,-2.038948287963867,-23.968206882476807,0.831954288482666,-0.09278296661376953,-0.12248686599731445,0.32971372920679193,8.897094572538341,-0.7558985051440197,-5.389533102495639,0.2860762363462658,-0.10699620973613874,-0.1228049810142443,-2.4283107288270767,1.2236505342223865,17.438411942841686
1688473029.522,0.27489019603797865,0.38539829187956326,0.19113316732167918,-1.7158277987133939,-0.08257025491589289,1.0482959852878144,0.4934666990793678,0.2748869835413242,0.38543854691701274,0.191043024338306,-1.715785034001563,-0.082479425887224,1.048197642311283,0.49345549079307766,0.3360624313354492,46.235469303131104,-2.034546413421631,-23.96468538284302,0.8284327888488769,-0.09311671829223633,-0.12248686599731445,0.32985283667421383,8.89355201405674,-0.7574141902311311,-5.390827125783202,0.2861306203856534,-0.10631651033951268,-0.12257907999150913,-2.4221926877565263,1.2227372358214021,17.43867168135387
1688473029.621,0.2748903159202816,0.38539829187956326,0.19113316732167918,-1.7158277987133939,-0.08257025491589289,1.0482960451744243,0.4934666990793678,0.2748869835413242,0.38543854691701274,0.191043024338306,-1.715785034001563,-0.082479425887224,1.048197642311283,0.49345549079307766,0.3253084335327148,46.246223300933835,-2.0398286628723143,-23.96732650756836,0.8310739135742188,-0.09411797332763672,-0.12248686599731445,0.33252871407604645,8.90060681805863,-0.755896506380805,-5.395725463278917,0.2857190335041495,-0.10622532772828122,-0.12261129563564091,-2.4176281193229068,1.2249104938204152,17.446090954808806
1688473029.721,0.27489025603367173,0.38539829187956326,0.19113316732167918,-1.7158277987133939,-0.08257044672757767,1.0482959852878144,0.4934665193104548,0.2748869835413242,0.38543854691701274,0.191043024338306,-1.715785034001563,-0.082479425887224,1.048197642311283,0.49345549079307766,0.32934118270874024,46.235469303131104,-2.0354267883300783,-23.961163883209228,0.831954288482666,-0.0954529800415039,-0.12315436935424805,0.3317728595331921,8.897391324279948,-0.7564916230093801,-5.392340019869832,0.2854933760000756,-0.106620578044098,-0.12254624382778617,-2.4163187454912554,1.2221523794184934,17.437037656745954
1688473029.856,0.2748903159202816,0.3853981719972602,0.19113316732167918,-1.7158277987133939,-0.08257025491589289,1.0482959852878144,0.4934666990793678,0.2748869835413242,0.38543854691701274,0.191043024338306,-1.715785034001563,-0.082479425887224,1.048197642311283,0.49345549079307766,0.32799693298339844,46.24084630203247,-2.0468716621398926,-23.977891006469726,0.8345954132080078,-0.09244921493530274,-0.12215311431884765,0.3302553263337892,8.902494621916096,-0.7570974989331576,-5.395666738826896,0.2855249749554525,-0.10638606276080287,-0.12248784033459356,-2.422005988234222,1.2236836308304326,17.4512242761769
1688473029.923,0.2748903159202816,0.3853981719972602,0.19113316732167918,-1.7158277987133939,-0.08257044672757767,1.0482961051701172,0.4934665193104548,0.2748869835413242,0.38543854691701274,0.191043024338306,-1.715785034001563,-0.082479425887224,1.048197642311283,0.49345549079307766,0.33068543243408205,46.23815780258179,-2.0398286628723143,-23.975249881744386,0.8310739135742188,-0.08944544982910156,-0.12181936264038086,0.33172982846359084,8.902701349482543,-0.7560496412391515,-5.393671444110823,0.28531542557543205,-0.10648455043993081,-0.12225370955440532,-2.42213163870663,1.227155253107995,17.44449968839613
1688473030.023,0.2748903159202816,0.3853981719972602,0.19113316732167918,-1.7158277987133939,-0.08257035090900174,1.0482959852878144,0.4934666391927578,0.2748869835413242,0.38543854691701274,0.191043024338306,-1.715785034001563,-0.082479425887224,1.048197642311283,0.49345549079307766,0.3360624313354492,46.242190551757815,-2.032785663604736,-23.96468538284302,0.8301935386657715,-0.09378422164916993,-0.12415562438964843,0.3317986905372394,8.898371302421147,-0.7565185703149692,-5.392777366206012,0.2834953942762075,-0.10658640340718227,-0.12260220941473715,-2.4274398058421176,1.2256851800042199,17.449558631150264
1688473030.123,0.2748903159202816,0.3853981719972602,0.19113316732167918,-1.7158277987133939,-0.08257025491589289,1.0482959852878144,0.4934666990793678,0.2748869835413242,0.38543854691701274,0.191043024338306,-1.715785034001563,-0.082479425887224,1.048197642311283,0.49345549079307766,0.33068543243408205,46.251600299835204,-2.038948287963867,-23.970848007202147,0.8275524139404297,-0.09445172500610352,-0.12315436935424805,0.3282044258149208,8.90020764506688,-0.7579233514016847,-5.389044165789491,0.2837290975452702,-0.1073288005331928,-0.12293626466335701,-2.431760833363035,1.2281167302608502,17.437490079570225
1688473030.222,0.2748903159202816,0.38539829187956326,0.19113316732167918,-1.7158277987133939,-0.08257025491589289,1.0482960451744243,0.4934665193104548,0.2748869835413242,0.38543854691701274,0.191043024338306,-1.715785034001563,-0.082479425887224,1.048197642311283,0.49345549079307766,0.32665268325805663,46.24084630203247,-2.042469787597656,-23.984053630828857,0.8222701644897461,-0.09011295318603516,-0.12348812103271484,0.3309413429782777,8.900192915887079,-0.7575240001938268,-5.389077855995168,0.28480709314417435,-0.10660257802022846,-0.12282455449112123,-2.434672513034061,1.2322685490195884,17.440941849493946
1688473030.321,0.2748903159202816,0.3853981719972602,0.19113316732167918,-1.7158277987133939,-0.08257025491589289,1.0482959852878144,0.4934666990793678,0.2748869835413242,0.38543854691701274,0.191043024338306,-1.715785034001563,-0.082479425887224,1.048197642311283,0.49345549079307766,0.33068543243408205,46.23815780258179,-2.0495127868652343,-23.981412506103517,0.8257916641235351,-0.09111420822143555,-0.12248686599731445,0.3321059773587217,8.899281413842651,-0.7554535490903307,-5.39147826721611,0.285426702525308,-0.10671703540281073,-0.1233553114517982,-2.427837276092248,1.2275617286494778,17.441814698221545
1688473030.421,0.27489025603367173,0.3853981719972602,0.19113316732167918,-1.7158277987133939,-0.08257035090900174,1.0482959852878144,0.4934666990793678,0.2748869835413242,0.38543854691701274,0.191043024338306,-1.715785034001563,-0.082479425887224,1.048197642311283,0.49345549079307766,0.33202968215942386,46.235469303131104,-2.0398286628723143,-23.955001258850096,0.8293131637573242,-0.09478547668457031,-0.12348812103271484,0.3327665393624344,8.901335654004457,-0.7562225398892688,-5.390265898461554,0.2859548604419023,-0.10691426959935976,-0.12263560000085269,-2.4325118426308117,1.2332707045107483,17.444922894652557
1688473030.521,0.2748901361513687,0.3853981719972602,0.19113316732167918,-1.7158277987133939,-0.08257035090900174,1.0482959852878144,0.4934666391927578,0.2748869835413242,0.38543854691701274,0.191043024338306,-1.715785034001563,-0.082479425887224,1.048197642311283,0.49345549079307766,0.32934118270874024,46.23815780258179,-2.0371875381469726,-23.95412088394165,0.8275524139404297,-0.0964542350769043,-0.12048435592651367,0.33234611651712387,8.897909443057848,-0.7564082036749316,-5.389393455959803,0.28465819858325203,-0.10693635371283103,-0.12222862487715237,-2.4307524879747353,1.232749407704413,17.440205230992774
1688473030.655,0.2748903159202816,0.3853981719972602,0.19113316732167918,-1.7158277388267837,-0.08257025491589289,1.0482961051701172,0.4934666990793678,0.2748869835413242,0.38543854691701274,0.191043024338306,-1.715785034001563,-0.082479425887224,1.048197642311283,0.49345549079307766,0.33068543243408205,46.23681355285645,-2.042469787597656,-23.959403133392335,0.8266720390319824,-0.09445172500610352,-0.12282061767578124,0.33103035499838307,8.902943350655601,-0.7574836937926417,-5.391076123662666,0.2858759477854127,-0.10699431144210206,-0.12180722902907247,-2.4301604028813024,1.232131246524269,17.442873698659923
1688473030.722,0.2748903159202816,0.3853981719972602,0.19113316732167918,-1.7158277987133939,-0.08257035090900174,1.0482959852878144,0.4934666990793678,0.2748869835413242,0.38543854691701274,0.191043024338306,-1.715785034001563,-0.082479425887224,1.048197642311283,0.49345549079307766,0.33068543243408205,46.22740380477905,-2.038948287963867,-23.961163883209228,0.8257916641235351,-0.09178171157836915,-0.12148561096191406,0.33052004614355374,8.896697338523891,-0.7569787554825492,-5.392312808811829,0.28555179999445085,-0.1068998302297553,-0.12210767235874667,-2.421298142779949,1.2288025356762287,17.44757114235264
1688473030.822,0.27489019603797865,0.3853981719972602,0.19113304743937615,-1.7158277987133939,-0.08257035090900174,1.0482961051701172,0.4934666990793678,0.2748869835413242,0.38543854691701274,0.191043024338306,-1.715785034001563,-0.082479425887224,1.048197642311283,0.49345549079307766,0.33068543243408205,46.242190551757815,-2.034546413421631,-23.952360134124756,0.8328346633911132,-0.0971217384338379,-0.12148561096191406,0.33467541352513214,8.897676613998103,-0.7565562441804767,-5.389588538089831,0.2857745241762391,-0.10685726484036195,-0.12185950952134025,-2.4278758758735592,1.237212013115046,17.441769968278198
1688473030.921,0.2748903159202816,0.3853981719972602,0.19113316732167918,-1.7158277388267837,-0.08257025491589289,1.0482961051701172,0.4934666990793678,0.2748869835413242,0.38543854691701274,0.191043024338306,-1.715785034001563,-0.082479425887224,1.048197642311283,0.49345549079307766,0.33875093078613283,46.24084630203247,-2.031905288696289,-23.962924633026123,0.831954288482666,-0.09278296661376953,-0.12181936264038086,0.33205001954889185,8.904814276670828,-0.7566102089047703,-5.392422660262346,0.2845797964751211,-0.10704490747240403,-0.12175986519561294,-2.431866848203962,1.2320446237784939,17.444500673922573
1688473031.021,0.27489019603797865,0.3853981719972602,0.19113316732167918,-1.7158277987133939,-0.08257035090900174,1.0482959852878144,0.4934666391927578,0.2748869835413242,0.38543854691701274,0.191043024338306,-1.715785034001563,-0.082479425887224,1.048197642311283,0.49345549079307766,0.33202968215942386,46.23143655395508,-2.0407090377807617,-23.984934005737305,0.8293131637573242,-0.08877794647216797,-0.12181936264038086,0.332113374371281,8.898419352158944,-0.7574763940735177,-5.39118562641765,0.28638178635894734,-0.10680352209323002,-0.1220411660048891,-2.423944572781133,1.230597370802104,17.441832194815586
1688473031.122,0.2748903159202816,0.38539829187956326,0.19113316732167918,-1.7158277987133939,-0.08257035090900174,1.0482959852878144,0.4934666990793678,0.2748869835413242,0.38543854691701274,0.191043024338306,-1.715785034001563,-0.082479425887224,1.048197642311283,0.49345549079307766,0.3333739318847656,46.22874805450439,-2.041589412689209,-23.968206882476807,0.8275524139404297,-0.08977920150756837,-0.12415562438964843,0.3336094417965969,8.8959919860505,-0.755990615722868,-5.392831294878929,0.28642529003942785,-0.1060898036422826,-0.12217709292722456,-2.41506778147052,1.2273294233808132,17.43929933110071
1688473031.220,0.2748903159202816,0.38539829187956326,0.19113316732167918,-1.7158277388267837,-0.08257025491589289,1.0482959852878144,0.4934666990793678,0.2748869835413242,0.38543854691701274,0.191043024338306,-1.715785034001563,-0.082479425887224,1.048197642311283,0.49345549079307766,0.32934118270874024,46.25025605010986,-2.03806791305542,-23.968206882476807,0.8354757881164551,-0.09278296661376953,-0.12248686599731445,0.3339303206835275,8.896877232905767,-0.7544857795625062,-5.3918193660422125,0.2854113945867761,-0.10646324704829924,-0.12227926331212699,-2.4222274387975022,1.2274602528795833,17.440159032838306
1688473031.320,0.27489025603367173,0.3853981719972602,0.19113316732167918,-1.7158277388267837,-0.08257025491589289,1.0482959852878144,0.4934666990793678,0.2748869835413242,0.38543854691701274,0.191043024338306,-1.715785034001563,-0.082479425887224,1.048197642311283,0.49345549079307766,0.33068543243408205,46.23278080368042,-2.0354267883300783,-23.96028350830078,0.831954288482666,-0.09078045654296875,-0.12015060424804687,0.3303680603892741,8.898337194737998,-0.7562946776437354,-5.391018079117958,0.2854514728815592,-0.1065009592548522,-0.12214488199866326,-2.4271826366407376,1.225634302323784,17.440749047748174
1688473031.419,0.2748903159202816,0.3853981719972602,0.19113316732167918,-1.7158277987133939,-0.08257025491589289,1.0482959852878144,0.4934666990793678,0.2748869835413242,0.38543854691701274,0.191043024338306,-1.715785034001563,-0.082479425887224,1.048197642311283,0.49345549079307766,0.32799693298339844,46.251600299835204,-2.0398286628723143,-23.984934005737305,0.8249112892150878,-0.08677543640136719,-0.12315436935424805,0.3304128837295957,8.903164372366934,-0.756231392903598,-5.39089773564675,0.28664126484903474,-0.10655574261874727,-0.12199295487701695,-2.4356127605109,1.22743540611831,17.446449147401434
1688473031.554,0.2748903159202816,0.38539829187956326,0.19113316732167918,-1.7158277987133939,-0.08257025491589289,1.0482959254012045,0.4934666990793678,0.2748869835413242,0.38543854691701274,0.191043024338306,-1.715785034001563,-0.082479425887224,1.048197642311283,0.49345549079307766,0.33202968215942386,46.242190551757815,-2.0407090377807617,-23.96644613265991,0.8249112892150878,-0.09411797332763672,-0.12248686599731445,0.3319821440277641,8.901019135191437,-0.7555126616439185,-5.389183287964848,0.28606519209348613,-0.10688576246127783,-0.12165322901366701,-2.439598178841974,1.2371427905086947,17.449130342051944
1688473031.622,0.27489025603367173,0.38539829187956326,0.19113316732167918,-1.7158276789401736,-0.08257044672757767,1.0482959852878144,0.4934666990793678,0.2748869835413242,0.38543854691701274,0.191043024338306,-1.715785034001563,-0.082479425887224,1.048197642311283,0.49345549079307766,0.33068543243408205,46.246223300933835,-2.0503931617736817,-23.96380500793457,0.8284327888488769,-0.09478547668457031,-0.12215311431884765,0.33387375954055026,8.900578675479332,-0.7557627540049454,-5.391748743848272,0.2861761971986112,-0.10669819382027271,-0.12200686787416093,-2.427215616483524,1.2348078521478416,17.444310416019448
1688473031.721,0.27489019603797865,0.3853981719972602,0.19113316732167918,-1.7158277388267837,-0.08257044672757767,1.0482959852878144,0.4934666391927578,0.2748869835413242,0.38543854691701274,0.191043024338306,-1.715785034001563,-0.082479425887224,1.048197642311283,0.49345549079307766,0.3253084335327148,46.22471530532837,-2.044230537414551,-23.97613025665283,0.8240309143066407,-0.08844419479370118,-0.12248686599731445,0.33490680761671404,8.901980572760397,-0.7540021326043951,-5.3890887654713,0.28485084801613536,-0.10731211953898596,-0.12211380775973024,-2.435680120470614,1.2387426051128354,17.4459364182353
1688473031.821,0.2748903159202816,0.3853981719972602,0.19113316732167918,-1.7158277987133939,-0.08257035090900174,1.0482959852878144,0.4934666990793678,0.2748869835413242,0.38543854691701274,0.191043024338306,-1.715785034001563,-0.082479425887224,1.048197642311283,0.49345549079307766,0.3347181816101074,46.230092304229736,-2.0371875381469726,-23.97613025665283,0.8293131637573242,-0.09111420822143555,-0.12181936264038086,0.3307719398162017,8.898222570481042,-0.7564090620699236,-5.3914506866368255,0.2843676121635371,-0.10723231877998854,-0.12232813987012381,-2.421667256636701,1.2311239082389691,17.44381278555689
1688473031.921,0.27489025603367173,0.38539829187956326,0.19113316732167918,-1.7158277987133939,-0.08257044672757767,1.0482959852878144,0.4934666990793678,0.2748869835413242,0.38543854691701274,0.191043024338306,-1.715785034001563,-0.082479425887224,1.048197642311283,0.49345549079307766,0.3333739318847656,46.23950205230713,-2.0407090377807617,-23.96380500793457,0.8266720390319824,-0.09345046997070312,-0.12282061767578124,0.3315867571759737,8.9010840543523,-0.7562511516082605,-5.393273423310569,0.2842462276348986,-0.10627546970845986,-0.1222787502182211,-2.42161050041163,1.2255133074482687,17.441096399033068
1688473032.021,0.2748903159202816,0.3853981719972602,0.19113316732167918,-1.7158277987133939,-0.08257025491589289,1.0482961051701172,0.4934666990793678,0.2748869835413242,0.38543854691701274,0.191043024338306,-1.715785034001563,-0.082479425887224,1.048197642311283,0.49345549079307766,0.32665268325805663,46.24353480148316,-2.0371875381469726,-23.946197509765625,0.8363561630249023,-0.09578673171997071,-0.12215311431884765,0.3302121057244968,8.901498752802855,-0.7548277903127456,-5.392082875110569,0.2860576865403106,-0.10663542799753037,-0.12249029991645234,-2.425297440465078,1.2304357194424362,17.442086304224112
1688473032.125,0.2748903159202816,0.38539829187956326,0.19113316732167918,-1.7158277987133939,-0.08257044672757767,1.0482959254012045,0.4934666990793678,0.2748869835413242,0.38543854691701274,0.191043024338306,-1.715785034001563,-0.082479425887224,1.048197642311283,0.49345549079307766,0.3333739318847656,46.22471530532837,-2.0407090377807617,-23.974369506835938,0.8301935386657715,-0.09111420822143555,-0.12382187271118164,0.33108231189976955,8.899758229471024,-0.7544131431126029,-5.3898046554299555,0.2868783076473045,-0.10669148736738662,-0.12291138062089638,-2.4311117692311854,1.2288575435721827,17.439366158032026
1688473032.225,0.2748903159202816,0.3853981719972602,0.19113316732167918,-1.7158277388267837,-0.08257044672757767,1.0482961051701172,0.4934665193104548,0.2748869835413242,0.38543854691701274,0.191043024338306,-1.715785034001563,-0.082479425887224,1.048197642311283,0.49345549079307766,0.3360624313354492,46.24487905120849,-2.032785663604736,-23.96028350830078,0.8284327888488769,-0.09378422164916993,-0.12282061767578124,0.33138179045838073,8.897005840467967,-0.7553099531902897,-5.39151218037081,0.2862262883068493,-0.10679524902451322,-0.12294228110770959,-2.422999480534311,1.2258304028003253,17.441199480008603
1688473032.358,0.27489019603797865,0.3853981719972602,0.19113316732167918,-1.7158277987133939,-0.08257044672757767,1.0482961051701172,0.4934666990793678,0.2748869835413242,0.38543854691701274,0.191043024338306,-1.715785034001563,-0.082479425887224,1.048197642311283,0.49345549079307766,0.337406681060791,46.246223300933835,-2.038948287963867,-23.946197509765625,0.8257916641235351,-0.09745549011230469,-0.12215311431884765,0.33292444257874726,8.901950826456199,-0.7558578252410377,-5.393409451308257,0.28621284209516673,-0.10645877158603653,-0.12280468827264307,-2.423554042657167,1.2297571976327228,17.442475646477888
1688473032.442,0.2748732983055762,0.38545557653085677,0.1911213029006733,-1.715826899868829,-0.08255999656868135,1.0482942475943777,0.4934513592714889,0.2748869835413242,0.38543854691701274,0.191043024338306,-1.715785034001563,-0.082479425887224,1.048197642311283,0.49345549079307766,0.1626542167663574,46.31343578720093,-2.0724025344848633,-23.972608757019042,0.7773710441589355,-0.07309161758422851,-0.10045925521850586,0.39195417995514426,8.722235986192407,-0.6960796146658679,-5.347992754204023,0.2578525137191434,-0.10568151291855271,-0.10976143940605115,-2.179448406911446,1.270709091408325,17.19332660301983
1688473032.516,0.274881747226319,0.38548733465100915,0.19111938543832388,-1.7158269598645217,-0.08255999656868135,1.0482943674766807,0.49344986123357537,0.27488706196991125,0.385438535170711,0.19104312395601272,-1.7157850649205468,-0.08247945920182193,1.0481976374975088,0.49345568359397085,0.29035794067382814,45.98812735366821,-2.015178165435791,-23.946197509765625,0.7844140434265137,-0.0847729263305664,-0.09445172500610352,0.37541332118492143,8.796769718589562,-0.6863047626629906,-5.400399723132973,0.24533063895009583,-0.10174869097162978,-0.09931166744473963,-2.1482857141720095,1.2760630801941448,17.31531566042129
1688473032.599,0.27511118515545996,0.38574493554020955,0.19121573863042488,-1.7158407416387944,-0.08256354377585311,1.0482942475943777,0.49385325023877635,0.2751699149755311,0.38539617208691945,0.1914023956045406,-1.715896574356138,-0.0825996084294077,1.0481802766014379,0.4941510207684647,-0.8724180717468262,46.863233924865725,-3.1535029220581055,-24.052722873687745,0.728950424194336,-0.0857741813659668,-0.22895365142822266,0.24147848575202285,8.784670720212599,-0.8501037313342888,-5.371265397798048,0.23938978891387083,-0.10163173401933762,-0.14975700204834308,-2.374525608357524,0.9252619517064982,17.295578292491015
1688473032.702,0.2797478818241796,0.38503942426008514,0.19735939151797527,-1.7177051275439656,-0.08455522607723351,1.0480241830908228,0.5060769200003525,0.28081418310933853,0.3845508262742816,0.19857158057650962,-1.7181217200728964,-0.0849971592529451,1.047833843823561,0.5080263177540718,-5.733225078582763,46.692514209747316,-6.949679527282715,-22.343034801483153,0.46219682693481445,-0.20458977890014649,-0.22194486618041992,-0.8662620701658275,9.148218567620805,-1.9423076374027937,-5.234797618527929,0.18255044008571214,-0.04340920549764328,-0.24205452887566797,-4.417548059045063,-0.8389292419449395,17.457957359254163
1688473032.803,0.299396797561384,0.3817726443752376,0.22232109397065666,-1.7255172243302184,-0.09287218230070535,1.0466141791483587,0.5540229276224803,0.30051157155117597,0.3816007352359989,0.2235906296111273,-1.7258870420745482,-0.09336414125321497,1.0466248613951838,0.5564483820487028,-4.398385101318359,46.145404571533206,-6.220729103088379,-23.520096054077147,0.5863296890258789,0.09845674514770508,-0.24030120849609374,-1.1635935682924463,8.86379698776385,-2.1985955403489394,-4.925315495037015,0.0915373424216794,-0.043295363274717946,-0.24093955942291462,-4.962206101845574,-1.116633349895421,16.846576350173446
1688473032.939,0.33022435855296983,0.3772170809730432,0.26097525259841936,-1.7375484873588085,-0.10589970590442156,1.0448251141269709,0.628972330074008,0.331413818074943,0.3769724851102647,0.26284176299568307,-1.7380696669712474,-0.10649068039802259,1.0447281493942537,0.6324153343399069,0.39789791870117186,46.20455155944824,-2.5839003562927245,-24.0034218788147,1.0934256362915038,0.11380932235717774,-0.1401757049560547,-0.05320948873325228,9.122046534940495,-1.4194708973247778,-5.4394550307005085,0.3427119321542219,0.06876193902195712,-0.22901310718674392,-3.364195713056983,1.8744034818050506,16.80597591513258
1688473033.007,0.36344630772926784,0.372093824797028,0.30353147492354304,-1.7506732508691523,-0.12015249671973005,1.0427020487191214,0.7107291318368749,0.36432113302958247,0.37204393454488005,0.304639675895599,-1.751042752087942,-0.12046892491077565,1.0427083706980722,0.7133113437374138,-0.06990098571777344,45.01354630279541,-3.3463050270080568,-23.68384578704834,1.0370816421508788,0.0854404296875,-0.23863245010375977,-0.05714416286434165,8.704452150886585,-1.3835030151352368,-5.165172928166441,0.4175654549218538,0.08725513513132935,-0.22038801553632745,-3.481167066463996,1.2499230074705552,16.95607949658083
1688473033.109,0.3958545880080278,0.3673322526564882,0.34474186884463237,-1.763724131756099,-0.13386714772331015,1.0408250794263754,0.790692913771352,0.3969089594895166,0.3671632339849842,0.346031783815904,-1.7638898849219502,-0.1343114583117544,1.0407082015037956,0.7934219549854303,0.4691431541442871,44.348142688751224,-2.983590564727783,-23.108080596923827,1.0811003875732421,0.147851993560791,-0.17855714797973632,0.2906946387765416,8.544557399642834,-1.2161017363759443,-5.12255895253522,0.4428193215716768,0.13592836589990911,-0.239005318916743,-3.0957778879947724,2.1836984584861967,16.638245066710503
1688473033.211,0.4280412799759575,0.36250722394408763,0.3855884216123739,-1.7763355510637815,-0.1475711569308421,1.0388744071700624,0.8699853994240286,0.4291772974547457,0.36233038343057755,0.3870180867565982,-1.776611065473272,-0.14801828060095887,1.0387276418114235,0.8727471680839565,0.4610776557922363,44.36427368545532,-3.1675889205932615,-23.280634078979492,1.3267249870300293,0.11147306060791015,-0.1688783493041992,0.13649906412289542,8.774970630498883,-1.365987013054919,-5.2715721730105916,0.47558024937208787,0.15937603855993424,-0.22267020033783486,-3.3377260853663078,2.3388888986488885,17.2944193177416
1688473033.310,0.4603352308258193,0.3575827860771488,0.42658130180285486,-1.7889042465657872,-0.16128609556468299,1.036772673721746,0.9493101825035964,0.46144563541997463,0.3574975328761709,0.4280043896972923,-1.789332246024594,-0.16172510289016329,1.0367470821190514,0.9520723811824824,0.10350722885131836,42.85064849472046,-4.300631427764893,-23.09135347366333,1.1163153839111328,0.10913679885864258,-0.2910314636230469,0.11345025912092115,8.489590132783647,-1.3168495397301152,-4.938145814647114,0.5135081974790402,0.1211165063276054,-0.22509177352941864,-3.5799807384776074,2.75437820746331,16.798517590569666
1688473033.411,0.4929302252280437,0.35272905509794983,0.4679644483042235,-1.80169279279427,-0.17507188514137684,1.0347101885831502,1.0294182545161608,0.4940334618799089,0.35261683231627505,0.4693964976175974,-1.8021793788586025,-0.17556763629114203,1.0347469129247746,1.0321829924304988,0.8831720695495605,41.47144827651977,-4.1465658187866214,-22.742725009918214,1.1127938842773437,0.07175661087036132,-0.2122660675048828,0.3611400295717324,8.047974826309002,-1.182345579148032,-4.912111988126043,0.5415470763883219,0.12164986632174973,-0.2404460008678221,-2.6563453298079183,2.9439829215514517,16.374986022629805
1688473033.512,0.525166951422305,0.34795262246057707,0.5089341389594317,-1.8144440080662985,-0.18883159688105203,1.0328888261348712,1.1087440562135131,0.5263017998451374,0.3477839817618684,0.510382800558291,-1.814900559409924,-0.18927445858034628,1.0327663532324025,1.1115082055290237,0.32799693298339844,40.80066766357422,-4.702082386016846,-23.07462635040283,0.8724515342712402,0.1929084701538086,-0.2786826515197754,0.16661751645236772,8.150811710268867,-1.4635156852724027,-5.089214627909157,0.5150586911694139,0.16028186350413695,-0.242007178457187,-2.7651200790821697,2.9045299633918717,16.94369451976178
1688473033.612,0.5577645224759207,0.3430347159429485,0.5502933169632658,-1.8272599381834955,-0.20263186326575947,1.0308468938844637,1.1888318149934118,0.5588544435458644,0.3429085505473455,0.5517302203626878,-1.827733822108053,-0.20310204718222763,1.030768343478591,1.1915323270460068,0.8038613357543946,39.33274696350097,-5.089447345733642,-22.67229501724243,0.8522029113769531,0.19557848358154298,-0.2559875373840332,0.21830109697119132,7.73420790634196,-1.5182210106130676,-4.839106466725182,0.4944867828665699,0.14403412072129126,-0.24142325713621227,-2.580358671529449,3.172620147241155,16.367895797630133
1688473033.713,0.586220944704677,0.3387659351168816,0.5863422250164043,-1.8385293640118427,-0.21467485885573045,1.0290304449743615,1.258085115301404,0.5866008199267113,0.33875295720319953,0.5869728594188839,-1.8386723050248375,-0.21488804776990772,1.0290653318537437,1.2597412078843782,4.9764124832153325,38.03554597854614,-1.5899570846557618,-23.56411479949951,1.508082218170166,0.15385952377319337,-0.21493608093261718,1.2191781788483127,7.6562775141499575,-0.6652379802404058,-5.212022693428137,0.8291860655692506,0.18934179592253625,-0.26657460517805465,-0.20203158451063613,3.8923338630397883,16.601903228617985
1688473033.849,0.6008657873463311,0.33656077771133214,0.604916635126437,-1.844291738815987,-0.22092583062090598,1.0280456413076775,1.2941816007027027,0.6007903267336224,0.3366277852804178,0.6049959576396161,-1.8442662491015183,-0.22091541268666814,1.0281944110995762,1.2946232539455698,4.34595936203003,37.93875999832154,-2.078565158843994,-23.88016939163208,1.4860728454589844,0.2523162689208984,-0.295703987121582,1.531023929127325,7.579404902338062,-0.5046257611615822,-5.37359282968834,0.9529095906778411,0.21325593132020482,-0.2814799398444101,0.1304419765460899,3.7418584304737017,16.460459563038988
1688473033.916,0.6030463769519142,0.33625224386031854,0.6082415385114499,-1.8452867890925433,-0.22206203088824217,1.0279201664243423,1.3007127037033097,0.603304826893676,0.33625118691003797,0.6081898024981717,-1.8452575431237528,-0.22198351253355736,1.0280400766039839,1.3008046464067327,0.9624828033447266,38.64583535385132,-4.509280281066895,-23.175869464874268,1.176180877685547,0.169212100982666,-0.2763463897705078,0.45098434973731016,7.691640385099356,-1.4615868236971046,-5.183939202557516,0.6484646284035194,0.18184697102342312,-0.28503238894013316,-1.573927569223848,3.1705724703802223,16.87908274973754
1688473034.018,0.6032261404107156,0.3362139542817729,0.6082333293553132,-1.845344193517057,-0.22206989254932488,1.0279197469999064,1.3008510016297423,0.60334536494275,0.3362451154993209,0.6082412927472747,-1.8452735244811447,-0.22200073213238536,1.0280375884675919,1.300904301039855,0.23927645111083984,38.67137609863281,-5.3306700706481935,-23.11160209655762,0.9913021469116211,0.18957095336914062,-0.26199506759643554,0.2026203727068509,7.4711503668592,-1.555079957336275,-5.142690836465151,0.4758151358095156,0.18129076656539655,-0.26133223630626223,-1.7789284858868484,2.6226169984897396,16.629294041575935
1688473034.124,0.6033479600291817,0.33620436686094246,0.6082353067042725,-1.845366004787636,-0.22207497390090913,1.0279194473486903,1.3009179335884762,0.60334536494275,0.3362451154993209,0.6082412927472747,-1.8452735244811447,-0.22200073213238536,1.0280375884675919,1.300904301039855,0.20970295715332032,38.71708058929443,-5.204776458740234,-23.196998462677,1.0256367683410645,0.19524473190307617,-0.2549862823486328,0.24477836974420258,7.512699002089951,-1.5002388363853882,-5.1941257242063745,0.481412901596194,0.18124312305575668,-0.2582106538745275,-1.6620279788665235,2.6351799805520293,16.739969506556193
1688473034.226,0.6033527536850554,0.33620011251180765,0.6082344078597078,-1.8453721167125101,-0.22207880891287451,1.0279189080419515,1.3009414825524916,0.60334536494275,0.3362451154993209,0.6082412927472747,-1.8452735244811447,-0.22200073213238536,1.0280375884675919,1.300904301039855,0.2943906898498535,38.725146087646486,-5.245273704528809,-23.23573495864868,1.0265171432495117,0.19557848358154298,-0.24831124877929686,0.2708087823341881,7.546824095509719,-1.5341386779064274,-5.189140886442811,0.4759230848568672,0.1812837884655129,-0.2496569325611647,-1.670090391684099,2.7998437291334373,16.824731775568267
1688473034.328,0.6033523342606195,0.33619609781819576,0.6082346475152307,-1.8453719369435972,-0.22208158922237295,1.0279187283821218,1.3009505905531933,0.60334536494275,0.3362451154993209,0.6082412927472747,-1.8452735244811447,-0.22200073213238536,1.0280375884675919,1.300904301039855,0.27825969314575194,38.75471958160401,-5.259359703063965,-23.22957233428955,1.0089096450805664,0.19324222183227538,-0.24363872528076172,0.29219904898266963,7.53392832589862,-1.5092172374057573,-5.180852632493245,0.47672383159353493,0.17943502140233264,-0.24614169323819687,-1.6272947647864464,2.8359756370354035,16.81940113830607
1688473034.396,0.6033523342606195,0.3361956183980669,0.6082348872798367,-1.8453719369435972,-0.22208331500393733,1.027918248961993,1.3009546652424981,0.60334536494275,0.3362451154993209,0.6082412927472747,-1.8452735244811447,-0.22200073213238536,1.0280375884675919,1.300904301039855,0.2943906898498535,38.73993283462524,-5.232068080902099,-23.199639587402345,1.011550769805908,0.19491098022460937,-0.23929995346069335,0.31096965735225374,7.532994659475979,-1.489746879209687,-5.1850578663161775,0.4816365620851228,0.18065882336570094,-0.24212779142054283,-1.5784788172157307,2.8528419480445244,16.80697444211148
1688473034.527,0.6033523342606195,0.33619549862484693,0.6082348872798367,-1.8453718171703775,-0.2220859993203269,1.02791800930647,1.3009587998184131,0.60334536494275,0.3362451154993209,0.6082412927472747,-1.8452735244811447,-0.22200073213238536,1.0280375884675919,1.300904301039855,0.2755711936950684,38.71439208984375,-5.239111080169677,-23.187314338684082,1.0097900199890137,0.19457722854614257,-0.23696369171142578,0.29343463529962344,7.518653523808464,-1.494378793614249,-5.177322940438812,0.47662675120543063,0.1820490671681913,-0.23880352308651048,-1.5941789383304106,2.8246463637036765,16.775496190883995
1688473034.632,0.6033522143783164,0.33619549862484693,0.6082348872798367,-1.8453718770569876,-0.22208714984136982,1.0279177096552539,1.3009603577429367,0.60334536494275,0.3362451154993209,0.6082412927472747,-1.8452735244811447,-0.22200073213238536,1.0280375884675919,1.300904301039855,0.2957349395751953,38.73724433517456,-5.234709205627441,-23.185553588867187,1.02387601852417,0.19157346343994142,-0.23696369171142578,0.29263101499108485,7.518276429718073,-1.494434248804342,-5.171480177024005,0.4759508788747834,0.18255052608043515,-0.23647179643440935,-1.5987145652558858,2.8437080382406443,16.77006680794428
1688473034.700,0.6033523342606195,0.33619531885593396,0.6082351269353595,-1.8453718171703775,-0.22208916325319492,1.027917529886341,1.300962155322983,0.60334536494275,0.3362451154993209,0.6082412927472747,-1.8452735244811447,-0.22200073213238536,1.0280375884675919,1.300904301039855,0.28901369094848633,38.725146087646486,-5.225025081634522,-23.18115171432495,1.0124311447143555,0.19557848358154298,-0.2356286849975586,0.30531762957106623,7.520935929131195,-1.4819477986131515,-5.173938967329894,0.479374014995508,0.18386614288897346,-0.2351684077030443,-1.572586103521256,2.8625324452255265,16.771748212474243
1688473034.800,0.6033523342606195,0.3361951989736309,0.6082351269353595,-1.8453719369435972,-0.22209031377423782,1.0279171104619051,1.300963593474287,0.60334536494275,0.3362451154993209,0.6082412927472747,-1.8452735244811447,-0.22200073213238536,1.0280375884675919,1.300904301039855,0.2984234390258789,38.71573633956909,-5.215340957641602,-23.186433963775634,1.0159526443481446,0.19524473190307617,-0.2336261749267578,0.3013400820886819,7.513368687204017,-1.4906508142577575,-5.178788767993038,0.47572606211923774,0.18356229392284573,-0.23305212315870055,-1.563911308031208,2.83686877967393,16.772751114164205
1688473034.902,0.6033523342606195,0.3361951989736309,0.6082351269353595,-1.8453718770569876,-0.22209165593243263,1.027916930692992,1.3009649117432873,0.60334536494275,0.3362451154993209,0.6082412927472747,-1.8452735244811447,-0.22200073213238536,1.0280375884675919,1.300904301039855,0.31052168655395507,38.72783458709717,-5.212699832916259,-23.198759212493897,1.0150722694396972,0.1919072151184082,-0.23295867156982422,0.30332358993444763,7.508200633667638,-1.4817560434329224,-5.178471337437264,0.47610270284314926,0.1827698381609786,-0.23244172303461247,-1.5520795878794074,2.827830164780498,16.768037028299123
1688473035.002,0.6033524541429225,0.3361954386291539,0.6082351868219695,-1.8453718770569876,-0.22209271063489958,1.0279166910374693,1.300966050243375,0.60334536494275,0.3362451154993209,0.6082412927472747,-1.8452735244811447,-0.22200073213238536,1.0280375884675919,1.300904301039855,0.3145544357299805,38.73186733627319,-5.209178333282471,-23.20051996231079,1.0133115196228026,0.1925747184753418,-0.23128991317749023,0.3060385265259469,7.504550607606822,-1.4786415692173411,-5.178006628028985,0.4755321682372198,0.18220068236289724,-0.2307981385929814,-1.5413170177621944,2.8283090192098737,16.763442043570922
1688473035.102,0.6033525140295325,0.33619531885593396,0.6082351868219695,-1.8453718770569876,-0.2220938609814096,1.0279168108106893,1.3009670688611599,0.60334536494275,0.3362451154993209,0.6082412927472747,-1.8452735244811447,-0.22200073213238536,1.0280375884675919,1.300904301039855,0.3145544357299805,38.70901509094238,-5.207417583465576,-23.189075088500978,1.01419189453125,0.193909725189209,-0.22962115478515624,0.3073175405484978,7.5031561713931385,-1.47667876694537,-5.180016130135902,0.47386194750201494,0.1815582100449818,-0.229741609352753,-1.5330826503071804,2.824831807769207,16.76683682870966
1688473035.204,0.6033525140295325,0.33619531885593396,0.6082351269353595,-1.8453719369435972,-0.22209453223503992,1.0279163913862532,1.3009677879368116,0.60334536494275,0.3362451154993209,0.6082412927472747,-1.8452735244811447,-0.22200073213238536,1.0280375884675919,1.300904301039855,0.31052168655395507,38.71035934066772,-5.217982082366944,-23.189075088500978,1.0168330192565918,0.193909725189209,-0.23028865814208985,0.30912457809114297,7.5073561597798015,-1.4793334740553559,-5.1771899894836455,0.4727208922358567,0.18195362096897838,-0.2292605552433668,-1.537722790358414,2.8480583180534684,16.770560309355265
1688473035.305,0.6033523342606195,0.3361951989736309,0.6082351868219695,-1.8453719369435972,-0.2220952991327132,1.0279162116173404,1.3009685668990734,0.60334536494275,0.3362451154993209,0.6082412927472747,-1.8452735244811447,-0.22200073213238536,1.0280375884675919,1.300904301039855,0.3051446876525879,38.70498234176636,-5.2197428321838375,-23.201400337219237,1.0124311447143555,0.19357597351074218,-0.22962115478515624,0.3137207096675375,7.503902987146029,-1.4796072750028142,-5.180173400811321,0.4732460911550341,0.1813252795834478,-0.22787473380381815,-1.5249684052107093,2.8422409019658406,16.776074153260222
1688473035.405,0.6033525140295325,0.3361951989736309,0.6082351868219695,-1.8453718770569876,-0.22209625784207135,1.0279162116173404,1.3009690463192023,0.60334536494275,0.3362451154993209,0.6082412927472747,-1.8452735244811447,-0.22200073213238536,1.0280375884675919,1.300904301039855,0.3253084335327148,38.7063265914917,-5.210939083099365,-23.193476963043214,1.0089096450805664,0.190572208404541,-0.22728489303588867,0.3165885028820786,7.505652704308831,-1.4765580521463462,-5.180963454020816,0.4747331449516557,0.18047252933691055,-0.22750541817643263,-1.5189210102587796,2.8467576856619994,16.78036331798385
1688473035.541,0.6033524541429225,0.33619531885593396,0.6082351868219695,-1.8453718171703775,-0.22209692892116872,1.0279159719618174,1.3009695856259413,0.60334536494275,0.3362451154993209,0.6082412927472747,-1.8452735244811447,-0.22200073213238536,1.0280375884675919,1.300904301039855,0.31052168655395507,38.70498234176636,-5.208297958374024,-23.189075088500978,1.011550769805908,0.18890345001220704,-0.22628363800048829,0.3183312773441507,7.505626124628167,-1.4744440023198107,-5.181822106976595,0.47446937640429243,0.18141567758370633,-0.22664253963170317,-1.5110072246123913,2.851075475003415,16.779773332460532
1688473035.609,0.6033525739161424,0.3361954386291539,0.6082351269353595,-1.8453719369435972,-0.2220978878050598,1.0279159719618174,1.30097018481929,0.60334536494275,0.3362451154993209,0.6082412927472747,-1.8452735244811447,-0.22200073213238536,1.0280375884675919,1.300904301039855,0.31724293518066404,38.700949592590334,-5.204776458740234,-23.198759212493897,1.0089096450805664,0.1925747184753418,-0.22628363800048829,0.3175170010901869,7.504531054517193,-1.472530171567505,-5.181919352501469,0.47337995557882306,0.18134012348422002,-0.22671284923369356,-1.5079862945022546,2.8442311565386205,16.775318753938546
1688473035.710,0.6033525739161424,0.3361954386291539,0.6082351269353595,-1.8453719369435972,-0.22209846306558123,1.0279159120752075,1.300970484361423,0.60334536494275,0.3362451154993209,0.6082412927472747,-1.8452735244811447,-0.22200073213238536,1.0280375884675919,1.300904301039855,0.31724293518066404,38.690195594787596,-5.206537208557129,-23.18379283905029,1.0133115196228026,0.192240966796875,-0.2246148796081543,0.31837827807819474,7.501269495975748,-1.4716946235483064,-5.178374202391989,0.47170128063685607,0.18155920774318104,-0.22577622799107502,-1.506629517428484,2.855184707019312,16.766830909343977
1688473035.810,0.6033525140295325,0.3361954386291539,0.6082351868219695,-1.8453719369435972,-0.22209913414467863,1.0279156124239914,1.3009709637815519,0.60334536494275,0.3362451154993209,0.6082412927472747,-1.8452735244811447,-0.22200073213238536,1.0280375884675919,1.300904301039855,0.31993143463134766,38.700949592590334,-5.207417583465576,-23.18467321395874,1.0124311447143555,0.19023845672607423,-0.2249486312866211,0.32231335387414567,7.500859330124134,-1.4729765410735913,-5.176109074680501,0.4730007843620343,0.18074530605626682,-0.2254785812359117,-1.509277367744908,2.8663387339533104,16.774002312536403
1688473035.911,0.6033525140295325,0.3361954386291539,0.6082351868219695,-1.8453718171703775,-0.2220996134120912,1.0279153127727754,1.3009713233193778,0.60334536494275,0.3362451154993209,0.6082412927472747,-1.8452735244811447,-0.22200073213238536,1.0280375884675919,1.300904301039855,0.33202968215942386,38.70901509094238,-5.201254959106445,-23.196998462677,1.010670394897461,0.19157346343994142,-0.2232798728942871,0.322121073582126,7.501142596312417,-1.4757279568561752,-5.1786233462243665,0.4708697627850454,0.18050801165075314,-0.2249276336708531,-1.5057209736406734,2.8617839009531827,16.782406410798682
