INTO-CPS-Association/DTaaS-examples/data/flex-cell/input/physical_twin/ur5e_actual.csv
timestamp target_q_0 target_q_1 target_q_2 target_q_3 target_q_4 target_q_5 target_qd_0 target_qd_1 target_qd_2 target_qd_3 target_qd_4 target_qd_5 target_qdd_0 target_qdd_1 target_qdd_2 target_qdd_3 target_qdd_4 target_qdd_5 target_current_0 target_current_1 target_current_2 target_current_3 target_current_4 target_current_5 target_moment_0 target_moment_1 target_moment_2 target_moment_3 target_moment_4 target_moment_5 actual_q_0 actual_q_1 actual_q_2 actual_q_3 actual_q_4 actual_q_5 actual_qd_0 actual_qd_1 actual_qd_2 actual_qd_3 actual_qd_4 actual_qd_5 actual_current_0 actual_current_1 actual_current_2 actual_current_3 actual_current_4 actual_current_5 joint_control_output_0 joint_control_output_1 joint_control_output_2 joint_control_output_3 joint_control_output_4 joint_control_output_5 actual_TCP_pose_0 actual_TCP_pose_1 actual_TCP_pose_2 actual_TCP_pose_3 actual_TCP_pose_4 actual_TCP_pose_5 actual_TCP_speed_0 actual_TCP_speed_1 actual_TCP_speed_2 actual_TCP_speed_3 actual_TCP_speed_4 actual_TCP_speed_5 actual_TCP_force_0 actual_TCP_force_1 actual_TCP_force_2 actual_TCP_force_3 actual_TCP_force_4 actual_TCP_force_5 target_TCP_pose_0 target_TCP_pose_1 target_TCP_pose_2 target_TCP_pose_3 target_TCP_pose_4 target_TCP_pose_5 target_TCP_speed_0 target_TCP_speed_1 target_TCP_speed_2 target_TCP_speed_3 target_TCP_speed_4 target_TCP_speed_5 actual_digital_input_bits joint_temperatures_0 joint_temperatures_1 joint_temperatures_2 joint_temperatures_3 joint_temperatures_4 joint_temperatures_5 actual_execution_time robot_mode joint_mode_0 joint_mode_1 joint_mode_2 joint_mode_3 joint_mode_4 joint_mode_5 safety_mode actual_tool_accelerometer_0 actual_tool_accelerometer_1 actual_tool_accelerometer_2 speed_scaling target_speed_fraction actual_momentum actual_main_voltage actual_robot_voltage actual_robot_current actual_joint_voltage_0 actual_joint_voltage_1 actual_joint_voltage_2 actual_joint_voltage_3 actual_joint_voltage_4 actual_joint_voltage_5 actual_digital_output_bits runtime_state
14830.425 -2.5594089999999996 -1.9815459999999998 2.1962889999999997 -2.2882689999999997 -0.9389690000000002 -0.8211310000000003 0.0 0.0 0.0 0.0 0.0 0.0 0.0 0.0 0.0 0.0 0.0 0.0 0.1450783279676324 -1.9577036273611175 -1.5247386514454957 -0.36356454659109066 5.149011245783103e-06 0.0 1.6668273142115064 -20.85570389182319 -17.332449590930135 -2.643621579872381 3.974091874130577e-05 0.0 -2.5593894163714808 -1.9815708599486292 2.196324173604147 -2.2882477245726527 -0.9389641920672815 -0.821106259022848 0.0 0.0 -0.0 -0.0 -0.0 -0.0 -0.10982385277748108 -1.8767939805984497 -1.4174830913543701 -0.43864837288856506 0.027518335729837418 -0.005037723574787378 0.1450783279676324 -1.9577036273611175 -1.5247386514454957 -0.36356454659109066 5.149011245783103e-06 0.0 0.17467170196940837 0.4544252822088918 0.3380408755652047 -2.3614616199149356 -0.01483759187860842 0.00045144278158081334 0.0 0.0 0.0 0.0 0.0 0.0 10.772478967295173 -9.98633025797382 -0.3871652840712203 0.20294516501413634 0.30421768733099297 0.013540539074093 0.17469364096918683 0.4544293391844036 0.3380542239097195 -2.361447703606261 -0.014854963595216687 0.00039488312928024103 0.0 0.0 0.0 0.0 0.0 0.0 768 30.125 30.375 30.1875 34.4375 36.875 37.1875 0.596952 7 253 253 253 253 253 253 1 -0.09576806426048279 0.1149216815829277 -10.113107681274414 0.0 1.0 0.0 47.79166793823242 47.795249938964844 0.5539045929908752 47.75692367553711 47.670928955078125 47.65659713745117 47.65659713745117 47.584930419921875 47.54193115234375 3840 1
14830.445 -2.5594089999999996 -1.9815459999999998 2.1962889999999997 -2.2882689999999997 -0.9389690000000002 -0.8211310000000003 0.0 0.0 0.0 0.0 0.0 0.0 0.0 0.0 0.0 0.0 0.0 0.0 0.14510488929012913 -1.9575701498966305 -1.5246832941549942 -0.36355855387886676 2.889788900037249e-06 0.0 1.6671324813474897 -20.854281936815973 -17.33182031754863 -2.6435780044921477 2.230386774741671e-05 0.0 -2.559401814137594 -1.9815346203246058 2.1962879339801233 -2.2882596455016078 -0.9389527479754847 -0.821106259022848 0.0 0.0 -0.0 -0.0 -0.0 -0.0 -0.10345423966646194 -1.8924115896224976 -1.422372579574585 -0.4364239275455475 0.018316375091671944 -0.013041101396083832 0.14510488929012913 -1.9575701498966305 -1.5246832941549942 -0.36355855387886676 2.889788900037249e-06 0.0 0.17468842711865717 0.45443322444467327 0.33805068343408096 -2.361446781322237 -0.01483158722271968 0.00044297260405013866 0.0 0.0 0.0 0.0 0.0 0.0 11.025654061885339 -10.240206910726165 -0.4782304110907729 0.20821317076918008 0.30850424400948784 0.014482186768554756 0.17469364096918683 0.4544293391844036 0.3380542239097195 -2.361447703606261 -0.014854963595216687 0.00039488312928024103 0.0 0.0 0.0 0.0 0.0 0.0 768 30.125 30.375 30.1875 34.4375 36.875 37.1875 0.605928 7 253 253 253 253 253 253 1 -0.15322890877723694 0.17238251864910126 -9.979032516479492 0.0 1.0 0.0 47.796146392822266 47.81584930419922 0.5561404824256897 47.742591857910156 47.65659713745117 47.65659713745117 47.68526077270508 47.61359786987305 47.5562629699707 3840 1
14830.465 -2.5594089999999996 -1.9815459999999998 2.1962889999999997 -2.2882689999999997 -0.9389690000000002 -0.8211310000000003 0.0 0.0 0.0 0.0 0.0 0.0 0.0 0.0 0.0 0.0 0.0 0.0 0.14503470366648272 -1.957733946807327 -1.5246199009780494 -0.36353266191290634 -1.8770389210034987e-06 0.0 1.6663261078787737 -20.856026889330817 -17.33109969631773 -2.643389733769383 -1.4487296234779003e-05 0.0 -2.5593894163714808 -1.981546541253561 2.1962764898883265 -2.288283964196676 -0.9389527479754847 -0.8211548964129847 0.0 0.0 -0.0 -0.0 -0.0 5.906894764984294e-12 -0.06457847356796265 -1.8697067499160767 -1.4598844051361084 -0.43855729699134827 0.027209915220737457 -0.017811287194490433 0.14503470366648272 -1.957733946807327 -1.5246199009780494 -0.36353266191290634 -1.8770389210034987e-06 0.0 0.1746857025374517 0.4544373554316894 0.3380663457925551 -2.361420119561837 -0.014922994290949903 0.00037830465726314586 -1.6394926430308415e-28 5.12341450947138e-30 5.763841323155302e-30 -2.787413761789381e-14 4.154630630395946e-12 -4.1987704297837835e-12 11.046530006241433 -10.109397703317887 -0.5467870265425017 0.20713991944953158 0.3078281820294868 0.02375692217912273 0.17469364096918683 0.4544293391844036 0.3380542239097195 -2.361447703606261 -0.014854963595216687 0.00039488312928024103 0.0 0.0 0.0 0.0 0.0 0.0 768 30.125 30.375 30.1875 34.4375 36.875 37.1875 0.597696 7 253 253 253 253 253 253 1 -0.15322890877723694 0.019153613597154617 -9.998186111450195 0.0 1.0 0.0 47.786293029785156 47.82391357421875 0.5852327942848206 47.71392822265625 47.65659713745117 47.65659713745117 47.670928955078125 47.599266052246094 47.54193115234375 3840 1
14830.484999999999 -2.5594089999999996 -1.9815459999999998 2.1962889999999997 -2.2882689999999997 -0.9389690000000002 -0.8211310000000003 0.0 0.0 0.0 0.0 0.0 0.0 0.0 0.0 0.0 0.0 0.0 0.0 0.14510533671965656 -1.957542417228506 -1.5247243545345688 -0.3635530409331237 -8.480264934656909e-06 0.0 1.667137621934426 -20.853986496634707 -17.33228707095485 -2.6435379176837066 -6.545208460147559e-05 0.0 -2.5593655745135706 -1.9815346203246058 2.19629937807192 -2.288271566430563 -0.9389885107623499 -0.821106259022848 0.0 0.0 -0.0 -0.0 -0.0 8.317941077850317e-24 -0.07062690705060959 -1.8197423219680786 -1.4355854988098145 -0.44082748889923096 0.019679777324199677 0.0020554978400468826 0.14510533671965656 -1.957542417228506 -1.5247243545345688 -0.3635530409331237 -8.480264934656909e-06 0.0 0.17467735885962352 0.45443448041419643 0.3380418233797863 -2.3614722932939056 -0.01486288616757523 0.0004311818137200313 0.0 1.2625661702096425e-41 1.2625661702096425e-41 -3.941864489487882e-26 5.85013935015121e-24 -5.9129061829896065e-24 10.809561269577499 -10.053332361779962 -0.4362518660722383 0.20601421123556102 0.30634858368428075 0.011555700337765623 0.17469364096918683 0.4544293391844036 0.3380542239097195 -2.361447703606261 -0.014854963595216687 0.00039488312928024103 0.0 0.0 0.0 0.0 0.0 0.0 768 30.125 30.375 30.1875 34.4375 36.875 37.1875 0.608604 7 253 253 253 253 253 253 1 -0.07661445438861847 0.1149216815829277 -9.979032516479492 0.0 1.0 0.0 47.788089752197266 47.795249938964844 0.5583816170692444 47.7282600402832 47.670928955078125 47.65659713745117 47.64226531982422 47.599266052246094 47.570594787597656 3840 1
14830.505 -2.5594089999999996 -1.9815459999999998 2.1962889999999997 -2.2882689999999997 -0.9389690000000002 -0.8211310000000003 0.0 0.0 0.0 0.0 0.0 0.0 0.0 0.0 0.0 0.0 0.0 0.0 0.14511135944407183 -1.9576097528738126 -1.5247604654496647 -0.36357413472841826 -6.308386627369034e-06 0.0 1.6672068179453121 -20.85470383314073 -17.332697561378893 -2.6436912990102552 -4.868916931426979e-05 0.0 -2.5593894163714808 -1.981546541253561 2.196263138447897 -2.288271566430563 -0.939000431691305 -0.821106259022848 0.0 0.0 -0.0 -0.0 -0.0 1.1713115309582165e-35 -0.06966105848550797 -1.8351861238479614 -1.4324215650558472 -0.4360634386539459 0.026794612407684326 -0.008103114552795887 0.14511135944407183 -1.9576097528738126 -1.5247604654496647 -0.36357413472841826 -6.308386627369034e-06 0.0 0.1746949762946335 0.45443191570908653 0.33806551198244683 -2.3614548288937516 -0.014850311170074395 0.00036226408719423415 -3.2510425766968845e-52 -5.460735578045548e-53 -5.333741727393326e-53 -5.488096611180974e-38 8.238169192167426e-36 -8.326261267600858e-36 10.867658671726842 -9.973517411148174 -0.33829179263971554 0.20092200789884115 0.30566621576851316 0.015029945196495115 0.17469364096918683 0.4544293391844036 0.3380542239097195 -2.361447703606261 -0.014854963595216687 0.00039488312928024103 0.0 0.0 0.0 0.0 0.0 0.0 768 30.125 30.375 30.1875 34.4375 36.875 37.1875 0.59796 7 253 253 253 253 253 253 1 -0.15322890877723694 0.2106897532939911 -9.90241813659668 0.0 1.0 0.0 47.77644348144531 47.8176383972168 0.5404736995697021 47.77125930786133 47.65659713745117 47.65659713745117 47.65659713745117 47.599266052246094 47.570594787597656 3840 1
14830.525 -2.5594089999999996 -1.9815459999999998 2.1962889999999997 -2.2882689999999997 -0.9389690000000002 -0.8211310000000003 0.0 0.0 0.0 0.0 0.0 0.0 0.0 0.0 0.0 0.0 0.0 0.0 0.1450087228991408 -1.9576571550838917 -1.5246700527254304 -0.36355304092972623 -1.2988945115475858e-05 0.0 1.666027610830618 -20.855208815837504 -17.331669795745952 -2.6435379176590024 -0.00010025082248405535 0.0 -2.5593894163714808 -1.9815708599486292 2.1962764898883265 -2.2882477245726527 -0.9389765898333948 -0.8211186567889612 0.0 0.0 -0.0 -0.0 -0.0 0.0 -0.0648968368768692 -1.8405476808547974 -1.4049627780914307 -0.4301290214061737 0.026175282895565033 -0.003212247509509325 0.1450087228991408 -1.9576571550838917 -1.5246700527254304 -0.36355304092972623 -1.2988945115475858e-05 0.0 0.17468235792530312 0.4544293223253069 0.33806625647090416 -2.3614444984493836 -0.014867469247512975 0.0003881692205396482 0.0 0.0 0.0 0.0 0.0 0.0 10.767034776880177 -10.23373100048137 -0.4682518374812279 0.21102680751880268 0.30201888719522746 0.01584825507526119 0.17469364096918683 0.4544293391844036 0.3380542239097195 -2.361447703606261 -0.014854963595216687 0.00039488312928024103 0.0 0.0 0.0 0.0 0.0 0.0 768 30.125 30.375 30.1875 34.4375 36.875 37.1875 0.601788 7 253 253 253 253 253 253 1 -0.038307227194309235 0.15322890877723694 -9.940725326538086 0.0 1.0 0.0 47.76838302612305 47.796146392822266 0.5919508934020996 47.742591857910156 47.6279296875 47.65659713745117 47.64226531982422 47.570594787597656 47.5562629699707 3840 1
14830.545 -2.5594089999999996 -1.9815459999999998 2.1962889999999997 -2.2882689999999997 -0.9389690000000002 -0.8211310000000003 0.0 0.0 0.0 0.0 0.0 0.0 0.0 0.0 0.0 0.0 0.0 0.0 0.14507647694631734 -1.9575274858625682 -1.5246962185130757 -0.36354713525491195 2.960304903224323e-06 0.0 1.6668060475417679 -20.85382743060329 -17.33196723504477 -2.643494975162191 2.2848121900078396e-05 0.0 -2.5593894163714808 -1.9815827808775843 2.1962879339801233 -2.288283964196676 -0.9389527479754847 -0.8211548964129847 0.0 0.0 -0.0 -0.0 -0.0 0.0 -0.06415298581123352 -1.8863476514816284 -1.4259504079818726 -0.4323107898235321 0.029097862541675568 -0.009226997382938862 0.14507647694631734 -1.9575274858625682 -1.5246962185130757 -0.36354713525491195 2.960304903224323e-06 0.0 0.17467834835148474 0.45443250798877627 0.33807421856854303 -2.3614065555016133 -0.014932994370687024 0.0003537449623520546 0.0 0.0 0.0 0.0 0.0 0.0 11.05804863455573 -10.183261952409168 -0.5797690958126003 0.21145270133752056 0.3061871871672926 0.018892386408198014 0.17469364096918683 0.4544293391844036 0.3380542239097195 -2.361447703606261 -0.014854963595216687 0.00039488312928024103 0.0 0.0 0.0 0.0 0.0 0.0 768 30.125 30.375 30.1875 34.4375 36.875 37.1875 0.593184 7 253 253 253 253 253 253 1 -0.1149216815829277 0.15322890877723694 -10.017339706420898 0.0 1.0 0.0 47.82211685180664 47.826595306396484 0.5136224627494812 47.742591857910156 47.64226531982422 47.65659713745117 47.670928955078125 47.61359786987305 47.5562629699707 3840 1
14830.564999999999 -2.5594089999999996 -1.9815459999999998 2.1962889999999997 -2.2882689999999997 -0.9389690000000002 -0.8211310000000003 0.0 0.0 0.0 0.0 0.0 0.0 0.0 0.0 0.0 0.0 0.0 0.0 0.14500548300589114 -1.9576094830824657 -1.5246512907856877 -0.3635407778573201 2.9601706400604526e-06 0.0 1.6659903871967414 -20.85470095901394 -17.331456519605474 -2.6434487480104423 2.2847085634816848e-05 0.0 -2.5593894163714808 -1.981558462182516 2.1962879339801233 -2.2882477245726527 -0.9389765898333948 -0.8211548964129847 0.0 0.0 -0.0 -0.0 -0.0 0.0 -0.033904675394296646 -1.8455406427383423 -1.4105958938598633 -0.4269062578678131 0.03266790136694908 -0.01922447234392166 0.14500548300589114 -1.9576094830824657 -1.5246512907856877 -0.3635407778573201 2.9601706400604526e-06 0.0 0.17468212987522896 0.4544291670375667 0.3380548764650051 -2.361457265429789 -0.014900621220345894 0.0003941865858709242 0.0 0.0 0.0 0.0 0.0 0.0 10.85528418924557 -10.26661739191159 -0.44052482828339734 0.2097959392574554 0.3086476543388316 0.018113966180056285 0.17469364096918683 0.4544293391844036 0.3380542239097195 -2.361447703606261 -0.014854963595216687 0.00039488312928024103 0.0 0.0 0.0 0.0 0.0 0.0 768 30.125 30.375 30.1875 34.4375 36.875 37.1875 0.597864 7 253 253 253 253 253 253 1 -0.1149216815829277 0.13407529890537262 -9.921571731567383 0.0 1.0 0.0 47.780025482177734 47.8122673034668 0.5382378697395325 47.742591857910156 47.65659713745117 47.68526077270508 47.6279296875 47.61359786987305 47.570594787597656 3840 1
14830.585 -2.5594089999999996 -1.9815459999999998 2.1962889999999997 -2.2882689999999997 -0.9389690000000002 -0.8211310000000003 0.0 0.0 0.0 0.0 0.0 0.0 0.0 0.0 0.0 0.0 0.0 0.0 0.14504978287917894 -1.9576503354189179 -1.5247437751106283 -0.36356238955886916 7.173369668526851e-07 0.0 1.6664993552820966 -20.85513616494625 -17.332507834136305 -2.643605895238159 5.536525120851944e-06 0.0 -2.5593894163714808 -1.9815346203246058 2.19629937807192 -2.288271566430563 -0.9389885107623499 -0.8211305777179163 0.0 0.0 -0.0 -0.0 -0.0 0.0 -0.09748265892267227 -1.8603541851043701 -1.365614891052246 -0.43153470754623413 0.028147101402282715 -0.008439947851002216 0.14504978287917894 -1.9576503354189179 -1.5247437751106283 -0.36356238955886916 7.173369668526851e-07 0.0 0.1746881933722562 0.45443031565227326 0.3380418233797863 -2.361472285347953 -0.01486344915873481 0.00040780430588554053 0.0 0.0 0.0 0.0 0.0 0.0 10.845807153641488 -10.173982761390823 -0.5314877064739543 0.20654568980707005 0.3043222754455148 0.016869438642991896 0.17469364096918683 0.4544293391844036 0.3380542239097195 -2.361447703606261 -0.014854963595216687 0.00039488312928024103 0.0 0.0 0.0 0.0 0.0 0.0 768 30.125 30.375 30.1875 34.4375 36.875 37.1875 0.592716 7 253 253 253 253 253 253 1 -0.1149216815829277 0.13407529890537262 -9.979032516479492 0.0 1.0 0.0 47.78718948364258 47.81584930419922 0.5494276285171509 47.7282600402832 47.64226531982422 47.65659713745117 47.65659713745117 47.584930419921875 47.570594787597656 3840 1
14830.605 -2.5594089999999996 -1.9815459999999998 2.1962889999999997 -2.2882689999999997 -0.9389690000000002 -0.8211310000000003 0.0 0.0 0.0 0.0 0.0 0.0 0.0 0.0 0.0 0.0 0.0 0.0 0.14501439347109335 -1.9577416473567564 -1.5247222415655786 -0.36355556227348346 2.889805467088618e-06 0.0 1.6660927609074774 -20.85610892441338 -17.332263051803455 -2.6435562513464577 2.2303995614653898e-05 0.0 -2.559437100087301 -1.981546541253561 2.196240250264303 -2.2882477245726527 -0.9389885107623499 -0.8210948149310511 0.0 0.0 -0.0 -0.0 -0.0 0.0 -0.007410700898617506 -1.811118245124817 -1.4016417264938354 -0.4173935651779175 0.03641345351934433 -0.005985441617667675 0.14501439347109335 -1.9577416473567564 -1.5247222415655786 -0.36355556227348346 2.889805467088618e-06 0.0 0.17471611883864818 0.4544260875290876 0.3380755998170859 -2.361447210278951 -0.014783961726339341 0.00035514139063262743 0.0 0.0 0.0 0.0 0.0 0.0 11.06088602706178 -10.082731952057504 -0.45435936542869726 0.20485832088855108 0.31311330587998143 0.016923021248324177 0.17469364096918683 0.4544293391844036 0.3380542239097195 -2.361447703606261 -0.014854963595216687 0.00039488312928024103 0.0 0.0 0.0 0.0 0.0 0.0 768 30.125 30.375 30.1875 34.4375 36.875 37.1875 0.601284 7 253 253 253 253 253 253 1 -0.07661445438861847 0.07661445438861847 -10.036493301391602 0.0 1.0 0.0 47.786293029785156 47.81495666503906 0.5046685338020325 47.742591857910156 47.65659713745117 47.68526077270508 47.670928955078125 47.599266052246094 47.61359786987305 3840 1
14830.625 -2.5594089999999996 -1.9815459999999998 2.1962889999999997 -2.2882689999999997 -0.9389690000000002 -0.8211310000000003 0.0 0.0 0.0 0.0 0.0 0.0 0.0 0.0 0.0 0.0 0.0 0.0 0.1450566654471186 -1.9576182070749595 -1.5247136657376832 -0.36355902410966195 7.174015671430539e-07 0.0 1.6665784301680184 -20.85479389698558 -17.332165566175636 -2.643581423726199 5.537023716556567e-06 0.0 -2.559413735066549 -1.981558462182516 2.1962879339801233 -2.2882596455016078 -0.9389641920672815 -0.821106259022848 0.0 0.0 -0.0 -0.0 -0.0 0.0 -0.06200950965285301 -1.8520393371582031 -1.425116777420044 -0.41911962628364563 0.04279766604304314 -0.009970041923224926 0.1450566654471186 -1.9576182070749595 -1.5247136657376832 -0.36355902410966195 7.174015671430539e-07 0.0 0.17469232401461457 0.4544273740030671 0.338058655675762 -2.361442180145022 -0.014823391111330374 0.0004043013393086784 0.0 0.0 0.0 0.0 0.0 0.0 10.833375839106468 -10.151186560012892 -0.6119134209546822 0.2099510326559461 0.30421073515685215 0.012119070719661146 0.17469364096918683 0.4544293391844036 0.3380542239097195 -2.361447703606261 -0.014854963595216687 0.00039488312928024103 0.0 0.0 0.0 0.0 0.0 0.0 768 30.125 30.375 30.1875 34.4375 36.875 37.1875 0.596304 7 253 253 253 253 253 253 1 -0.1149216815829277 0.17238251864910126 -9.959878921508789 0.0 1.0 0.0 47.76569747924805 47.78718948364258 0.5516634583473206 47.71392822265625 47.65659713745117 47.65659713745117 47.6279296875 47.570594787597656 47.54193115234375 3840 1
14830.644999999999 -2.5594089999999996 -1.9815459999999998 2.1962889999999997 -2.2882689999999997 -0.9389690000000002 -0.8211310000000003 0.0 0.0 0.0 0.0 0.0 0.0 0.0 0.0 0.0 0.0 0.0 0.0 0.14509807729627847 -1.9576763024466926 -1.5247547030360722 -0.3635677876795542 -8.557458733144835e-06 0.0 1.6670542172981753 -20.85541279550189 -17.332632057206737 -2.6436451471081988 -6.604787908057171e-05 0.0 -2.5593774954425257 -1.981546541253561 2.196240250264303 -2.2882477245726527 -0.9389765898333948 -0.8211424986468714 0.0 0.0 -0.0 -0.0 -0.0 0.0 -0.09554740786552429 -1.8607053756713867 -1.396420955657959 -0.4317469894886017 0.04485522210597992 -0.008669166825711727 0.14509807729627847 -1.9576763024466926 -1.5247547030360722 -0.3635677876795542 -8.557458733144835e-06 0.0 0.17468697763999158 0.45443802984364196 0.3380771262057363 -2.361437714660066 -0.014914543058263122 0.00037058710490365333 0.0 0.0 0.0 0.0 0.0 0.0 10.763208694485327 -10.264009206106856 -0.446321275078418 0.21165892458422447 0.30397286865880846 0.014300325806419295 0.17469364096918683 0.4544293391844036 0.3380542239097195 -2.361447703606261 -0.014854963595216687 0.00039488312928024103 0.0 0.0 0.0 0.0 0.0 0.0 768 30.0625 30.375 30.1875 34.4375 36.875 37.1875 0.598404 7 253 253 253 253 253 253 1 -0.2298433631658554 0.19153612852096558 -9.979032516479492 0.0 1.0 0.0 47.81316375732422 47.83644485473633 0.5494276285171509 47.7282600402832 47.65659713745117 47.68526077270508 47.65659713745117 47.599266052246094 47.584930419921875 3840 1
14830.664999999999 -2.5594089999999996 -1.9815459999999998 2.1962889999999997 -2.2882689999999997 -0.9389690000000002 -0.8211310000000003 0.0 0.0 0.0 0.0 0.0 0.0 0.0 0.0 0.0 0.0 0.0 0.0 0.14507114103657068 -1.9576274769550968 -1.5246953595011488 -0.3635555622842267 -6.307902105213786e-06 0.0 1.6667447424506732 -20.85489265037836 -17.331957470236286 -2.6435562514245756 -4.86854296922956e-05 0.0 -2.559425179158346 -1.981546541253561 2.1963356176959437 -2.288271566430563 -0.9389765898333948 -0.8211548964129847 0.0 0.0 -0.0 -0.0 -0.0 0.0 -0.10629460215568542 -1.795080542564392 -1.427015781402588 -0.43213513493537903 0.044787902384996414 -0.009455082006752491 0.14507114103657068 -1.9576274769550968 -1.5246953595011488 -0.3635555622842267 -6.307902105213786e-06 0.0 0.17469416858621864 0.4544201681672499 0.3380275728571206 -2.3614769619662934 -0.014843986292418797 0.00041237335041155676 0.0 0.0 0.0 0.0 0.0 0.0 10.921785909401883 -10.261438390208902 -0.40989823341653686 0.21412499356268816 0.30816414099398615 0.015285873230768604 0.17469364096918683 0.4544293391844036 0.3380542239097195 -2.361447703606261 -0.014854963595216687 0.00039488312928024103 0.0 0.0 0.0 0.0 0.0 0.0 768 30.0625 30.375 30.1875 34.4375 36.875 37.1875 0.591517 7 253 253 253 253 253 253 1 -0.09576806426048279 0.1149216815829277 -9.883264541625977 0.0 1.0 0.0 47.795249938964844 47.82301330566406 0.5225711464881897 47.7282600402832 47.64226531982422 47.65659713745117 47.68526077270508 47.584930419921875 47.570594787597656 3840 1
14830.685 -2.5594089999999996 -1.9815459999999998 2.1962889999999997 -2.2882689999999997 -0.9389690000000002 -0.8211310000000003 0.0 0.0 0.0 0.0 0.0 0.0 0.0 0.0 0.0 0.0 0.0 0.0 0.14499629497547 -1.9576475985494168 -1.52475406178317 -0.3635695429369635 7.875501112677946e-07 0.0 1.6658848244963418 -20.855107008674022 -17.332624767771534 -2.6436579102788897 6.0784417595187624e-06 0.0 -2.5593774954425257 -1.9815346203246058 2.1962879339801233 -2.288271566430563 -0.9389403502093714 -0.8211668173419397 0.0 0.0 -0.0 -0.0 -0.0 0.0 -0.14464882016181946 -1.834405779838562 -1.394690752029419 -0.41766268014907837 0.047656890004873276 -0.015117361210286617 0.14499629497547 -1.9576475985494168 -1.52475406178317 -0.3635695429369635 7.875501112677946e-07 0.0 0.17467651882925106 0.4544399275672212 0.3380544626695209 -2.36143051656948 -0.014940713979805252 0.0004236909742146724 0.0 0.0 0.0 0.0 0.0 0.0 10.93182018121848 -10.23353574573176 -0.556851385137656 0.20868201434132425 0.3087598732240839 0.01707425682603647 0.17469364096918683 0.4544293391844036 0.3380542239097195 -2.361447703606261 -0.014854963595216687 0.00039488312928024103 0.0 0.0 0.0 0.0 0.0 0.0 768 30.0625 30.375 30.1875 34.4375 36.875 37.1875 0.598777 7 253 253 253 253 253 253 1 -0.13407528400421143 0.09576806426048279 -9.998186111450195 0.0 1.0 0.0 47.790771484375 47.8122673034668 0.5315250754356384 47.71392822265625 47.6279296875 47.65659713745117 47.68526077270508 47.5562629699707 47.5562629699707 3840 1
14830.705 -2.5594089999999996 -1.9815459999999998 2.1962889999999997 -2.2882689999999997 -0.9389690000000002 -0.8211310000000003 0.0 0.0 0.0 0.0 0.0 0.0 0.0 0.0 0.0 0.0 0.0 0.0 0.14506546910365237 -1.95769351751965 -1.5246891198582189 -0.36355183226393545 1.416642665351132e-05 0.0 1.666679576737468 -20.855596190199158 -17.33188654116497 -2.643529128972104 0.00010933881936127681 0.0 -2.5593894163714808 -1.9815346203246058 2.1962278524981897 -2.288271566430563 -0.939000431691305 -0.8211424986468714 0.0 0.0 -0.0 -0.0 -0.0 0.0 -0.024049533531069756 -1.8414229154586792 -1.45294189453125 -0.4284484386444092 0.04897157847881317 -0.0072793252766132355 0.14506546910365237 -1.95769351751965 -1.5246891198582189 -0.36355183226393545 1.416642665351132e-05 0.0 0.1747030264890682 0.45443723212137627 0.3380807499748002 -2.361441779875637 -0.01490256742563608 0.00032154330612048994 0.0 0.0 0.0 0.0 0.0 0.0 10.771616617721055 -10.194437330933898 -0.6809978702977411 0.2102961583157115 0.30552806872558225 0.018192490004112494 0.17469364096918683 0.4544293391844036 0.3380542239097195 -2.361447703606261 -0.014854963595216687 0.00039488312928024103 0.0 0.0 0.0 0.0 0.0 0.0 768 30.0625 30.375 30.1875 34.4375 36.875 37.1875 0.602233 7 253 253 253 253 253 253 1 -0.05746084079146385 0.09576806426048279 -9.959878921508789 0.0 1.0 0.0 47.76659393310547 47.79435729980469 0.4397604167461395 47.71392822265625 47.64226531982422 47.65659713745117 47.64226531982422 47.570594787597656 47.54193115234375 3840 1
14830.724999999999 -2.5594089999999996 -1.9815459999999998 2.1962889999999997 -2.2882689999999997 -0.9389690000000002 -0.8211310000000003 0.0 0.0 0.0 0.0 0.0 0.0 0.0 0.0 0.0 0.0 0.0 0.0 0.14510310900505544 -1.9576720483076675 -1.5247507162305702 -0.3635615550427106 5.1490625612141295e-06 0.0 1.6671120273773519 -20.855367475534877 -17.332586737239723 -2.643599827141184 3.974131480227306e-05 0.0 -2.559401814137594 -1.981546541253561 2.19629937807192 -2.2882358036436976 -0.9390123526202601 -0.8211305777179163 0.0 0.0 -0.0 -0.0 -0.0 0.0 -0.07098962366580963 -1.8412387371063232 -1.3999977111816406 -0.42965200543403625 0.05655597895383835 0.0001704273745417595 0.14510310900505544 -1.9576720483076675 -1.5247507162305702 -0.3635615550427106 5.1490625612141295e-06 0.0 0.1746923499651557 0.45442134707014703 0.3380369143332173 -2.3615030004692477 -0.014831263304459254 0.0004058684150610504 0.0 0.0 0.0 0.0 0.0 0.0 10.857049864007067 -10.046550423346812 -0.5192640342226813 0.20596606492529732 0.3072265595587077 0.01582180414058154 0.17469364096918683 0.4544293391844036 0.3380542239097195 -2.361447703606261 -0.014854963595216687 0.00039488312928024103 0.0 0.0 0.0 0.0 0.0 0.0 768 30.0625 30.375 30.1875 34.4375 36.875 37.1875 0.598225 7 253 253 253 253 253 253 1 -0.07661445438861847 0.05746084079146385 -9.921571731567383 0.0 1.0 0.0 47.75047302246094 47.78718948364258 0.49571460485458374 47.7282600402832 47.6279296875 47.65659713745117 47.64226531982422 47.570594787597656 47.54193115234375 3840 1
14830.744999999999 -2.5594089999999996 -1.9815459999999998 2.1962889999999997 -2.2882689999999997 -0.9389690000000002 -0.8211310000000003 0.0 0.0 0.0 0.0 0.0 0.0 0.0 0.0 0.0 0.0 0.0 0.0 0.14509698586432604 -1.9576117089055791 -1.524722241562345 -0.3635555622684278 7.218138442066391e-06 0.0 1.6670416776679258 -20.85472467103404 -17.332263051766695 -2.6435562513096955 5.571078399267092e-05 0.0 -2.559401814137594 -1.9815346203246058 2.1963117758380335 -2.288283964196676 -0.9389527479754847 -0.8211305777179163 0.0 0.0 -0.0 -0.0 -0.0 0.0 -0.022406740114092827 -1.818250060081482 -1.4049800634384155 -0.41673544049263 0.048363007605075836 0.0001771422103047371 0.14509698586432604 -1.9576117089055791 -1.524722241562345 -0.3635555622684278 7.218138442066391e-06 0.0 0.1746867789018146 0.45443217300842254 0.3380416703754617 -2.361446210731538 -0.014860548462493009 0.0004308330391588701 0.0 0.0 0.0 0.0 0.0 0.0 10.617321474061534 -9.78200003708649 -0.48777279935481666 0.20177291633831865 0.3012281881950738 0.012853525787557385 0.17469364096918683 0.4544293391844036 0.3380542239097195 -2.361447703606261 -0.014854963595216687 0.00039488312928024103 0.0 0.0 0.0 0.0 0.0 0.0 768 30.0625 30.375 30.1875 34.4375 36.875 37.1875 0.59724 7 253 253 253 253 253 253 1 -0.05746084079146385 0.1149216815829277 -9.90241813659668 0.0 1.0 0.0 47.80331039428711 47.82301330566406 0.5964226126670837 47.742591857910156 47.65659713745117 47.68526077270508 47.75692367553711 47.61359786987305 47.584930419921875 3840 1
14830.765 -2.5594089999999996 -1.9815459999999998 2.1962889999999997 -2.2882689999999997 -0.9389690000000002 -0.8211310000000003 0.0 0.0 0.0 0.0 0.0 0.0 0.0 0.0 0.0 0.0 0.0 0.0 0.14509445786051509 -1.957712863443887 -1.5246532636849588 -0.3635477748427753 2.960831618828968e-07 0.0 1.6670126330417467 -20.855802285167652 -17.331478946515904 -2.643499625858453 2.2852187178059897e-06 0.0 -2.5593774954425257 -1.981546541253561 2.1962764898883265 -2.2882358036436976 -0.9389527479754847 -0.8211424986468714 0.0 0.0 -0.0 -0.0 -0.0 0.0 -0.059765975922346115 -1.889517903327942 -1.4197025299072266 -0.42743435502052307 0.0520680733025074 -0.013888467103242874 0.14509445786051509 -1.957712863443887 -1.5246532636849588 -0.3635477748427753 2.960831618828968e-07 0.0 0.17467511365788088 0.4544359444678386 0.33805749129971197 -2.361446713930615 -0.014902831797262851 0.0004375199525153786 0.0 0.0 0.0 0.0 0.0 0.0 11.071444155216334 -10.038388457109178 -0.604998645657183 0.2078175135347271 0.30933962841732915 0.019100237313307566 0.17469364096918683 0.4544293391844036 0.3380542239097195 -2.361447703606261 -0.014854963595216687 0.00039488312928024103 0.0 0.0 0.0 0.0 0.0 0.0 768 30.0625 30.375 30.1875 34.4375 36.875 37.1875 0.595296 7 253 253 253 253 253 253 1 -0.09576806426048279 0.09576806426048279 -9.959878921508789 0.0 1.0 0.0 47.76927947998047 47.80509948730469 0.5718072056770325 47.71392822265625 47.65659713745117 47.65659713745117 47.670928955078125 47.584930419921875 47.570594787597656 3840 1
14830.785 -2.5594089999999996 -1.9815459999999998 2.1962889999999997 -2.2882689999999997 -0.9389690000000002 -0.8211310000000003 0.0 0.0 0.0 0.0 0.0 0.0 0.0 0.0 0.0 0.0 0.0 0.0 0.14506107110532956 -1.9576046086546428 -1.524700921853053 -0.36355927335531857 5.045730781153218e-06 0.0 1.6666290474555625 -20.854649031019378 -17.332020700209434 -2.643583236089926 3.894378306680476e-05 0.0 -2.559425179158346 -1.981546541253561 2.1962879339801233 -2.2882477245726527 -0.9389885107623499 -0.8210948149310511 0.0 0.0 -0.0 -0.0 -0.0 0.0 -0.06591235846281052 -1.8723903894424438 -1.3944685459136963 -0.4302119314670563 0.04627631604671478 -0.016628514975309372 0.14506107110532956 -1.9576046086546428 -1.524700921853053 -0.36355927335531857 5.045730781153218e-06 0.0 0.1747021827794652 0.4544225401499124 0.3380486312225798 -2.361473199312169 -0.014778738275393822 0.0004081383154756004 0.0 0.0 0.0 0.0 0.0 0.0 10.770980721441989 -10.057864994844048 -0.43022032840674385 0.2081385733438713 0.3035348867597575 0.011077361010524783 0.17469364096918683 0.4544293391844036 0.3380542239097195 -2.361447703606261 -0.014854963595216687 0.00039488312928024103 0.0 0.0 0.0 0.0 0.0 0.0 768 30.0625 30.375 30.1875 34.4375 36.875 37.1875 0.591456 7 253 253 253 253 253 253 1 -0.07661445438861847 0.15322890877723694 -9.90241813659668 0.0 1.0 0.0 47.78450393676758 47.80778884887695 0.5427148342132568 47.71392822265625 47.65659713745117 47.65659713745117 47.670928955078125 47.584930419921875 47.5562629699707 3840 1
14830.804999999998 -2.5594089999999996 -1.9815459999999998 2.1962889999999997 -2.2882689999999997 -0.9389690000000002 -0.8211310000000003 0.0 0.0 0.0 0.0 0.0 0.0 0.0 0.0 0.0 0.0 0.0 0.0 0.14508589769240748 -1.9576660278146232 -1.5247731470273915 -0.3635712675339292 7.217788081887665e-06 0.0 1.6669142839484268 -20.855303338339407 -17.332841719072064 -2.643670450505372 5.570807985497763e-05 0.0 -2.5593774954425257 -1.9815708599486292 2.1962879339801233 -2.288271566430563 -0.9389641920672815 -0.8211305777179163 0.0 0.0 -0.0 -0.0 -0.0 0.0 -0.08645399659872055 -1.8678206205368042 -1.4399266242980957 -0.4238798916339874 0.03937486931681633 -0.01389492116868496 0.14508589769240748 -1.9576660278146232 -1.5247731470273915 -0.3635712675339292 7.217788081887665e-06 0.0 0.17467531928432858 0.45443337313492704 0.3380657549663999 -2.3614283683910324 -0.014904750480896437 0.00038607472926738403 0.0 0.0 0.0 0.0 0.0 0.0 10.636306671074394 -10.012014046526609 -0.3930258855328139 0.20402608924199192 0.30451508867886706 0.01117010884328623 0.17469364096918683 0.4544293391844036 0.3380542239097195 -2.361447703606261 -0.014854963595216687 0.00039488312928024103 0.0 0.0 0.0 0.0 0.0 0.0 768 30.0625 30.375 30.1875 34.4375 36.875 37.1875 0.60066 7 253 253 253 253 253 253 1 -0.07661445438861847 0.09576806426048279 -10.017339706420898 0.0 1.0 0.0 47.76927947998047 47.8068962097168 0.4979557394981384 47.71392822265625 47.65659713745117 47.65659713745117 47.670928955078125 47.61359786987305 47.570594787597656 3840 1
14830.824999999999 -2.5594089999999996 -1.9815459999999998 2.1962889999999997 -2.2882689999999997 -0.9389690000000002 -0.8211310000000003 0.0 0.0 0.0 0.0 0.0 0.0 0.0 0.0 0.0 0.0 0.0 0.0 0.1450169757579285 -1.9576546582817858 -1.5247336837309977 -0.36356284065501404 1.1977539929412543e-05 0.0 1.6661224291997043 -20.855182217038447 -17.332393120491062 -2.6436091753366022 9.244463030554819e-05 0.0 -2.559413735066549 -1.981546541253561 2.1962879339801233 -2.288295408288473 -0.9389885107623499 -0.8211548964129847 0.0 0.0 -0.0 -0.0 -0.0 0.0 -0.02809610404074192 -1.8374994993209839 -1.4119923114776611 -0.4235120117664337 0.0469975546002388 -0.00762558076530695 0.1450169757579285 -1.9576546582817858 -1.5247336837309977 -0.36356284065501404 1.1977539929412543e-05 0.0 0.17470210296934593 0.4544279981230802 0.3380573981717975 -2.3614463396027543 -0.014882596045034191 0.0003375877485687672 0.0 0.0 0.0 0.0 0.0 0.0 10.925867681519145 -10.107560747864081 -0.596998891224974 0.2087733355993416 0.3097691563338366 0.014982901671498988 0.17469364096918683 0.4544293391844036 0.3380542239097195 -2.361447703606261 -0.014854963595216687 0.00039488312928024103 0.0 0.0 0.0 0.0 0.0 0.0 768 30.0625 30.375 30.1875 34.4375 36.875 37.1875 0.59838 7 253 253 253 253 253 253 1 -0.05746084079146385 0.09576806426048279 -9.90241813659668 0.0 1.0 0.0 47.77913284301758 47.80062484741211 0.5471917986869812 47.71392822265625 47.65659713745117 47.65659713745117 47.7282600402832 47.584930419921875 47.570594787597656 3840 1
14830.845 -2.5594089999999996 -1.9815459999999998 2.1962889999999997 -2.2882689999999997 -0.9389690000000002 -0.8211310000000003 0.0 0.0 0.0 0.0 0.0 0.0 0.0 0.0 0.0 0.0 0.0 0.0 0.1451618591246378 -1.9576479949971737 -1.5247142460637984 -0.3635573736697397 2.962611517000888e-07 0.0 1.6677870165739113 -20.855111232090124 -17.332172163026268 -2.6435694227249034 2.286592472595824e-06 0.0 -2.559401814137594 -1.9815226993956507 2.1962516943561 -2.2882358036436976 -0.9389527479754847 -0.8211548964129847 0.0 0.0 -0.0 -0.0 -0.0 0.0 -0.07922250032424927 -1.820834755897522 -1.411960482597351 -0.4167112112045288 0.04281449317932129 -0.011547376401722431 0.1451618591246378 -1.9576479949971737 -1.5247142460637984 -0.3635573736697397 2.962611517000888e-07 0.0 0.17469408784538157 0.45443692424809934 0.33806207706014246 -2.3614462804731486 -0.014889165438716887 0.0004187597475574016 0.0 0.0 0.0 0.0 0.0 0.0 10.658452504101433 -10.263957117196185 -0.5722828251686947 0.21060876236936651 0.30531667279251595 0.011304106955332766 0.17469364096918683 0.4544293391844036 0.3380542239097195 -2.361447703606261 -0.014854963595216687 0.00039488312928024103 0.0 0.0 0.0 0.0 0.0 0.0 768 30.0625 30.375 30.1875 34.4375 36.875 37.1875 0.5964 7 253 253 253 253 253 253 1 -0.1149216741323471 0.15322890877723694 -9.90241813659668 0.0 1.0 0.0 47.80152130126953 47.81584930419922 0.5203352570533752 47.742591857910156 47.64226531982422 47.65659713745117 47.670928955078125 47.61359786987305 47.570594787597656 3840 1
14830.865 -2.5594089999999996 -1.9815459999999998 2.1962889999999997 -2.2882689999999997 -0.9389690000000002 -0.8211310000000003 0.0 0.0 0.0 0.0 0.0 0.0 0.0 0.0 0.0 0.0 0.0 0.0 0.14505108870611266 -1.9575634033419038 -1.5246882199609868 -0.36355648397844303 2.9603086875902237e-06 0.0 1.6665143581293949 -20.854210064778908 -17.331876311593234 -2.6435629534276814 2.28481511084391e-05 0.0 -2.5593655745135706 -1.981546541253561 2.19629937807192 -2.2882477245726527 -0.9389641920672815 -0.821106259022848 0.0 0.0 -0.0 -0.0 -0.0 0.0 -0.08370716124773026 -1.8022984266281128 -1.4358344078063965 -0.4238041639328003 0.04653617739677429 -0.01820475235581398 0.14505108870611266 -1.9575634033419038 -1.5246882199609868 -0.36355648397844303 2.9603086875902237e-06 0.0 0.17466886012020807 0.454434720600365 0.33804527279766133 -2.361461187233643 -0.014865959164944032 0.00046255088688799777 0.0 0.0 0.0 0.0 0.0 0.0 10.853001118684464 -10.110088108325716 -0.550698285700582 0.20719489001383792 0.3051542357211161 0.018515225487366144 0.17469364096918683 0.4544293391844036 0.3380542239097195 -2.361447703606261 -0.014854963595216687 0.00039488312928024103 0.0 0.0 0.0 0.0 0.0 0.0 768 30.0625 30.375 30.1875 34.4375 36.875 37.1875 0.590532 7 253 253 253 253 253 253 1 -0.1149216815829277 0.07661445438861847 -9.959878921508789 0.0 1.0 0.0 47.77017593383789 47.80331039428711 0.5136224627494812 47.742591857910156 47.670928955078125 47.670928955078125 47.670928955078125 47.61359786987305 47.570594787597656 3840 1
14830.885 -2.5594089999999996 -1.9815459999999998 2.1962889999999997 -2.2882689999999997 -0.9389690000000002 -0.8211310000000003 0.0 0.0 0.0 0.0 0.0 0.0 0.0 0.0 0.0 0.0 0.0 0.0 0.14502097877322578 -1.9577116451543808 -1.5246941247257666 -0.36355531297088567 2.889805782041947e-06 0.0 1.6661684204606335 -20.855789306550847 -17.33194343394092 -2.643554438568689 2.230399804551568e-05 0.0 -2.5593894163714808 -1.9815346203246058 2.1962879339801233 -2.2882477245726527 -0.9389527479754847 -0.8211548964129847 0.0 0.0 -0.0 -0.0 -0.0 0.0 -0.0659940168261528 -1.842797875404358 -1.395948886871338 -0.4305514097213745 0.03776957839727402 -0.02565576322376728 0.14502097877322578 -1.9577116451543808 -1.5246941247257666 -0.36355531297088567 2.889805782041947e-06 0.0 0.17468151299684787 0.45443452544562757 0.33804849177359886 -2.3614529053699442 -0.014898801436532215 0.00043711651504101985 0.0 0.0 0.0 0.0 0.0 0.0 11.017908468237161 -10.13067479703949 -0.47204913416791605 0.20640588978537155 0.306887336728251 0.020270978688501057 0.17469364096918683 0.4544293391844036 0.3380542239097195 -2.361447703606261 -0.014854963595216687 0.00039488312928024103 0.0 0.0 0.0 0.0 0.0 0.0 768 30.0625 30.375 30.1875 34.4375 36.875 37.1875 0.597252 7 253 253 253 253 253 253 1 -0.05746084079146385 0.17238251864910126 -9.979032516479492 0.0 1.0 0.0 47.780025482177734 47.8122673034668 0.5762841701507568 47.71392822265625 47.65659713745117 47.65659713745117 47.64226531982422 47.570594787597656 47.5562629699707 3840 1
14830.904999999999 -2.5594089999999996 -1.9815459999999998 2.1962889999999997 -2.2882689999999997 -0.9389690000000002 -0.8211310000000003 0.0 0.0 0.0 0.0 0.0 0.0 0.0 0.0 0.0 0.0 0.0 0.0 0.14509032874637712 -1.9576300499160744 -1.5246696976663652 -0.36354248255214483 -4.0488728434755634e-06 0.0 1.6669651930117635 -20.85492006050905 -17.331665759615994 -2.643461143520588 -3.124986895264978e-05 0.0 -2.559401814137594 -1.9815827808775843 2.19629937807192 -2.288271566430563 -0.9389289061175745 -0.8211186567889612 0.0 0.0 -0.0 -0.0 -0.0 0.0 -0.06227781996130943 -1.8111284971237183 -1.4013869762420654 -0.4402240216732025 0.03612138330936432 -0.010025834664702415 0.14509032874637712 -1.9576300499160744 -1.5246696976663652 -0.36354248255214483 -4.0488728434755634e-06 0.0 0.17467649678826372 0.45443115032540143 0.3380685195945994 -2.3614026226924607 -0.014873698019806677 0.0004081714087628952 0.0 0.0 0.0 0.0 0.0 0.0 10.891993561064183 -10.122232463463105 -0.5490932805431701 0.20733659903253826 0.3051450229459676 0.01970024493482561 0.17469364096918683 0.4544293391844036 0.3380542239097195 -2.361447703606261 -0.014854963595216687 0.00039488312928024103 0.0 0.0 0.0 0.0 0.0 0.0 768 30.0625 30.375 30.1875 34.4375 36.875 37.1875 0.591828 7 253 253 253 253 253 253 1 -0.07661445438861847 0.17238251864910126 -9.998186111450195 0.0 1.0 0.0 47.77286148071289 47.819435119628906 0.49571460485458374 47.742591857910156 47.65659713745117 47.670928955078125 47.65659713745117 47.599266052246094 47.584930419921875 3840 1
14830.925 -2.5594089999999996 -1.9815459999999998 2.1962889999999997 -2.2882689999999997 -0.9389690000000002 -0.8211310000000003 0.0 0.0 0.0 0.0 0.0 0.0 0.0 0.0 0.0 0.0 0.0 0.0 0.14505256028168012 -1.9577091634022041 -1.5247719127061223 -0.3635710188147631 -1.0816921981037233e-05 0.0 1.6665312652883424 -20.855762868080895 -17.33282768793882 -2.6436686419699664 -8.348678939699347e-05 0.0 -2.559401814137594 -1.981546541253561 2.1962764898883265 -2.288271566430563 -0.9389641920672815 -0.8211548964129847 0.0 0.0 -0.0 -0.0 -0.0 0.0 -0.09489545971155167 -1.8521392345428467 -1.47281813621521 -0.4165191352367401 0.04597775638103485 -0.02449796162545681 0.14505256028168012 -1.9577091634022041 -1.5247719127061223 -0.3635710188147631 -1.0816921981037233e-05 0.0 0.17469197798575964 0.4544328223920204 0.33806260099653607 -2.36143540783664 -0.014899563420787758 0.0003752185927715385 0.0 0.0 0.0 0.0 0.0 0.0 10.986583786877317 -9.892228658929913 -0.4412760333188803 0.2035799588163631 0.30977542766568317 0.016122693938723315 0.17469364096918683 0.4544293391844036 0.3380542239097195 -2.361447703606261 -0.014854963595216687 0.00039488312928024103 0.0 0.0 0.0 0.0 0.0 0.0 768 30.0625 30.375 30.1875 34.4375 36.875 37.1875 0.593172 7 253 253 253 253 253 253 1 -0.2106897532939911 0.09576806426048279 -9.940725326538086 0.0 1.0 0.0 47.79435729980469 47.81853485107422 0.5337609052658081 47.742591857910156 47.670928955078125 47.68526077270508 47.670928955078125 47.61359786987305 47.5562629699707 3840 1
14830.945 -2.5594089999999996 -1.9815459999999998 2.1962889999999997 -2.2882689999999997 -0.9389690000000002 -0.8211310000000003 0.0 0.0 0.0 0.0 0.0 0.0 0.0 0.0 0.0 0.0 0.0 0.0 0.14504342964592207 -1.95757831936459 -1.524702198648792 -0.36355648409678076 -1.0565731857705887e-05 0.0 1.66642636200409 -20.854368967356415 -17.332035214170737 -2.6435629542881616 -8.154806256121408e-05 0.0 -2.559413735066549 -1.9815708599486292 2.19629937807192 -2.288283964196676 -0.9389641920672815 -0.821106259022848 0.0 0.0 -0.0 -0.0 -0.0 0.0 -0.03349357098340988 -1.8228265047073364 -1.3942539691925049 -0.4265316426753998 0.046789757907390594 -0.02264717034995556 0.14504342964592207 -1.95757831936459 -1.524702198648792 -0.36355648409678076 -1.0565731857705887e-05 0.0 0.1746910744968154 0.45442659065893126 0.3380615619173311 -2.3614282313447155 -0.014833662225081621 0.00037941377922080685 0.0 0.0 0.0 0.0 0.0 0.0 11.013960459580849 -10.117917709839883 -0.42346156678662084 0.2097624795633996 0.3093616856074562 0.01711834643758267 0.17469364096918683 0.4544293391844036 0.3380542239097195 -2.361447703606261 -0.014854963595216687 0.00039488312928024103 0.0 0.0 0.0 0.0 0.0 0.0 768 30.0625 30.375 30.1875 34.4375 36.875 37.1875 0.591348 7 253 253 253 253 253 253 1 -0.05746084079146385 0.09576806426048279 -9.940725326538086 0.0 1.0 0.0 47.824806213378906 47.84361267089844 0.5360020399093628 47.77125930786133 47.6995964050293 47.71392822265625 47.6995964050293 47.64226531982422 47.61359786987305 3840 1
14830.965 -2.5594089999999996 -1.9815459999999998 2.1962889999999997 -2.2882689999999997 -0.9389690000000002 -0.8211310000000003 0.0 0.0 0.0 0.0 0.0 0.0 0.0 0.0 0.0 0.0 0.0 0.0 0.14504048477131648 -1.9577083185236972 -1.5246629337429098 -0.36355208145151985 4.600419222246806e-07 0.0 1.6663925278849747 -20.855753867466234 -17.33158887079166 -2.6435309409135646 3.5506794947666873e-06 0.0 -2.5593894163714808 -1.981558462182516 2.196263138447897 -2.2882358036436976 -0.9389403502093714 -0.8211424986468714 0.0 0.0 -0.0 -0.0 -0.0 0.0 0.0009221499785780907 -1.8381427526474 -1.4322209358215332 -0.4154491424560547 0.04901079088449478 -0.04021751135587692 0.14504048477131648 -1.9577083185236972 -1.5246629337429098 -0.36355208145151985 4.600419222246806e-07 0.0 0.1746790324267401 0.4544358789880616 0.33807134881439704 -2.361423931618652 -0.014903032659021022 0.0004167535698367141 0.0 0.0 0.0 0.0 0.0 0.0 11.044084390975696 -10.134973184930107 -0.6471944485850241 0.20925458815641987 0.30835134771800665 0.018915375456795225 0.17469364096918683 0.4544293391844036 0.3380542239097195 -2.361447703606261 -0.014854963595216687 0.00039488312928024103 0.0 0.0 0.0 0.0 0.0 0.0 768 30.0625 30.375 30.1875 34.4375 36.875 37.1875 0.59724 7 253 253 253 253 253 253 1 -0.09576806426048279 0.07661445438861847 -10.017339706420898 0.0 1.0 0.0 47.774654388427734 47.8122673034668 0.5270481109619141 47.7282600402832 47.65659713745117 47.65659713745117 47.65659713745117 47.584930419921875 47.54193115234375 3840 1
14830.984999999999 -2.5594089999999996 -1.9815459999999998 2.1962889999999997 -2.2882689999999997 -0.9389690000000002 -0.8211310000000003 0.0 0.0 0.0 0.0 0.0 0.0 0.0 0.0 0.0 0.0 0.0 0.0 0.14507396532946595 -1.957610946293519 -1.5247485203176192 -0.36357148875606243 -8.480694850123979e-06 0.0 1.6667771911878977 -20.854716546815908 -17.332561775223777 -2.643672059098979 -6.54554027600165e-05 0.0 -2.5593894163714808 -1.9815708599486292 2.1962764898883265 -2.2882596455016078 -0.9389641920672815 -0.8210948149310511 0.0 0.0 -0.0 -0.0 -0.0 0.0 -0.04642493650317192 -1.853840947151184 -1.3938910961151123 -0.43017682433128357 0.06400609761476517 -0.015219856053590775 0.14507396532946595 -1.957610946293519 -1.5247485203176192 -0.36357148875606243 -8.480694850123979e-06 0.0 0.17468150085707432 0.4544317773961907 0.33807003569677574 -2.361429048134107 -0.014848229887382545 0.0003980530319798256 0.0 0.0 0.0 0.0 0.0 0.0 10.809622335642684 -9.99725266309751 -0.6615302857588059 0.2049652286556952 0.3038237880201693 0.012789995997031539 0.17469364096918683 0.4544293391844036 0.3380542239097195 -2.361447703606261 -0.014854963595216687 0.00039488312928024103 0.0 0.0 0.0 0.0 0.0 0.0 768 30.0625 30.375 30.1875 34.4375 36.875 37.1875 0.593365 7 253 253 253 253 253 253 1 -0.2106897532939911 0.1149216815829277 -10.036493301391602 0.0 1.0 0.0 47.79972839355469 47.826595306396484 0.5382378697395325 47.742591857910156 47.65659713745117 47.670928955078125 47.6995964050293 47.61359786987305 47.584930419921875 3840 1
14831.005 -2.5594089999999996 -1.9815459999999998 2.1962889999999997 -2.2882689999999997 -0.9389690000000002 -0.8211310000000003 0.0 0.0 0.0 0.0 0.0 0.0 0.0 0.0 0.0 0.0 0.0 0.0 0.14510319454484616 -1.9577832823312906 -1.5247593147294398 -0.36356647316164825 1.8511273426713223e-05 0.0 1.6671130101572171 -20.856552467903974 -17.332684480579587 -2.6436355887287144 0.00014287306395991734 0.0 -2.5593774954425257 -1.981546541253561 2.1963117758380335 -2.288271566430563 -0.9389641920672815 -0.8211186567889612 0.0 0.0 -0.0 -0.0 -0.0 0.0 -0.02738695777952671 -1.824682354927063 -1.4175127744674683 -0.43080195784568787 0.05572028458118439 -0.03554645925760269 0.14510319454484616 -1.9577832823312906 -1.5247593147294398 -0.36356647316164825 1.8511273426713223e-05 0.0 0.17467462267927136 0.454432903761252 0.33804264441763593 -2.3614547984582055 -0.014871207360367133 0.00043955047134872197 0.0 0.0 0.0 0.0 0.0 0.0 10.833039725153943 -9.9105204398582 -0.6849378595348519 0.20869645335163528 0.3017268390085688 0.016135780640005842 0.17469364096918683 0.4544293391844036 0.3380542239097195 -2.361447703606261 -0.014854963595216687 0.00039488312928024103 0.0 0.0 0.0 0.0 0.0 0.0 768 30.0625 30.375 30.1875 34.4375 36.875 37.1875 0.596245 7 253 253 253 253 253 253 1 -0.17238251864910126 0.19153612852096558 -9.979032516479492 0.0 1.0 0.0 47.786293029785156 47.81495666503906 0.5158582925796509 47.742591857910156 47.65659713745117 47.68526077270508 47.65659713745117 47.599266052246094 47.5562629699707 3840 1
14831.025 -2.5594089999999996 -1.9815459999999998 2.1962889999999997 -2.2882689999999997 -0.9389690000000002 -0.8211310000000003 0.0 0.0 0.0 0.0 0.0 0.0 0.0 0.0 0.0 0.0 0.0 0.0 0.14512153372665773 -1.9576615838379063 -1.5247809665027552 -0.36356766283754555 4.599053010329121e-07 0.0 1.6673237118491382 -20.855255996003613 -17.332930606870928 -2.6436442393325885 3.5496250298565827e-06 0.0 -2.559401814137594 -1.9815346203246058 2.1962764898883265 -2.288283964196676 -0.9389641920672815 -0.8211186567889612 0.0 0.0 -0.0 -0.0 -0.0 0.0 -0.06154082342982292 -1.8141226768493652 -1.4081733226776123 -0.4163188934326172 0.05591491609811783 -0.026614362373948097 0.14512153372665773 -1.9576615838379063 -1.5247809665027552 -0.36356766283754555 4.599053010329121e-07 0.0 0.174695055865858 0.45443487162159063 0.3380601614986244 -2.3614353562994235 -0.014857007007256695 0.0003924116021888613 0.0 0.0 0.0 0.0 0.0 0.0 10.801137850536474 -10.11481683198655 -0.5876955141199636 0.2075680354204007 0.30681246222999736 0.011838197629731595 0.17469364096918683 0.4544293391844036 0.3380542239097195 -2.361447703606261 -0.014854963595216687 0.00039488312928024103 0.0 0.0 0.0 0.0 0.0 0.0 768 30.0625 30.375 30.1875 34.4375 36.875 37.1875 0.590605 7 253 253 253 253 253 253 1 -0.13407529890537262 0.07661445438861847 -10.036493301391602 0.0 1.0 0.0 47.76569747924805 47.79435729980469 0.49571460485458374 47.71392822265625 47.65659713745117 47.65659713745117 47.65659713745117 47.599266052246094 47.570594787597656 3840 1
14831.045 -2.5594089999999996 -1.9815459999999998 2.1962889999999997 -2.2882689999999997 -0.9389690000000002 -0.8211310000000003 0.0 0.0 0.0 0.0 0.0 0.0 0.0 0.0 0.0 0.0 0.0 0.0 0.1450952098817616 -1.9576944513034502 -1.5247030588608912 -0.3635575946067035 -6.384867706212124e-06 0.0 1.6670212731299812 -20.855606137934945 -17.33204499262217 -2.6435710292449306 -4.927946290549856e-05 0.0 -2.5593774954425257 -1.9815708599486292 2.196263138447897 -2.288283964196676 -0.9389403502093714 -0.8211305777179163 0.0 0.0 -0.0 -0.0 -0.0 0.0 -0.07642634212970734 -1.8233611583709717 -1.4568095207214355 -0.40928182005882263 0.05487971380352974 -0.032972849905490875 0.1450952098817616 -1.9576944513034502 -1.5247030588608912 -0.3635575946067035 -6.384867706212124e-06 0.0 0.17467696978820624 0.45444025829569984 0.3380851110509191 -2.361390563390348 -0.014927638154144092 0.0003686394632435706 0.0 0.0 0.0 0.0 0.0 0.0 11.016552938538451 -10.072523675257553 -0.5697070206435146 0.21201389138818946 0.3072385554026944 0.0224669058418292 0.17469364096918683 0.4544293391844036 0.3380542239097195 -2.361447703606261 -0.014854963595216687 0.00039488312928024103 0.0 0.0 0.0 0.0 0.0 0.0 768 30.0625 30.375 30.1875 34.4375 36.875 37.1875 0.598321 7 253 253 253 253 253 253 1 -0.09576806426048279 0.13407529890537262 -9.959878921508789 0.0 1.0 0.0 47.81495666503906 47.83824157714844 0.5203352570533752 47.742591857910156 47.65659713745117 47.68526077270508 47.65659713745117 47.599266052246094 47.570594787597656 3840 1
14831.064999999999 -2.5594089999999996 -1.9815459999999998 2.1962889999999997 -2.2882689999999997 -0.9389690000000002 -0.8211310000000003 0.0 0.0 0.0 0.0 0.0 0.0 0.0 0.0 0.0 0.0 0.0 0.0 0.14506519440158394 -1.957560423864531 -1.5247270866644638 -0.36355336782569786 -1.0565707503778114e-05 0.0 1.6666764206429823 -20.854178323969435 -17.33231812841092 -2.6435402946488744 -8.154787459357943e-05 0.0 -2.559401814137594 -1.981558462182516 2.19629937807192 -2.2882596455016078 -0.9389403502093714 -0.8211186567889612 0.0 0.0 -0.0 -0.0 -0.0 0.0 -0.05860200151801109 -1.822779893875122 -1.452709436416626 -0.4211202561855316 0.06121315062046051 -0.019192440435290337 0.14506519440158394 -1.957560423864531 -1.5247270866644638 -0.36355336782569786 -1.0565707503778114e-05 0.0 0.17468075246498094 0.4544311636495371 0.3380552362269926 -2.3614308574956566 -0.014855279840271287 0.00043471813819104266 0.0 0.0 0.0 0.0 0.0 0.0 11.176801488211156 -9.975374155531632 -0.49438805705548994 0.20367190011795275 0.31651858435203317 0.01939875934739335 0.17469364096918683 0.4544293391844036 0.3380542239097195 -2.361447703606261 -0.014854963595216687 0.00039488312928024103 0.0 0.0 0.0 0.0 0.0 0.0 768 30.0625 30.375 30.1875 34.4375 36.875 37.1875 0.594073 7 253 253 253 253 253 253 1 -0.05746084079146385 0.1149216815829277 -9.921571731567383 0.0 1.0 0.0 47.79793930053711 47.82301330566406 0.4352887272834778 47.75692367553711 47.670928955078125 47.65659713745117 47.670928955078125 47.61359786987305 47.5562629699707 3840 1
14831.085 -2.5594089999999996 -1.9815459999999998 2.1962889999999997 -2.2882689999999997 -0.9389690000000002 -0.8211310000000003 0.0 0.0 0.0 0.0 0.0 0.0 0.0 0.0 0.0 0.0 0.0 0.0 0.14510000224745523 -1.9575980254586356 -1.524709417994229 -0.3635556869185588 7.218138223135001e-06 0.0 1.667076333359512 -20.85457889926671 -17.332117279999363 -2.643557157690087 5.571078230292231e-05 0.0 -2.5593894163714808 -1.981546541253561 2.19629937807192 -2.288283964196676 -0.9389885107623499 -0.8211787382708948 0.0 0.0 -0.0 -0.0 -0.0 0.0 -0.104589082300663 -1.8272582292556763 -1.3844714164733887 -0.4274950623512268 0.058446042239665985 -0.023588554933667183 0.14510000224745523 -1.9575980254586356 -1.524709417994229 -0.3635556869185588 7.218138223135001e-06 0.0 0.17468777834108698 0.45443006505376415 0.3380488216331453 -2.3614585573588407 -0.014930171981449546 0.00036041574120089596 0.0 0.0 0.0 0.0 0.0 0.0 10.669379711433539 -10.01142965401005 -0.6345098886971607 0.2122909437613042 0.302097282158264 0.017377699977968647 0.17469364096918683 0.4544293391844036 0.3380542239097195 -2.361447703606261 -0.014854963595216687 0.00039488312928024103 0.0 0.0 0.0 0.0 0.0 0.0 768 30.0625 30.375 30.1875 34.4375 36.875 37.1875 0.5958 7 253 253 253 253 253 253 1 -0.019153613597154617 0.1149216815829277 -10.017339706420898 0.0 1.0 0.0 47.79704284667969 47.826595306396484 0.49571460485458374 47.7282600402832 47.65659713745117 47.65659713745117 47.65659713745117 47.599266052246094 47.570594787597656 3840 1
14831.105 -2.5594089999999996 -1.9815459999999998 2.1962889999999997 -2.2882689999999997 -0.9389690000000002 -0.8211310000000003 0.0 0.0 0.0 0.0 0.0 0.0 0.0 0.0 0.0 0.0 0.0 0.0 0.1450669656485969 -1.9577742897241495 -1.5246707725956674 -0.3635541326595941 9.493935794874267e-06 0.0 1.6666967707734444 -20.856456668341092 -17.33167797886283 -2.6435458560585663 7.327576362709808e-05 0.0 -2.5593894163714808 -1.9815827808775843 2.196263138447897 -2.288271566430563 -0.9389641920672815 -0.8211186567889612 0.0 0.0 -0.0 -0.0 -0.0 7.481391375099516e-17 -0.09184739738702774 -1.846932053565979 -1.420165777206421 -0.4171576499938965 0.05045342072844505 -0.014816446229815483 0.1450669656485969 -1.9577742897241495 -1.5246707725956674 -0.3635541326595941 9.493935794874267e-06 0.0 0.17468341917173943 0.45443306828564706 0.33808449758662423 -2.3614084651158826 -0.014891448291474695 0.0003497199564405584 -2.076503240216886e-33 -6.813526256961657e-34 -6.651299441319713e-34 -3.5079394945141395e-19 5.262121652953122e-17 -5.3179001544769165e-17 10.88606474567314 -10.057672400831141 -0.6407534241398594 0.2059471307119613 0.3088948889401969 0.010391060365805949 0.17469364096918683 0.4544293391844036 0.3380542239097195 -2.361447703606261 -0.014854963595216687 0.00039488312928024103 0.0 0.0 0.0 0.0 0.0 0.0 768 30.0625 30.375 30.1875 34.4375 36.875 37.1875 0.594036 7 253 253 253 253 253 253 1 -0.15322890877723694 0.17238251864910126 -9.979032516479492 0.0 1.0 0.0 47.780025482177734 47.81584930419922 0.4979557394981384 47.7282600402832 47.65659713745117 47.65659713745117 47.670928955078125 47.584930419921875 47.54193115234375 3840 1
14831.125 -2.5594089999999996 -1.9815459999999998 2.1962889999999997 -2.2882689999999997 -0.9389690000000002 -0.8211310000000003 0.0 0.0 0.0 0.0 0.0 0.0 0.0 0.0 0.0 0.0 0.0 0.0 0.14512553038292325 -1.957664999712096 -1.5247171175623868 -0.3635577192754435 1.164985316025848e-05 0.0 1.667369630050169 -20.855292385812387 -17.3322048047544 -2.643571935760636 8.991548973002163e-05 0.0 -2.559425179158346 -1.9815708599486292 2.196240250264303 -2.288283964196676 -0.9389765898333948 -0.8211424986468714 0.0 0.0 -0.0 -0.0 -0.0 1.053510762969661e-28 -0.028477376326918602 -1.8485928773880005 -1.4345580339431763 -0.42685773968696594 0.06070246547460556 -0.013553228229284286 0.14512553038292325 -1.957664999712096 -1.5247171175623868 -0.3635577192754435 1.164985316025848e-05 0.0 0.17470897456218548 0.4544299817233699 0.33809341596554865 -2.3614047562062432 -0.014882808584918463 0.00028768091295108307 2.9240797643483334e-45 -9.137749263588542e-47 -1.2564405237434245e-46 -4.889756635329859e-31 7.410019121844993e-29 -7.488505752898102e-29 10.685527621400366 -10.03053710322854 -0.4097638825966552 0.20659231800986336 0.30593983114254064 0.010406119615457815 0.17469364096918683 0.4544293391844036 0.3380542239097195 -2.361447703606261 -0.014854963595216687 0.00039488312928024103 0.0 0.0 0.0 0.0 0.0 0.0 768 30.0625 30.375 30.1875 34.4375 36.875 37.1875 0.598236 7 253 253 253 253 253 253 1 -0.05746084079146385 0.13407529890537262 -9.921571731567383 0.0 1.0 0.0 47.756744384765625 47.785400390625 0.5292839407920837 47.6995964050293 47.6279296875 47.6279296875 47.64226531982422 47.5562629699707 47.51326370239258 3840 1
14831.144999999999 -2.5594089999999996 -1.9815459999999998 2.1962889999999997 -2.2882689999999997 -0.9389690000000002 -0.8211310000000003 0.0 0.0 0.0 0.0 0.0 0.0 0.0 0.0 0.0 0.0 0.0 0.0 0.14507272497411702 -1.9577507276514239 -1.5247157415612906 -0.3635547276369458 1.633886592274649e-05 0.0 1.6667629405537479 -20.85620565812434 -17.33218916307731 -2.643550182374158 0.0001261060642453897 0.0 -2.5593774954425257 -1.9815346203246058 2.1963117758380335 -2.288271566430563 -0.939000431691305 -0.8211186567889612 0.0 0.0 -0.0 -0.0 -0.0 1.4835266582113973e-40 -0.05566715449094772 -1.8748582601547241 -1.4110748767852783 -0.417145699262619 0.05133579671382904 -0.0030860891565680504 0.14507272497411702 -1.9577507276514239 -1.5247157415612906 -0.3635547276369458 1.633886592274649e-05 0.0 0.17468261593242715 0.45442940464708437 0.33803328523278175 -2.3614877676746264 -0.014854528469437571 0.00042199289993326874 8.235227267957542e-57 -5.629549890205351e-58 -6.112082737937238e-58 -7.016705118871132e-43 1.0433715592285106e-40 -1.0545984547998431e-40 10.83970171175971 -10.050224716123118 -0.4933414720192699 0.20459192767446985 0.30833564417130477 0.015992825943972527 0.17469364096918683 0.4544293391844036 0.3380542239097195 -2.361447703606261 -0.014854963595216687 0.00039488312928024103 0.0 0.0 0.0 0.0 0.0 0.0 768 30.0625 30.375 30.1875 34.4375 36.875 37.1875 0.591096 7 253 253 253 253 253 253 1 -0.15322890877723694 0.17238251864910126 -10.036493301391602 0.0 1.0 0.0 47.795249938964844 47.82301330566406 0.5315250754356384 47.7282600402832 47.65659713745117 47.65659713745117 47.670928955078125 47.584930419921875 47.5562629699707 3840 1
14831.164999999999 -2.5594089999999996 -1.9815459999999998 2.1962889999999997 -2.2882689999999997 -0.9389690000000002 -0.8211310000000003 0.0 0.0 0.0 0.0 0.0 0.0 0.0 0.0 0.0 0.0 0.0 0.0 0.14511321358833082 -1.957593942998291 -1.5247456490794558 -0.3635711434589939 -1.0816927282050339e-05 0.0 1.6672281204950357 -20.854535408217856 -17.33252913645602 -2.643669548307455 -8.348683031108765e-05 0.0 -2.5593894163714808 -1.981546541253561 2.1962764898883265 -2.2882596455016078 -0.9389885107623499 -0.8211548964129847 0.0 0.0 -0.0 -0.0 -0.0 0.0 -0.07811225205659866 -1.8144763708114624 -1.417036533355713 -0.4338609278202057 0.056067243218421936 -0.01735905557870865 0.14511321358833082 -1.957593942998291 -1.5247456490794558 -0.3635711434589939 -1.0816927282050339e-05 0.0 0.1746892559830206 0.454431003776659 0.33805729536821416 -2.3614596463828366 -0.014901387672521598 0.00037326790724835597 0.0 0.0 0.0 0.0 0.0 0.0 11.074486120246162 -9.869872745923676 -0.2834695960600415 0.19858734235847614 0.30974806209784456 0.019335529763920833 0.17469364096918683 0.4544293391844036 0.3380542239097195 -2.361447703606261 -0.014854963595216687 0.00039488312928024103 0.0 0.0 0.0 0.0 0.0 0.0 768 30.0625 30.375 30.1875 34.4375 36.875 37.1875 0.598176 7 253 253 253 253 253 253 1 -0.13407529890537262 0.15322890877723694 -9.998186111450195 0.0 1.0 0.0 47.77375411987305 47.80420684814453 0.5225711464881897 47.71392822265625 47.65659713745117 47.65659713745117 47.64226531982422 47.570594787597656 47.54193115234375 3840 1
14831.185 -2.5594089999999996 -1.9815459999999998 2.1962889999999997 -2.2882689999999997 -0.9389690000000002 -0.8211310000000003 0.0 0.0 0.0 0.0 0.0 0.0 0.0 0.0 0.0 0.0 0.0 0.0 0.1450328146167491 -1.9576487345570863 -1.524702218077756 -0.3635621402684017 7.173427766418124e-07 0.0 1.6663044042946615 -20.85511911073035 -17.33203543502927 -2.6436040825485954 5.536569961763448e-06 0.0 -2.5593655745135706 -1.981558462182516 2.19629937807192 -2.2882596455016078 -0.9389641920672815 -0.821106259022848 0.0 0.0 -0.0 -0.0 -0.0 0.0 -0.07167308777570724 -1.8137518167495728 -1.4161007404327393 -0.4237750768661499 0.056719452142715454 -0.0305191483348608 0.1450328146167491 -1.9576487345570863 -1.524702218077756 -0.3635621402684017 7.173427766418124e-07 0.0 0.17466839384653582 0.4544344353737605 0.33805218325908737 -2.361448085328049 -0.01487562369099643 0.000439009856076858 0.0 0.0 0.0 0.0 0.0 0.0 10.739595479200784 -9.834838304445782 -0.5450367636155544 0.20374564002003584 0.30184757234294657 0.014557760225360011 0.17469364096918683 0.4544293391844036 0.3380542239097195 -2.361447703606261 -0.014854963595216687 0.00039488312928024103 0.0 0.0 0.0 0.0 0.0 0.0 768 30.0625 30.375 30.1875 34.4375 36.875 37.1875 0.602124 7 253 253 253 253 253 253 1 -0.17238251864910126 0.15322890877723694 -9.959878921508789 0.0 1.0 0.0 47.780025482177734 47.78898239135742 0.48452481627464294 47.7282600402832 47.65659713745117 47.65659713745117 47.65659713745117 47.584930419921875 47.570594787597656 3840 1
14831.205 -2.5594089999999996 -1.9815459999999998 2.1962889999999997 -2.2882689999999997 -0.9389690000000002 -0.8211310000000003 0.0 0.0 0.0 0.0 0.0 0.0 0.0 0.0 0.0 0.0 0.0 0.0 0.14513704745057554 -1.9576879525370197 -1.5247116352131103 -0.36355413260993835 4.8049084064695355e-06 0.0 1.6675019514189866 -20.855536905622944 -17.33214248421023 -2.6435458556974996 3.7085076226490426e-05 0.0 -2.5593894163714808 -1.981546541253561 2.196240250264303 -2.2882358036436976 -0.9389527479754847 -0.8211424986468714 0.0 0.0 -0.0 -0.0 -0.0 0.0 -0.12623299658298492 -1.814747929573059 -1.4100937843322754 -0.42569980025291443 0.05195990577340126 -0.032538071274757385 0.14513704745057554 -1.9576879525370197 -1.5247116352131103 -0.36355413260993835 4.8049084064695355e-06 0.0 0.17468700495849468 0.4544381411605045 0.3380779873247429 -2.361426983698272 -0.01490342335796189 0.00039585347988690587 0.0 0.0 0.0 0.0 0.0 0.0 10.907673441765958 -10.059306552901589 -0.5962552376790242 0.21010456098731028 0.30380770558915415 0.01586369454563824 0.17469364096918683 0.4544293391844036 0.3380542239097195 -2.361447703606261 -0.014854963595216687 0.00039488312928024103 0.0 0.0 0.0 0.0 0.0 0.0 768 30.0625 30.375 30.1875 34.4375 36.875 37.1875 0.615732 7 253 253 253 253 253 253 1 -0.09576806426048279 0.09576806426048279 -9.959878921508789 0.0 1.0 0.0 47.76122283935547 47.81047821044922 0.5203352570533752 47.7282600402832 47.65659713745117 47.670928955078125 47.670928955078125 47.61359786987305 47.5562629699707 3840 1
14831.224999999999 -2.5594089999999996 -1.9815459999999998 2.1962889999999997 -2.2882689999999997 -0.9389690000000002 -0.8211310000000003 0.0 0.0 0.0 0.0 0.0 0.0 0.0 0.0 0.0 0.0 0.0 0.0 0.14503971969545357 -1.9576157955362825 -1.524671348971552 -0.36355590789925707 7.174347413033936e-07 0.0 1.6663837378102362 -20.85476820651034 -17.331684530809262 -2.6435587645281253 5.537279760202122e-06 0.0 -2.559413735066549 -1.981546541253561 2.1962764898883265 -2.2883078060545863 -0.939000431691305 -0.8211548964129847 0.0 0.0 -0.0 -0.0 -0.0 0.0 -0.06178142502903938 -1.8461514711380005 -1.4137886762619019 -0.4289570450782776 0.06111165136098862 -0.019376058131456375 0.14503971969545357 -1.9576157955362825 -1.524671348971552 -0.36355590789925707 7.174347413033936e-07 0.0 0.1747075337450339 0.45442871928637174 0.3380646237908368 -2.3614419363335712 -0.01488836902999161 0.00030439360211334873 0.0 0.0 0.0 0.0 0.0 0.0 10.794664260810892 -9.996886782940855 -0.40667029314947367 0.20328318145652177 0.3061524043644355 0.01567725767743186 0.17469364096918683 0.4544293391844036 0.3380542239097195 -2.361447703606261 -0.014854963595216687 0.00039488312928024103 0.0 0.0 0.0 0.0 0.0 0.0 768 30.0625 30.375 30.1875 34.4375 36.875 37.1875 0.595536 7 253 253 253 253 253 253 1 -0.13407529890537262 0.13407529890537262 -9.940725326538086 0.0 1.0 0.0 47.76659393310547 47.796146392822266 0.5248122811317444 47.71392822265625 47.65659713745117 47.65659713745117 47.65659713745117 47.61359786987305 47.5562629699707 3840 1
14831.244999999999 -2.5594089999999996 -1.9815459999999998 2.1962889999999997 -2.2882689999999997 -0.9389690000000002 -0.8211310000000003 0.0 0.0 0.0 0.0 0.0 0.0 0.0 0.0 0.0 0.0 0.0 0.0 0.14508750422958458 -1.957665117043117 -1.5247025611468972 -0.3635518322211406 9.477399266338076e-06 0.0 1.6669327417021491 -20.85529363575696 -17.3320393348639 -2.643529128660926 7.314813197017399e-05 0.0 -2.559425179158346 -1.981558462182516 2.1962764898883265 -2.288271566430563 -0.9389403502093714 -0.8211305777179163 0.0 0.0 -0.0 -0.0 -0.0 0.0 -0.07364161312580109 -1.8412381410598755 -1.4107564687728882 -0.43320417404174805 0.05653701722621918 -0.019907303154468536 0.14508750422958458 -1.957665117043117 -1.5247025611468972 -0.3635518322211406 9.477399266338076e-06 0.0 0.17469673931551263 0.45443064914278025 0.3380703727710225 -2.3614118418697574 -0.014855882932329175 0.00038319309705506986 0.0 0.0 0.0 0.0 0.0 0.0 10.97778536640131 -10.138505212578506 -0.5952366703698644 0.2048479983123334 0.3063924845438394 0.016803918430434772 0.17469364096918683 0.4544293391844036 0.3380542239097195 -2.361447703606261 -0.014854963595216687 0.00039488312928024103 0.0 0.0 0.0 0.0 0.0 0.0 768 30.0625 30.375 30.1875 34.4375 36.875 37.1875 0.602796 7 253 253 253 253 253 253 1 -0.07661445438861847 0.13407529890537262 -10.036493301391602 0.0 1.0 0.0 47.80509948730469 47.805999755859375 0.4643864035606384 47.71392822265625 47.65659713745117 47.65659713745117 47.670928955078125 47.599266052246094 47.5562629699707 3840 1
14831.265 -2.5594089999999996 -1.9815459999999998 2.1962889999999997 -2.2882689999999997 -0.9389690000000002 -0.8211310000000003 0.0 0.0 0.0 0.0 0.0 0.0 0.0 0.0 0.0 0.0 0.0 0.0 0.14502412649907565 -1.9577023742244164 -1.5246173060199009 -0.36354547455392433 4.5990651993342164e-07 0.0 1.6662045851690204 -20.855690541974106 -17.33107019815996 -2.6434828995486312 3.549634437531919e-06 0.0 -2.5593417326556605 -1.9815827808775843 2.196263138447897 -2.2882596455016078 -0.9389641920672815 -0.8211305777179163 0.0 0.0 -0.0 -0.0 -0.0 0.0 -0.13089527189731598 -1.8528186082839966 -1.4334778785705566 -0.424336701631546 0.06989390403032303 -0.017599469050765038 0.14502412649907565 -1.9577023742244164 -1.5246173060199009 -0.36354547455392433 4.5990651993342164e-07 0.0 0.17466046994633105 0.45444053264469725 0.33808230578518506 -2.3614146048965075 -0.014956972605312164 0.00037881550241441287 0.0 0.0 0.0 0.0 0.0 0.0 10.810939974333118 -10.285784583116714 -0.6426167547629937 0.21288836422126087 0.30739389145412566 0.013008958552138461 0.17469364096918683 0.4544293391844036 0.3380542239097195 -2.361447703606261 -0.014854963595216687 0.00039488312928024103 0.0 0.0 0.0 0.0 0.0 0.0 768 30.0625 30.375 30.1875 34.4375 36.875 37.1875 0.59238 7 253 253 253 253 253 253 1 -0.07661445438861847 0.15322890877723694 -9.959878921508789 0.0 1.0 0.0 47.777339935302734 47.81584930419922 0.5248122811317444 47.7282600402832 47.65659713745117 47.65659713745117 47.64226531982422 47.570594787597656 47.5562629699707 3840 1
14831.285 -2.5594089999999996 -1.9815459999999998 2.1962889999999997 -2.2882689999999997 -0.9389690000000002 -0.8211310000000003 0.0 0.0 0.0 0.0 0.0 0.0 0.0 0.0 0.0 0.0 0.0 0.0 0.14505252665915674 -1.957616080124029 -1.5247116724460628 -0.36355590796497245 -1.2988953010996966e-05 0.0 1.666530878993979 -20.854771238265347 -17.332142907455403 -2.643558765005968 -0.00010025088342299056 0.0 -2.5593774954425257 -1.981546541253561 2.19629937807192 -2.288271566430563 -0.939000431691305 -0.8211186567889612 0.0 0.0 -0.0 -0.0 -0.0 0.0 -0.03655216470360756 -1.8542200326919556 -1.4129400253295898 -0.4367130994796753 0.051235541701316833 -0.022080836817622185 0.14505252665915674 -1.957616080124029 -1.5247116724460628 -0.36355590796497245 -1.2988953010996966e-05 0.0 0.17468308469036667 0.4544297188626857 0.33804501584014246 -2.361474467035055 -0.014864358784801485 0.00039791219014371685 0.0 0.0 0.0 0.0 0.0 0.0 11.057360104863458 -10.043144623026647 -0.649411051673427 0.20643432507508325 0.3089025161541523 0.018021301561979203 0.17469364096918683 0.4544293391844036 0.3380542239097195 -2.361447703606261 -0.014854963595216687 0.00039488312928024103 0.0 0.0 0.0 0.0 0.0 0.0 768 30.0625 30.375 30.1875 34.4375 36.8125 37.1875 0.604896 7 253 253 253 253 253 253 1 0.0 0.1149216815829277 -9.940725326538086 0.0 1.0 0.0 47.786293029785156 47.80778884887695 0.48452481627464294 47.71392822265625 47.64226531982422 47.670928955078125 47.6995964050293 47.61359786987305 47.570594787597656 3840 1
14831.304999999998 -2.5594089999999996 -1.9815459999999998 2.1962889999999997 -2.2882689999999997 -0.9389690000000002 -0.8211310000000003 0.0 0.0 0.0 0.0 0.0 0.0 0.0 0.0 0.0 0.0 0.0 0.0 0.1450459603907299 -1.9575759776207455 -1.5247686568694687 -0.3635696677343795 -3.540789160245163e-06 0.0 1.6664554381220054 -20.854344020415763 -17.332790677252024 -2.643658817730249 -2.732839521619618e-05 0.0 -2.559413735066549 -1.981558462182516 2.1962879339801233 -2.288271566430563 -0.9389527479754847 -0.8211424986468714 0.0 0.0 -0.0 -0.0 -0.0 0.0 -0.0858183205127716 -1.8359755277633667 -1.4537910223007202 -0.4359618127346039 0.0643526017665863 -0.01867511495947838 0.1450459603907299 -1.9575759776207455 -1.5247686568694687 -0.3635696677343795 -3.540789160245163e-06 0.0 0.1746916314210826 0.45442970674164085 0.33806231279383897 -2.361426974561714 -0.014874778751721184 0.0003842469569173846 0.0 0.0 0.0 0.0 0.0 0.0 10.81575797388605 -10.203500600592255 -0.6131051695369347 0.21084191006945935 0.30650531631084577 0.016427606940618455 0.17469364096918683 0.4544293391844036 0.3380542239097195 -2.361447703606261 -0.014854963595216687 0.00039488312928024103 0.0 0.0 0.0 0.0 0.0 0.0 768 30.0625 30.375 30.1875 34.4375 36.8125 37.1875 0.595236 7 253 253 253 253 253 253 1 -0.09576806426048279 0.09576806426048279 -9.90241813659668 0.0 1.0 0.0 47.78181838989258 47.80152130126953 0.46214526891708374 47.7282600402832 47.64226531982422 47.670928955078125 47.64226531982422 47.570594787597656 47.5562629699707 3840 1
14831.324999999999 -2.5594089999999996 -1.9815459999999998 2.1962889999999997 -2.2882689999999997 -0.9389690000000002 -0.8211310000000003 0.0 0.0 0.0 0.0 0.0 0.0 0.0 0.0 0.0 0.0 0.0 0.0 0.1450143620736032 -1.9576485615378936 -1.5246619992047845 -0.36354045073201674 7.172206560285505e-07 0.0 1.666092400176864 -20.85511726753151 -17.331578247439957 -2.643446369353009 5.535627414711866e-06 0.0 -2.559413735066549 -1.981546541253561 2.196324173604147 -2.2882358036436976 -0.9389885107623499 -0.8211668173419397 0.0 0.0 -0.0 -0.0 -0.0 0.0 -0.016728807240724564 -1.8679919242858887 -1.424224853515625 -0.43408092856407166 0.059305816888809204 -0.029816998168826103 0.1450143620736032 -1.9576485615378936 -1.5246619992047845 -0.36354045073201674 7.172206560285505e-07 0.0 0.1746892270228017 0.4544193952324817 0.33802594378113504 -2.361498974129833 -0.01485774889754171 0.000426359209334188 0.0 0.0 0.0 0.0 0.0 0.0 11.23950560853852 -10.058124255829298 -0.48855501613415786 0.20800613537097642 0.30930166839221496 0.01764708195934231 0.17469364096918683 0.4544293391844036 0.3380542239097195 -2.361447703606261 -0.014854963595216687 0.00039488312928024103 0.0 0.0 0.0 0.0 0.0 0.0 768 30.0625 30.375 30.1875 34.4375 36.8125 37.1875 0.598405 7 253 253 253 253 253 253 1 -0.17238251864910126 0.09576806426048279 -10.093954086303711 0.0 1.0 0.0 47.77196502685547 47.80331039428711 0.5583816170692444 47.71392822265625 47.64226531982422 47.65659713745117 47.6279296875 47.584930419921875 47.5562629699707 3840 1
14831.345 -2.5594089999999996 -1.9815459999999998 2.1962889999999997 -2.2882689999999997 -0.9389690000000002 -0.8211310000000003 0.0 0.0 0.0 0.0 0.0 0.0 0.0 0.0 0.0 0.0 0.0 0.0 0.14510525455991086 -1.9576722588078408 -1.524682260959582 -0.36354525367429524 1.164963647578913e-05 0.0 1.66713667798842 -20.855369718024097 -17.33180857271132 -2.643481293445508 8.99138173235191e-05 0.0 -2.559437100087301 -1.981558462182516 2.19629937807192 -2.2882596455016078 -0.9389885107623499 -0.8211668173419397 0.0 0.0 -0.0 -0.0 -0.0 0.0 -0.07272230088710785 -1.8225489854812622 -1.4578461647033691 -0.44007188081741333 0.06150497496128082 -0.023144733160734177 0.14510525455991086 -1.9576722588078408 -1.524682260959582 -0.36354525367429524 1.164963647578913e-05 0.0 0.17470508897018316 0.4544188210422722 0.33804906933600226 -2.361465903906402 -0.014854711399530757 0.0003551901499732826 0.0 0.0 0.0 0.0 0.0 0.0 10.778294317851504 -10.076891581752022 -0.5203700064012118 0.20763084835693676 0.3026392864576135 0.013781811839323754 0.17469364096918683 0.4544293391844036 0.3380542239097195 -2.361447703606261 -0.014854963595216687 0.00039488312928024103 0.0 0.0 0.0 0.0 0.0 0.0 768 30.0625 30.375 30.1875 34.4375 36.8125 37.1875 0.595129 7 253 253 253 253 253 253 1 -0.1149216815829277 0.2106897532939911 -10.036493301391602 0.0 1.0 0.0 47.84182357788086 47.84450912475586 0.5046685338020325 47.75692367553711 47.68526077270508 47.71392822265625 47.6995964050293 47.64226531982422 47.599266052246094 3840 1
14831.365 -2.5594089999999996 -1.9815459999999998 2.1962889999999997 -2.2882689999999997 -0.9389690000000002 -0.8211310000000003 0.0 0.0 0.0 0.0 0.0 0.0 0.0 0.0 0.0 0.0 0.0 0.0 0.14507179900128994 -1.9577348812769892 -1.5246338406070694 -0.3635384248648231 2.9567617838422914e-07 0.0 1.6667523019089414 -20.856036844373193 -17.33125815489493 -2.6434316384715704 2.2820775519825804e-06 0.0 -2.5593655745135706 -1.9815708599486292 2.1962879339801233 -2.288295408288473 -0.9389403502093714 -0.8211424986468714 0.0 0.0 -0.0 -0.0 -0.0 0.0 -0.058555956929922104 -1.8728903532028198 -1.4363101720809937 -0.43643131852149963 0.05140227824449539 -0.017793312668800354 0.14507179900128994 -1.9577348812769892 -1.5246338406070694 -0.3635384248648231 2.9567617838422914e-07 0.0 0.17466835199038805 0.45444024297747254 0.3380731913756684 -2.361397627177539 -0.014950410319002221 0.00038192267220507446 0.0 0.0 0.0 0.0 0.0 0.0 11.263218195885628 -9.956670378083885 -0.42786897106024036 0.20302179089106545 0.3120897860616312 0.024177733063348916 0.17469364096918683 0.4544293391844036 0.3380542239097195 -2.361447703606261 -0.014854963595216687 0.00039488312928024103 0.0 0.0 0.0 0.0 0.0 0.0 768 30.0625 30.375 30.1875 34.4375 36.8125 37.1875 0.599485 7 253 253 253 253 253 253 1 -0.13407529890537262 0.13407529890537262 -10.017339706420898 0.0 1.0 0.0 47.775550842285156 47.80420684814453 0.5248122811317444 47.71392822265625 47.64226531982422 47.65659713745117 47.64226531982422 47.61359786987305 47.570594787597656 3840 1
14831.385 -2.5594089999999996 -1.9815459999999998 2.1962889999999997 -2.2882689999999997 -0.9389690000000002 -0.8211310000000003 0.0 0.0 0.0 0.0 0.0 0.0 0.0 0.0 0.0 0.0 0.0 0.0 0.14508858604938557 -1.9576685275880232 -1.5246387070160863 -0.36354188782026253 1.164950769832752e-05 0.0 1.666945170896906 -20.8553299687921 -17.331313473745073 -2.6434568189899013 8.991282339781314e-05 0.0 -2.559401814137594 -1.981546541253561 2.196240250264303 -2.2882596455016078 -0.9389527479754847 -0.8211186567889612 0.0 0.0 -0.0 -0.0 -0.0 0.0 -0.08424033224582672 -1.87509024143219 -1.4488571882247925 -0.43451592326164246 0.0561126247048378 -0.020507683977484703 0.14508858604938557 -1.9576685275880232 -1.5246387070160863 -0.36354188782026253 1.164950769832752e-05 0.0 0.17469519909076406 0.4544377046567949 0.33808237081143033 -2.3614140916342374 -0.014870337735082024 0.0003779385169999747 0.0 0.0 0.0 0.0 0.0 0.0 10.711605545943371 -10.121254190199132 -0.5072803870456477 0.20505170363518305 0.3036000479533216 0.013943277633512996 0.17469364096918683 0.4544293391844036 0.3380542239097195 -2.361447703606261 -0.014854963595216687 0.00039488312928024103 0.0 0.0 0.0 0.0 0.0 0.0 768 30.0625 30.375 30.1875 34.4375 36.8125 37.1875 0.597661 7 253 253 253 253 253 253 1 -0.038307227194309235 0.07661445438861847 -10.017339706420898 0.0 1.0 0.0 47.79256820678711 47.833763122558594 0.5382378697395325 47.71392822265625 47.65659713745117 47.65659713745117 47.670928955078125 47.599266052246094 47.570594787597656 3840 1
14831.404999999999 -2.5594089999999996 -1.9815459999999998 2.1962889999999997 -2.2882689999999997 -0.9389690000000002 -0.8211310000000003 0.0 0.0 0.0 0.0 0.0 0.0 0.0 0.0 0.0 0.0 0.0 0.0 0.14508542798387622 -1.9576459643604995 -1.5247543443768856 -0.36356204415108306 -6.307967836250574e-06 0.0 1.6669088873945748 -20.855089599419788 -17.33262798015244 -2.6436033836415644 -4.868593701528774e-05 0.0 -2.559401814137594 -1.981558462182516 2.1962764898883265 -2.2882477245726527 -0.9389403502093714 -0.8211305777179163 0.0 0.0 -0.0 -0.0 -0.0 0.0 -0.07178983837366104 -1.8533035516738892 -1.4499835968017578 -0.4210658371448517 0.06367780268192291 -0.0022550984285771847 0.14508542798387622 -1.9576459643604995 -1.5247543443768856 -0.36356204415108306 -6.307967836250574e-06 0.0 0.1746835613445907 0.45443300154335464 0.33806598934397886 -2.361424832631956 -0.014873767085535117 0.00041800572009056546 0.0 0.0 0.0 0.0 0.0 0.0 10.85486082386917 -10.124775257146602 -0.5070296661838194 0.20574352573852775 0.30993036358672854 0.012594235058530356 0.17469364096918683 0.4544293391844036 0.3380542239097195 -2.361447703606261 -0.014854963595216687 0.00039488312928024103 0.0 0.0 0.0 0.0 0.0 0.0 768 30.0625 30.375 30.1875 34.4375 36.8125 37.1875 0.605989 7 253 253 253 253 253 253 1 -0.15322890877723694 0.1149216815829277 -9.921571731567383 0.0 1.0 0.0 47.79256820678711 47.82301330566406 0.48676595091819763 47.71392822265625 47.670928955078125 47.670928955078125 47.68526077270508 47.61359786987305 47.570594787597656 3840 1
14831.425 -2.5594089999999996 -1.9815459999999998 2.1962889999999997 -2.2882689999999997 -0.9389690000000002 -0.8211310000000003 0.0 0.0 0.0 0.0 0.0 0.0 0.0 0.0 0.0 0.0 0.0 0.0 0.1450170195876203 -1.9576945466431486 -1.524745151295429 -0.3635653814399446 -1.7497813458519557e-05 0.0 1.6661229327658023 -20.855607153602737 -17.332523477901656 -2.643627650388516 -0.00013505101263374563 0.0 -2.559413735066549 -1.981546541253561 2.1962879339801233 -2.288271566430563 -0.9389765898333948 -0.8211668173419397 0.0 0.0 -0.0 -0.0 -0.0 0.0 -0.07726063579320908 -1.8413853645324707 -1.4125738143920898 -0.44033679366111755 0.07293128967285156 -0.017322994768619537 0.1450170195876203 -1.9576945466431486 -1.524745151295429 -0.3635653814399446 -1.7497813458519557e-05 0.0 0.17469748778871416 0.45442779812813633 0.3380545410702485 -2.36145071251679 -0.014890872353643916 0.00036493066570099874 0.0 0.0 0.0 0.0 0.0 0.0 10.864876486357426 -10.224111802263497 -0.5288067627542521 0.21090306205375592 0.3065167364367625 0.017201890522619834 0.17469364096918683 0.4544293391844036 0.3380542239097195 -2.361447703606261 -0.014854963595216687 0.00039488312928024103 0.0 0.0 0.0 0.0 0.0 0.0 768 30.0625 30.375 30.1875 34.4375 36.8125 37.1875 0.596808 7 253 253 253 253 253 253 1 -0.05746084079146385 0.038307227194309235 -9.90241813659668 0.0 1.0 0.0 47.775550842285156 47.79704284667969 0.48452481627464294 47.742591857910156 47.65659713745117 47.65659713745117 47.64226531982422 47.584930419921875 47.5562629699707 3840 1
14831.445 -2.5594089999999996 -1.9815459999999998 2.1962889999999997 -2.2882689999999997 -0.9389690000000002 -0.8211310000000003 0.0 0.0 0.0 0.0 0.0 0.0 0.0 0.0 0.0 0.0 0.0 0.0 0.1450562574571554 -1.9575968055246002 -1.5247611820717089 -0.36356296587113834 -1.5074544742384093e-05 0.0 1.6665737427083258 -20.854565903130496 -17.332705707571975 -2.643610085832555 -0.00011634782467408498 0.0 -2.5593894163714808 -1.9815226993956507 2.1962516943561 -2.288271566430563 -0.9389885107623499 -0.8211186567889612 0.0 0.0 -0.0 -0.0 -0.0 0.0 -0.041555214673280716 -1.8025012016296387 -1.4037532806396484 -0.44566670060157776 0.05533397197723389 -0.010510999709367752 0.1450562574571554 -1.9575968055246002 -1.5247611820717089 -0.36356296587113834 -1.5074544742384093e-05 0.0 0.17469845899929665 0.4544370963578847 0.3380640728813689 -2.361452818662318 -0.014863858721520773 0.0003781866450019848 0.0 0.0 0.0 0.0 0.0 0.0 10.814351694331814 -10.121536312135039 -0.669568158305041 0.21182090928562708 0.30108611789299294 0.014532016663043573 0.17469364096918683 0.4544293391844036 0.3380542239097195 -2.361447703606261 -0.014854963595216687 0.00039488312928024103 0.0 0.0 0.0 0.0 0.0 0.0 768 30.0625 30.375 30.1875 34.4375 36.8125 37.1875 0.602508 7 253 253 253 253 253 253 1 -0.09576806426048279 0.1149216815829277 -10.055646896362305 0.0 1.0 0.0 47.81316375732422 47.84809112548828 0.5785199999809265 47.742591857910156 47.670928955078125 47.68526077270508 47.68526077270508 47.599266052246094 47.570594787597656 3840 1
14831.465 -2.5594089999999996 -1.9815459999999998 2.1962889999999997 -2.2882689999999997 -0.9389690000000002 -0.8211310000000003 0.0 0.0 0.0 0.0 0.0 0.0 0.0 0.0 0.0 0.0 0.0 0.0 0.1450648574964704 -1.9575762337649685 -1.5247419030580232 -0.36355635936867897 -1.368022821334023e-06 0.0 1.6666725498881054 -20.85434674915774 -17.332486553599225 -2.6435620473408132 -1.0558625954334806e-05 0.0 -2.5593894163714808 -1.9815346203246058 2.19629937807192 -2.2882596455016078 -0.9389527479754847 -0.8211424986468714 0.0 0.0 -0.0 -0.0 -0.0 0.0 -0.058134667575359344 -1.8018848896026611 -1.391661286354065 -0.4472106397151947 0.06506147235631943 -0.019853796809911728 0.1450648574964704 -1.9575762337649685 -1.5247419030580232 -0.36355635936867897 -1.368022821334023e-06 0.0 0.1746807485093811 0.45443403874784083 0.33804421108546057 -2.361452675856959 -0.014884382832189165 0.0004427298136109185 0.0 0.0 0.0 0.0 0.0 0.0 10.8905939025482 -10.128304617886903 -0.49420912188828225 0.20546004320851247 0.3093048350490426 0.01627714872017655 0.17469364096918683 0.4544293391844036 0.3380542239097195 -2.361447703606261 -0.014854963595216687 0.00039488312928024103 0.0 0.0 0.0 0.0 0.0 0.0 768 30.0625 30.375 30.1875 34.4375 36.8125 37.1875 0.598416 7 253 253 253 253 253 253 1 -0.05746084079146385 0.1149216815829277 -10.017339706420898 0.0 1.0 0.0 47.780921936035156 47.80062484741211 0.5337609052658081 47.6995964050293 47.64226531982422 47.64226531982422 47.64226531982422 47.570594787597656 47.5275993347168 3840 1
14831.484999999999 -2.5594089999999996 -1.9815459999999998 2.1962889999999997 -2.2882689999999997 -0.9389690000000002 -0.8211310000000003 0.0 0.0 0.0 0.0 0.0 0.0 0.0 0.0 0.0 0.0 0.0 0.0 0.14509663009782167 -1.9577081351363594 -1.5247158827907186 -0.36355746996644056 7.321519869335347e-06 0.0 1.667037590211617 -20.85575191381403 -17.332190768501253 -2.643570122936293 5.6508698913486156e-05 0.0 -2.559401814137594 -1.981558462182516 2.196263138447897 -2.288283964196676 -0.9389641920672815 -0.8211186567889612 0.0 0.0 -0.0 -0.0 -0.0 0.0 -0.060089293867349625 -1.8614802360534668 -1.4344115257263184 -0.4352458417415619 0.06444693356752396 -0.007895049639046192 0.14509663009782167 -1.9577081351363594 -1.5247158827907186 -0.36355746996644056 7.321519869335347e-06 0.0 0.17469394774354377 0.4544341479905227 0.33807715055927834 -2.36141501374014 -0.014872036890174615 0.0003555810480403774 0.0 0.0 0.0 0.0 0.0 0.0 10.90110302281919 -10.138801747338043 -0.397671704720846 0.20740169469286532 0.310269816532169 0.016108371195419247 0.17469364096918683 0.4544293391844036 0.3380542239097195 -2.361447703606261 -0.014854963595216687 0.00039488312928024103 0.0 0.0 0.0 0.0 0.0 0.0 768 30.0625 30.375 30.1875 34.4375 36.8125 37.1875 0.607068 7 253 253 253 253 253 253 1 -0.15322890877723694 0.15322890877723694 -9.940725326538086 0.0 1.0 0.0 47.786293029785156 47.80957794189453 0.5360020399093628 47.7282600402832 47.65659713745117 47.65659713745117 47.670928955078125 47.570594787597656 47.570594787597656 3840 1
14831.505 -2.5594089999999996 -1.9815459999999998 2.1962889999999997 -2.2882689999999997 -0.9389690000000002 -0.8211310000000003 0.0 0.0 0.0 0.0 0.0 0.0 0.0 0.0 0.0 0.0 0.0 0.0 0.1450113851212557 -1.9576485613802106 -1.52466199905701 -0.3635404505009987 -8.48048690850863e-06 0.0 1.6660581975116182 -20.85511726585169 -17.331578245760134 -2.6434463676731856 -6.545379783230436e-05 0.0 -2.5593774954425257 -1.981558462182516 2.1962764898883265 -2.2882596455016078 -0.9389289061175745 -0.8211548964129847 0.0 0.0 -0.0 -0.0 -0.0 0.0 -0.07411418110132217 -1.8264285326004028 -1.3979741334915161 -0.4325436055660248 0.0715893879532814 -0.016334548592567444 0.1450113851212557 -1.9576485613802106 -1.52466199905701 -0.3635404505009987 -8.48048690850863e-06 0.0 0.17467181736846632 0.4544395821315402 0.3380696464895613 -2.3614095365761933 -0.014939792368019462 0.00041554300021847437 0.0 0.0 0.0 0.0 0.0 0.0 10.74973016126953 -10.110838674169909 -0.5680092722620325 0.20516742809918137 0.3028551808730945 0.013533760019173918 0.17469364096918683 0.4544293391844036 0.3380542239097195 -2.361447703606261 -0.014854963595216687 0.00039488312928024103 0.0 0.0 0.0 0.0 0.0 0.0 768 30.0625 30.375 30.1875 34.4375 36.8125 37.1875 0.601248 7 253 253 253 253 253 253 1 -0.13407529890537262 0.15322890877723694 -9.883264541625977 0.0 1.0 0.0 47.785400390625 47.824806213378906 0.5427148342132568 47.742591857910156 47.65659713745117 47.670928955078125 47.670928955078125 47.584930419921875 47.5562629699707 3840 1
14831.525 -2.5594089999999996 -1.9815459999999998 2.1962889999999997 -2.2882689999999997 -0.9389690000000002 -0.8211310000000003 0.0 0.0 0.0 0.0 0.0 0.0 0.0 0.0 0.0 0.0 0.0 0.0 0.14509307690322695 -1.9576317730946726 -1.5247410449016348 -0.36356478615483295 7.218011533731514e-06 0.0 1.6669967670102046 -20.854938417783405 -17.332476798516062 -2.6436233218350798 5.570980449319361e-05 0.0 -2.559413735066549 -1.981546541253561 2.19629937807192 -2.2883078060545863 -0.9389527479754847 -0.821106259022848 0.0 0.0 -0.0 -0.0 -0.0 0.0 -0.05707592889666557 -1.8442553281784058 -1.4299601316452026 -0.4438488781452179 0.08519800752401352 -0.007690480910241604 0.14509307690322695 -1.9576317730946726 -1.5247410449016348 -0.36356478615483295 7.218011533731514e-06 0.0 0.17469522493099504 0.4544321338889723 0.33805778438952644 -2.3614200183562515 -0.014837293838398246 0.00038930019159991977 0.0 0.0 0.0 0.0 0.0 0.0 11.049997301024707 -10.27217680390847 -0.6562435312945274 0.21197774867329147 0.30962603458262244 0.021345229313600583 0.17469364096918683 0.4544293391844036 0.3380542239097195 -2.361447703606261 -0.014854963595216687 0.00039488312928024103 0.0 0.0 0.0 0.0 0.0 0.0 768 30.0625 30.375 30.1875 34.4375 36.875 37.1875 0.595932 7 253 253 253 253 253 253 1 -0.17238251864910126 0.1149216815829277 -9.959878921508789 0.0 1.0 0.0 47.75226593017578 47.764801025390625 0.5315250754356384 47.68526077270508 47.6279296875 47.6279296875 47.61359786987305 47.5562629699707 47.498931884765625 3840 1
14831.545 -2.5594089999999996 -1.9815459999999998 2.1962889999999997 -2.2882689999999997 -0.9389690000000002 -0.8211310000000003 0.0 0.0 0.0 0.0 0.0 0.0 0.0 0.0 0.0 0.0 0.0 0.0 0.1449830828446925 -1.9578267443937574 -1.524693803743401 -0.36355831413010814 9.477424486173704e-06 0.0 1.665733028285513 -20.857015475630305 -17.331939785177465 -2.6435762611841214 7.31483266210284e-05 0.0 -2.5593894163714808 -1.981546541253561 2.196263138447897 -2.288283964196676 -0.9389289061175745 -0.8211424986468714 0.0 0.0 -0.0 -0.0 -0.0 0.0 -0.042353566735982895 -1.8558512926101685 -1.4199659824371338 -0.43999868631362915 0.06311691552400589 -0.010744926519691944 0.1449830828446925 -1.9578267443937574 -1.524693803743401 -0.36355831413010814 9.477424486173704e-06 0.0 0.17468397771231017 0.45444199020302883 0.33807694994223286 -2.3613955112999006 -0.014921566717826629 0.00039042196716661585 0.0 0.0 0.0 0.0 0.0 0.0 10.902237651517591 -10.075687172154595 -0.6394305108893139 0.2056165843109972 0.3059925805696442 0.01696319043286429 0.17469364096918683 0.4544293391844036 0.3380542239097195 -2.361447703606261 -0.014854963595216687 0.00039488312928024103 0.0 0.0 0.0 0.0 0.0 0.0 768 30.0625 30.375 30.1875 34.4375 36.875 37.1875 0.592836 7 253 253 253 253 253 253 1 -0.038307227194309235 0.15322890877723694 -9.979032516479492 0.0 1.0 0.0 47.79704284667969 47.80420684814453 0.5449506640434265 47.7282600402832 47.670928955078125 47.670928955078125 47.670928955078125 47.599266052246094 47.584930419921875 3840 1
14831.564999999999 -2.5594089999999996 -1.9815459999999998 2.1962889999999997 -2.2882689999999997 -0.9389690000000002 -0.8211310000000003 0.0 0.0 0.0 0.0 0.0 0.0 0.0 0.0 0.0 0.0 0.0 0.0 0.145030571291678 -1.9576348503619756 -1.5247551771927672 -0.3635754301177162 -1.5075111421895663e-05 0.0 1.666278630386487 -20.854971200363348 -17.33263744717767 -2.6437007182980667 -0.00011635219840009696 0.0 -2.5593655745135706 -1.9815708599486292 2.1962879339801233 -2.288271566430563 -0.9389641920672815 -0.821106259022848 0.0 0.0 -0.0 -0.0 -0.0 0.0 -0.06983381509780884 -1.809037208557129 -1.423382043838501 -0.4418882727622986 0.07321742922067642 -0.006824455223977566 0.145030571291678 -1.9576348503619756 -1.5247551771927672 -0.3635754301177162 -1.5075111421895663e-05 0.0 0.17466990200395702 0.45443545539468216 0.3380657549663999 -2.36142846385658 -0.014890112281969426 0.00040366649194967957 0.0 0.0 0.0 0.0 0.0 0.0 11.005846908630655 -10.04274329214428 -0.371963949783364 0.20532277236023122 0.30595537201272544 0.021238905353245657 0.17469364096918683 0.4544293391844036 0.3380542239097195 -2.361447703606261 -0.014854963595216687 0.00039488312928024103 0.0 0.0 0.0 0.0 0.0 0.0 768 30.0625 30.375 30.1875 34.4375 36.875 37.1875 0.593724 7 253 253 253 253 253 253 1 -0.05746084079146385 0.17238251864910126 -10.055646896362305 0.0 1.0 0.0 47.767486572265625 47.814056396484375 0.4979557394981384 47.7282600402832 47.65659713745117 47.65659713745117 47.65659713745117 47.599266052246094 47.5562629699707 3840 1
14831.585 -2.5594089999999996 -1.9815459999999998 2.1962889999999997 -2.2882689999999997 -0.9389690000000002 -0.8211310000000003 0.0 0.0 0.0 0.0 0.0 0.0 0.0 0.0 0.0 0.0 0.0 0.0 0.14513213699682584 -1.9576341872438934 -1.5246882413745058 -0.36355460295265235 1.1649837414678736e-05 0.0 1.6674455344575438 -20.854964136069153 -17.33187655501117 -2.6435492757453574 8.991536820303804e-05 0.0 -2.5593894163714808 -1.9815226993956507 2.196263138447897 -2.288283964196676 -0.9389527479754847 -0.8211186567889612 0.0 0.0 -0.0 -0.0 -0.0 0.0 -0.051041048020124435 -1.8172568082809448 -1.4435527324676514 -0.4401397407054901 0.07552924752235413 -0.01100665982812643 0.14513213699682584 -1.9576341872438934 -1.5246882413745058 -0.36355460295265235 1.1649837414678736e-05 0.0 0.17469158095090284 0.45444123201735626 0.33806445911465516 -2.3614261321790426 -0.014875983107217635 0.0004062896154670173 0.0 0.0 0.0 0.0 0.0 0.0 10.958487496147372 -10.023554275610591 -0.5034913069981872 0.205948863226628 0.3042280600084094 0.021030619988976762 0.17469364096918683 0.4544293391844036 0.3380542239097195 -2.361447703606261 -0.014854963595216687 0.00039488312928024103 0.0 0.0 0.0 0.0 0.0 0.0 768 30.0625 30.375 30.1875 34.4375 36.875 37.1875 0.5919 7 253 253 253 253 253 253 1 -0.09576806426048279 0.19153612852096558 -10.017339706420898 0.0 1.0 0.0 47.798831939697266 47.80778884887695 0.5158582925796509 47.6995964050293 47.599266052246094 47.65659713745117 47.64226531982422 47.570594787597656 47.5562629699707 3840 1
14831.605 -2.5594089999999996 -1.9815459999999998 2.1962889999999997 -2.2882689999999997 -0.9389690000000002 -0.8211310000000003 0.0 0.0 0.0 0.0 0.0 0.0 0.0 0.0 0.0 0.0 0.0 0.0 0.14512694899688897 -1.9577222093299875 -1.524743739281614 -0.3635606147302158 -4.212413809862949e-06 0.0 1.6673859287250954 -20.855901848263105 -17.332507426850388 -2.643592989757213 -3.2512105126905265e-05 0.0 -2.5593536535846155 -1.9815827808775843 2.1962764898883265 -2.2882358036436976 -0.9389527479754847 -0.8211305777179163 0.0 0.0 -0.0 -0.0 -0.0 0.0 -0.046943750232458115 -1.7877353429794312 -1.4427225589752197 -0.43163615465164185 0.07613040506839752 0.004350116476416588 0.14512694899688897 -1.9577222093299875 -1.524743739281614 -0.3635606147302158 -4.212413809862949e-06 0.0 0.17465896949204512 0.45443661262946555 0.338071836380307 -2.3614268059995833 -0.01493153881157011 0.0004189900533871289 0.0 0.0 0.0 0.0 0.0 0.0 10.851564136787559 -10.192840677535827 -0.6206614611671766 0.21214198708284826 0.3058135080943391 0.013210477945175936 0.17469364096918683 0.4544293391844036 0.3380542239097195 -2.361447703606261 -0.014854963595216687 0.00039488312928024103 0.0 0.0 0.0 0.0 0.0 0.0 768 30.0625 30.375 30.1875 34.4375 36.875 37.1875 0.597324 7 253 253 253 253 253 253 1 -0.13407529890537262 0.1149216815829277 -10.132261276245117 0.0 1.0 0.0 47.79435729980469 47.805999755859375 0.491242915391922 47.71392822265625 47.64226531982422 47.65659713745117 47.670928955078125 47.61359786987305 47.54193115234375 3840 1
14831.625 -2.5594089999999996 -1.9815459999999998 2.1962889999999997 -2.2882689999999997 -0.9389690000000002 -0.8211310000000003 0.0 0.0 0.0 0.0 0.0 0.0 0.0 0.0 0.0 0.0 0.0 0.0 0.14505181836916303 -1.9577585547631622 -1.5246830196585401 -0.3635481208357563 1.1649722607365922e-05 0.0 1.6665227413408612 -20.856289041493742 -17.331817197213255 -2.6435021417102313 8.991448210124652e-05 0.0 -2.559413735066549 -1.981558462182516 2.19629937807192 -2.2882477245726527 -0.939000431691305 -0.8211668173419397 0.0 0.0 -0.0 -0.0 -0.0 0.0 -0.05654643848538399 -1.8230398893356323 -1.405167818069458 -0.43821093440055847 0.07351433485746384 -0.0019584973342716694 0.14505181836916303 -1.9577585547631622 -1.5246830196585401 -0.3635481208357563 1.1649722607365922e-05 0.0 0.17469524608901096 0.454420508842681 0.3380453512208659 -2.3614810137112174 -0.014873544798399602 0.0003686085051415386 0.0 0.0 0.0 0.0 0.0 0.0 10.931627390920555 -9.99800723401762 -0.6135835290400706 0.2094462842281832 0.3068893461898896 0.014477984550209516 0.17469364096918683 0.4544293391844036 0.3380542239097195 -2.361447703606261 -0.014854963595216687 0.00039488312928024103 0.0 0.0 0.0 0.0 0.0 0.0 768 30.0625 30.375 30.1875 34.4375 36.875 37.1875 0.591192 7 253 253 253 253 253 253 1 -0.07661445438861847 0.13407529890537262 -10.074800491333008 0.0 1.0 0.0 47.744205474853516 47.77286148071289 0.5449506640434265 47.6995964050293 47.6279296875 47.6279296875 47.61359786987305 47.570594787597656 47.498931884765625 3840 1
14831.644999999999 -2.5594089999999996 -1.9815459999999998 2.1962889999999997 -2.2882689999999997 -0.9389690000000002 -0.8211310000000003 0.0 0.0 0.0 0.0 0.0 0.0 0.0 0.0 0.0 0.0 0.0 0.0 0.14508911977201977 -1.9576514331914157 -1.5246897371994594 -0.363551956836886 5.149067822409084e-06 0.0 1.6669513029186722 -20.855147859677686 -17.33189355878463 -2.6435300347912865 3.974135540904418e-05 0.0 -2.5593774954425257 -1.981546541253561 2.1963117758380335 -2.288271566430563 -0.939000431691305 -0.8211424986468714 0.0 0.0 -0.0 -0.0 -0.0 0.0 -0.035377223044633865 -1.7994184494018555 -1.4225350618362427 -0.4387587606906891 0.07474937289953232 -0.003214685246348381 0.14508911977201977 -1.9576514331914157 -1.5246897371994594 -0.363551956836886 5.149067822409084e-06 0.0 0.17468086964171395 0.45442825478401944 0.33803800406655343 -2.361481067684609 -0.014887492429235713 0.0003986139293493848 0.0 0.0 0.0 0.0 0.0 0.0 11.137647794311924 -10.184151730016968 -0.635270467210062 0.20842090198664065 0.3060644855292918 0.02032400680441404 0.17469364096918683 0.4544293391844036 0.3380542239097195 -2.361447703606261 -0.014854963595216687 0.00039488312928024103 0.0 0.0 0.0 0.0 0.0 0.0 768 30.0625 30.375 30.1875 34.4375 36.875 37.1875 0.604056 7 253 253 253 253 253 253 1 -0.07661445438861847 0.17238251864910126 -10.055646896362305 0.0 1.0 0.0 47.796146392822266 47.82211685180664 0.5494276285171509 47.71392822265625 47.65659713745117 47.670928955078125 47.65659713745117 47.599266052246094 47.5562629699707 3840 1
14831.664999999999 -2.5594089999999996 -1.9815459999999998 2.1962889999999997 -2.2882689999999997 -0.9389690000000002 -0.8211310000000003 0.0 0.0 0.0 0.0 0.0 0.0 0.0 0.0 0.0 0.0 0.0 0.0 0.14498638348674472 -1.9576946153675474 -1.5247310732894013 -0.3635596001802632 -1.368074258306178e-06 0.0 1.6657709498717634 -20.85560788573384 -17.33236344632537 -2.643585612563332 -1.0559022953376589e-05 0.0 -2.559401814137594 -1.9815708599486292 2.1962879339801233 -2.288283964196676 -0.9389527479754847 -0.8211305777179163 0.0 0.0 -0.0 -0.0 -0.0 0.0 -0.07586773484945297 -1.855188012123108 -1.4287550449371338 -0.43744274973869324 0.07649068534374237 -0.019358690828084946 0.14498638348674472 -1.9576946153675474 -1.5247310732894013 -0.3635596001802632 -1.368074258306178e-06 0.0 0.1746857289654159 0.45443149239047936 0.338069499772283 -2.3614133507020028 -0.014884829975357956 0.0003713377450282262 0.0 0.0 0.0 0.0 0.0 0.0 11.006347503568358 -9.96787548706143 -0.41958965917418567 0.201583336314358 0.30750656219600536 0.021868882185386768 0.17469364096918683 0.4544293391844036 0.3380542239097195 -2.361447703606261 -0.014854963595216687 0.00039488312928024103 0.0 0.0 0.0 0.0 0.0 0.0 768 30.0625 30.375 30.1875 34.4375 36.875 37.1875 0.598321 7 253 253 253 253 253 253 1 -0.13407529890537262 0.05746084079146385 -10.017339706420898 0.0 1.0 0.0 47.749576568603516 47.762115478515625 0.49571460485458374 47.68526077270508 47.599266052246094 47.61359786987305 47.61359786987305 47.54193115234375 47.498931884765625 3840 1
14831.685 -2.5594089999999996 -1.9815459999999998 2.1962889999999997 -2.2882689999999997 -0.9389690000000002 -0.8211310000000003 0.0 0.0 0.0 0.0 0.0 0.0 0.0 0.0 0.0 0.0 0.0 0.0 0.14500587515049942 -1.9576052018135326 -1.5246472785551428 -0.36355635936867897 -1.3680228213340236e-06 0.0 1.6659948926067043 -20.854655350028033 -17.331410910619567 -2.6435620473408137 -1.0558625954334811e-05 0.0 -2.559413735066549 -1.9815346203246058 2.19629937807192 -2.288271566430563 -0.9389885107623499 -0.8211186567889612 0.0 0.0 -0.0 -0.0 -0.0 0.0 -0.09050951153039932 -1.8365603685379028 -1.4304332733154297 -0.4304373860359192 0.06785791367292404 -0.00022109784185886383 0.14500587515049942 -1.9576052018135326 -1.5246472785551428 -0.36355635936867897 -1.3680228213340236e-06 0.0 0.17469924447281657 0.45442606732898044 0.3380418233797863 -2.3614725531896306 -0.014820659715552499 0.0004017863335532797 0.0 0.0 0.0 0.0 0.0 0.0 10.807517042279825 -10.131407561164046 -0.4239724079532561 0.20630506864355858 0.306573397976596 0.012246913769117296 0.17469364096918683 0.4544293391844036 0.3380542239097195 -2.361447703606261 -0.014854963595216687 0.00039488312928024103 0.0 0.0 0.0 0.0 0.0 0.0 768 30.0625 30.375 30.1875 34.4375 36.875 37.1875 0.599053 7 253 253 253 253 253 253 1 -0.15322890877723694 0.15322890877723694 -10.017339706420898 0.0 1.0 0.0 47.751365661621094 47.78361129760742 0.5158582925796509 47.6995964050293 47.599266052246094 47.6279296875 47.6279296875 47.5562629699707 47.5275993347168 3840 1
